;FLAVOR:Marlin
;TIME:1831
;Filament used: 1.23085m
;Layer height: 0.2
;MINX:74.451
;MINY:69.45
;MINZ:0.2
;MAXX:105.55
;MAXY:110.55
;MAXZ:10.4
;TARGET_MACHINE.NAME:Kingroon KP3S
;Generated with Cura_SteamEngine 5.6.0
M140 S60
M104 S220
M190 S60
M109 S220
M82 ;absolute extrusion mode
G28 ; home all axes
G90
 M117 Purge extruder
 G92 E0 ; reset extruder
 G1 Z1.0 F3000 ; move z up little to prevent scratching of surface
 G1 X2 Y20 Z0.3 F5000.0 ; move to start-line position
 G1 X2 Y175.0 Z0.3 F1500.0 E15 ; draw 1st line
 G1 X2 Y175.0 Z0.4 F5000.0 ; move to side a little
 G1 X2 Y20 Z0.4 F1500.0 E30 ; draw 2nd line
 G92 E0 ; reset extruder
 G1 Z1.0 F3000 ; move z up little to prevent scratching of surface
G92 E0
G92 E0
G1 F2400 E-4
;LAYER_COUNT:50
;LAYER:0
M107
G1 F240 Z0.6
;MESH:Frantic Albar (15).stl 2
G0 F6000 X78.047 Y69.451 Z0.6
;TYPE:WALL-OUTER
G1 F240 Z0.2
G1 F2400 E0
G1 F900 X76.451 Y69.451 E0.05574
G1 X76.448 Y71.837 E0.13906
G1 X76.362 Y72.054 E0.14722
G1 X76.296 Y72.14 E0.151
G1 X76.145 Y72.222 E0.157
G1 X76.062 Y72.245 E0.16001
G1 X75.889 Y72.232 E0.16607
G1 X75.831 Y72.218 E0.16815
G1 X74.451 Y71.665 E0.22007
G1 X74.451 Y74.335 E0.31332
G1 X75.832 Y73.78 E0.36529
G1 X75.894 Y73.766 E0.36751
G1 F902.1 X76.145 Y73.776 E0.37627
G1 X76.23 Y73.818 E0.37957
G1 F900 X76.336 Y73.906 E0.38438
G1 X76.382 Y73.961 E0.38688
G1 X76.403 Y74.007 E0.38865
G1 X76.451 Y74.182 E0.39499
G1 X76.451 Y76.549 E0.47765
G1 X105.55 Y76.55 E1.49388
G1 X105.55 Y74.866 E1.55269
G1 X104.124 Y75.434 E1.6063
G1 X103.898 Y75.432 E1.61419
G1 X103.768 Y75.384 E1.61903
G1 X103.662 Y75.296 E1.62384
G1 X103.595 Y75.194 E1.6281
G1 X103.548 Y75.016 E1.63453
G1 X103.548 Y70.997 E1.77489
G1 F902.1 X103.565 Y70.916 E1.77777
G1 X103.641 Y70.732 E1.78471
G1 X103.733 Y70.639 E1.78926
G1 X103.854 Y70.576 E1.79402
G1 X103.914 Y70.555 E1.79623
G1 F900 X104.109 Y70.565 E1.80305
G1 X104.168 Y70.58 E1.80518
G1 X105.55 Y71.133 E1.85716
G1 X105.55 Y69.45 E1.91594
G1 X101.954 Y69.451 E2.04152
G1 X101.953 Y73.519 E2.18359
G1 X101.918 Y73.878 E2.19618
G1 F902.1 X101.869 Y74.06 E2.20275
G1 X101.809 Y74.236 E2.20923
G1 F900 X101.747 Y74.368 E2.21432
G1 X101.607 Y74.608 E2.22403
G1 X101.51 Y74.717 E2.22912
G1 X101.509 Y74.728 E2.22951
G1 X101.229 Y75.018 E2.24359
G1 X101 Y75.185 E2.25348
G1 X100.735 Y75.311 E2.26373
G1 F902.1 X100.55 Y75.374 E2.27054
G1 X100.361 Y75.42 E2.27732
G1 F900 X100.2 Y75.443 E2.283
G1 X100.009 Y75.452 E2.28967
G1 X79.981 Y75.452 E2.98911
G1 X79.802 Y75.443 E2.99537
G1 X79.642 Y75.421 E3.00101
G1 X79.435 Y75.37 E3.00846
G1 X79.266 Y75.311 E3.01471
G1 X79.001 Y75.185 E3.02496
G1 X78.768 Y75.016 E3.03501
G1 X78.627 Y74.89 E3.04161
G1 X78.485 Y74.733 E3.04901
G1 X78.38 Y74.592 E3.05515
G1 X78.284 Y74.433 E3.06163
G1 X78.186 Y74.226 E3.06963
G1 F902.1 X78.135 Y74.08 E3.07502
G1 X78.086 Y73.893 E3.08175
G1 F900 X78.056 Y73.69 E3.08892
G1 X78.047 Y73.507 E3.09532
G1 X78.047 Y69.451 E3.23697
G1 F2400 E-0.76303
G1 F240 Z0.6
G0 F6000 X102.374 Y69.871 Z0.6
;TYPE:WALL-INNER
G1 F240 Z0.2
G1 F2400 E3.23697
G1 F895.7 X102.375 Y70.592 E3.26277
G1 F747 X102.457 Y70.997 E3.28051
G1 F644 X102.457 Y73.547 E3.40746
G1 F683.5 X102.412 Y73.708 E3.4153
G1 F806 X102.334 Y73.929 E3.42462
G1 F902.1 X102.281 Y74.15 E3.4327
G1 X102.189 Y74.415 E3.44267
G1 F900 X102.127 Y74.546 E3.44783
G1 X101.998 Y74.778 E3.45729
G1 X101.792 Y75.043 E3.46924
G1 X101.564 Y75.282 E3.48101
G1 X101.47 Y75.362 E3.48541
G1 X101.182 Y75.564 E3.49794
G1 X100.875 Y75.708 E3.51002
G1 F924.2 X100.706 Y75.755 E3.5161
G1 F997.4 X100.434 Y75.803 E3.52498
G1 F1070.8 X100.254 Y75.822 E3.5304
G1 F1105.3 X100.039 Y75.831 E3.53664
G1 F1115 X79.962 Y75.831 E4.11389
G1 F1105.3 X79.75 Y75.822 E4.12004
G1 F1058.8 X79.526 Y75.8 E4.12686
G1 F976.7 X79.299 Y75.76 E4.13442
G1 F915.3 X79.128 Y75.708 E4.14068
G1 F900 X78.819 Y75.564 E4.15283
G1 X78.693 Y75.484 E4.15814
G1 X78.473 Y75.317 E4.16798
G1 X78.3 Y75.156 E4.1764
G1 X78.148 Y74.984 E4.18458
G1 X78.007 Y74.789 E4.19315
G1 X77.923 Y74.648 E4.199
G1 X77.814 Y74.424 E4.20787
G1 F902.1 X77.728 Y74.184 E4.21693
G1 X77.679 Y73.997 E4.2238
G1 F900 X77.641 Y73.759 E4.23238
G1 X77.627 Y73.507 E4.24138
G1 X77.627 Y72.392 E4.28109
G1 F745.6 X77.54 Y71.975 E4.29941
G1 F639.6 X77.543 Y69.955 E4.40066
G1 F642.9 X76.955 Y69.955 E4.42999
G1 X76.955 Y71.8 E4.522
G1 F639.6 X76.948 Y71.924 E4.52822
G1 F745.6 X76.749 Y72.216 E4.54342
G1 F900 X76.551 Y72.474 E4.555
G1 X76.339 Y72.595 E4.5637
G1 F836.3 X76.235 Y72.671 E4.56863
G1 F728.3 X76.097 Y72.73 E4.57524
G1 F678.6 X75.843 Y72.72 E4.58725
G1 F771.4 X75.533 Y72.551 E4.60192
G1 F900 X74.871 Y72.286 E4.62732
G1 X74.871 Y73.713 E4.67816
G1 X75.533 Y73.447 E4.70357
G1 F771.4 X75.843 Y73.278 E4.71824
G1 F678.6 X76.111 Y73.283 E4.73091
G1 F728.3 X76.251 Y73.336 E4.7375
G1 F836.3 X76.427 Y73.443 E4.74539
G1 F900 X76.604 Y73.583 E4.75343
G1 X76.744 Y73.748 E4.76114
G1 X76.806 Y73.887 E4.76656
G1 X76.871 Y74.149 E4.77618
G1 X76.871 Y76.129 E4.84671
G1 X79.057 Y76.128 E4.92458
G1 F992.1 X79.793 Y76.169 E4.9484
G1 F1108.5 X100.047 Y76.171 E5.53417
G1 F1080 X100.465 Y76.161 E5.54658
G1 F969.2 X100.946 Y76.129 E5.56253
G1 F900 X103.348 Y76.13 E5.64809
G1 F984.4 X103.886 Y76.166 E5.66565
G1 F1076.9 X104.22 Y76.164 E5.67559
G1 F919.7 X104.87 Y76.105 E5.69834
G1 F804.3 X105.105 Y76.105 E5.70771
G1 X105.105 Y75.523 E5.73091
G1 X104.783 Y75.652 E5.74474
G1 F895.7 X104.314 Y75.79 E5.76224
G1 F1038.5 X104.19 Y75.814 E5.76614
G1 F1076.9 X103.889 Y75.816 E5.7751
G1 F984.4 X103.5 Y75.708 E5.78824
G1 F900 X103.394 Y75.62 E5.79315
G1 X103.192 Y75.314 E5.80621
G1 X103.15 Y75.171 E5.81152
G1 X103.129 Y75.04 E5.81625
G1 X103.128 Y73.984 E5.85386
G1 F750 X103.044 Y73.563 E5.87222
G1 F644 X103.045 Y70.997 E5.99996
G1 F747 X103.174 Y70.752 E6.01185
G1 F895.7 X103.264 Y70.546 E6.01989
G1 F908.7 X103.54 Y70.269 E6.03369
G1 F945 X103.667 Y70.217 E6.03835
G1 F1030 X103.848 Y70.177 E6.04412
G1 F1098.8 X104.007 Y70.173 E6.04876
G1 F1095.7 X104.145 Y70.183 E6.0528
G1 F1044.2 X104.316 Y70.21 E6.05812
G1 F893.6 X104.783 Y70.347 E6.07558
G1 F804.3 X105.105 Y70.476 E6.08941
G1 X105.105 Y69.895 E6.11257
G1 X104.87 Y69.895 E6.12193
G1 F924.2 X104.161 Y69.834 E6.14662
G1 F1086.2 X103.819 Y69.833 E6.15671
G1 F994.7 X103.442 Y69.867 E6.16891
G1 F908.7 X102.374 Y69.871 E6.2066
G1 F2400 E2.2066
G1 F240 Z0.6
G0 F6000 X75.387 Y72.941 Z0.6
G1 F240 Z0.2
G1 F2400 E6.2066
G1 F692.3 X75.321 Y72.941 E6.20965
G1 X75.286 Y72.999 E6.21279
G1 X75.32 Y73.057 E6.2159
G1 X75.387 Y73.057 E6.219
G1 X75.422 Y72.999 E6.22214
G1 F2400 E2.22214
G1 F240 Z0.6
G0 F6000 X77.187 Y72.309 Z0.6
G1 F240 Z0.2
G1 F2400 E6.22214
G1 F821.7 X77.155 Y72.386 E6.22539
G1 X76.818 Y72.824 E6.24696
G1 X76.663 Y72.922 E6.25411
G1 X76.513 Y72.996 E6.26064
G1 X76.658 Y73.069 E6.26697
G1 X76.884 Y73.245 E6.27814
G1 F832.6 X77.117 Y73.527 E6.29223
G1 F851.4 X77.212 Y73.742 E6.30108
G1 F855.2 X77.195 Y73.566 E6.30771
G1 F836.3 X77.187 Y72.309 E6.3559
G0 F6000 X77.214 Y73.766
G1 F902.1 X77.284 Y74.117 E6.36862
G1 F834.4 X77.331 Y74.53 E6.38459
G1 F754.5 X77.332 Y75.668 E6.43294
G1 F753 X78.175 Y75.668 E6.46884
G1 X77.958 Y75.466 E6.48146
G1 X77.844 Y75.34 E6.48869
G1 X77.611 Y75.025 E6.50537
G1 X77.478 Y74.793 E6.51676
G1 F754.5 X77.358 Y74.526 E6.5292
G1 F799.2 X77.306 Y74.292 E6.53881
G1 F889.4 X77.284 Y74.117 E6.54517
G1 F2400 E2.54517
G1 F240 Z0.6
G0 F6000 X102.656 Y74.515 Z0.6
G1 F240 Z0.2
G1 F2400 E6.54517
G1 F721.4 X102.554 Y74.747 E6.55644
G1 X102.41 Y75.009 E6.56972
G1 X102.274 Y75.199 E6.58011
G1 X102.133 Y75.369 E6.58992
G1 X101.905 Y75.608 E6.6046
G1 X101.847 Y75.657 E6.60798
G1 X102.877 Y75.657 E6.65375
G1 X102.74 Y75.449 E6.66482
G1 X102.695 Y75.297 E6.67187
G1 X102.657 Y75.067 E6.68223
G1 X102.656 Y74.515 E6.70676
G1 F2400 E2.70676
G1 F240 Z0.6
G0 F6000 X102.907 Y70.34 Z0.6
G1 F240 Z0.2
G1 F2400 E6.70676
G1 F729.7 X102.874 Y70.395 E6.70958
G1 X102.811 Y70.395 E6.71234
G1 X102.779 Y70.34 E6.71514
G1 X102.812 Y70.285 E6.71796
G1 X102.874 Y70.285 E6.72068
G1 F2400 E2.72068
G1 F240 Z0.6
G0 F6000 X91.26 Y81.45 Z0.6
;TYPE:WALL-OUTER
G1 F240 Z0.2
G1 F2400 E6.72068
G1 F900 X91.26 Y82.79 E6.76748
G1 X92.868 Y82.792 E6.82363
G1 X93.171 Y82.806 E6.83423
G1 X93.645 Y82.858 E6.85088
G1 F902.1 X93.794 Y82.895 E6.85623
G1 X94.138 Y83.018 E6.86896
G1 F900 X94.3 Y83.101 E6.87531
G1 X94.585 Y83.292 E6.8873
G1 X94.714 Y83.413 E6.89347
G1 X94.95 Y83.707 E6.90664
G1 X95.135 Y84.037 E6.91985
G1 X95.222 Y84.242 E6.92763
G1 X95.291 Y84.491 E6.93665
G1 X95.363 Y84.919 E6.95181
G1 X95.401 Y85.44 E6.97005
G1 X95.402 Y94.061 E7.27112
G1 X95.374 Y94.184 E7.27553
G1 X95.338 Y94.247 E7.27806
G1 X95.233 Y94.371 E7.28374
G1 X95.188 Y94.404 E7.28569
G1 F902.1 X95.002 Y94.462 E7.29247
G1 X92.033 Y94.467 E7.39591
G1 F900 X91.833 Y94.416 E7.40312
G1 X91.786 Y94.381 E7.40517
G1 X91.676 Y94.271 E7.4106
G1 X86.466 Y84.983 E7.78251
G1 X86.271 Y84.676 E7.79522
G1 X86.02 Y84.308 E7.81077
G1 X85.772 Y83.983 E7.82505
G1 X85.524 Y83.686 E7.83856
G1 X85.283 Y83.424 E7.85099
G1 X85.04 Y83.189 E7.8628
G1 X84.769 Y82.955 E7.8753
G1 X84.527 Y82.775 E7.88584
G1 X84.232 Y82.584 E7.89811
G1 X83.916 Y82.403 E7.91083
G1 X83.619 Y82.259 E7.92236
G1 X83.152 Y82.064 E7.94003
G1 X82.547 Y81.881 E7.9621
G1 X82.15 Y81.782 E7.97639
G1 X81.728 Y81.696 E7.99143
G1 X81.279 Y81.624 E8.00731
G1 X80.835 Y81.57 E8.02293
G1 X80.358 Y81.535 E8.03964
G1 X79.229 Y81.48 E8.07911
G1 X77.993 Y81.453 E8.12229
G1 X76.451 Y81.45 E8.17614
G1 X76.45 Y82.8 E8.22328
G1 X76.638 Y82.815 E8.22987
G1 X77.063 Y82.882 E8.2449
G1 X77.261 Y82.93 E8.25201
G1 X77.664 Y83.062 E8.26682
G1 X77.891 Y83.159 E8.27544
G1 X78.111 Y83.271 E8.28406
G1 X78.311 Y83.388 E8.29216
G1 X78.712 Y83.671 E8.3093
G1 X79.097 Y84.013 E8.32728
G1 X79.263 Y84.176 E8.33541
G1 X79.628 Y84.568 E8.35411
G1 X79.832 Y84.803 E8.36498
G1 X80.189 Y85.29 E8.38607
G1 X80.556 Y85.827 E8.40878
G1 X80.929 Y86.404 E8.43278
G1 X86.178 Y95.054 E8.78613
G1 X86.221 Y95.208 E8.79171
G1 X86.226 Y95.299 E8.7949
G1 X86.17 Y95.477 E8.80141
G1 X86.112 Y95.557 E8.80486
G1 X85.987 Y95.655 E8.81041
G1 X85.591 Y95.82 E8.82539
G1 X84.87 Y96.152 E8.85311
G1 X84.194 Y96.513 E8.87988
G1 X83.834 Y96.731 E8.89457
G1 X83.521 Y96.941 E8.90774
G1 X83.191 Y97.187 E8.92211
G1 X82.884 Y97.438 E8.93596
G1 X82.6 Y97.695 E8.94934
G1 X82.306 Y97.987 E8.96381
G1 X82.033 Y98.282 E8.97785
G1 X81.765 Y98.606 E8.99253
G1 X81.538 Y98.918 E9.006
G1 X81.312 Y99.274 E9.02073
G1 X81.113 Y99.628 E9.03491
G1 X80.925 Y100.012 E9.04984
G1 X80.749 Y100.431 E9.06572
G1 X80.598 Y100.84 E9.08094
G1 X80.474 Y101.267 E9.09647
G1 X80.373 Y101.725 E9.11285
G1 X80.303 Y102.193 E9.12938
G1 X80.262 Y102.665 E9.14592
G1 X80.248 Y103.17 E9.16356
G1 X80.324 Y104.349 E9.20482
G1 X80.554 Y105.404 E9.24253
G1 X80.928 Y106.343 E9.27783
G1 X81.452 Y107.197 E9.31282
G1 X82.133 Y107.96 E9.34854
G1 X82.965 Y108.629 E9.38582
G1 X83.971 Y109.208 E9.42636
G1 X85.159 Y109.684 E9.47105
G1 X86.533 Y110.057 E9.52077
G1 X88.147 Y110.332 E9.57795
G1 X89.885 Y110.494 E9.63891
G1 F902.1 X91.852 Y110.55 E9.70747
G1 X105.55 Y110.55 E10.18471
G1 F900 X105.55 Y109.21 E10.23151
G1 X104.155 Y109.21 E10.28022
G1 X103.832 Y109.199 E10.29151
G1 X103.362 Y109.139 E10.30806
G1 X103.01 Y109.055 E10.3207
G1 X102.756 Y108.953 E10.33025
G1 X102.426 Y108.756 E10.34368
G1 X102.168 Y108.542 E10.35538
G1 X102.036 Y108.399 E10.36218
G1 X101.918 Y108.24 E10.36909
G1 X101.828 Y108.09 E10.3752
G1 X101.738 Y107.912 E10.38217
G1 X101.657 Y107.716 E10.38958
G1 X101.578 Y107.471 E10.39857
G1 X101.522 Y107.237 E10.40697
G1 X101.457 Y106.761 E10.42375
G1 X101.429 Y106.31 E10.43953
G1 X101.441 Y106.3 E10.44007
G1 X101.441 Y85.419 E11.1693
G1 X101.488 Y84.916 E11.18694
G1 X101.525 Y84.695 E11.19477
G1 X101.598 Y84.397 E11.20549
G1 X101.66 Y84.216 E11.21217
G1 X101.732 Y84.048 E11.21855
G1 X101.902 Y83.741 E11.23081
G1 X102.033 Y83.557 E11.23869
G1 X102.251 Y83.294 E11.25062
G1 X102.355 Y83.226 E11.25496
G1 X102.372 Y83.23 E11.25557
G1 X102.443 Y83.18 E11.25861
G1 X102.734 Y83.02 E11.2702
G1 X103.035 Y82.906 E11.28144
G1 X103.205 Y82.862 E11.28758
G1 X103.701 Y82.805 E11.30501
G1 X104.012 Y82.792 E11.31588
G1 X105.55 Y82.79 E11.36959
G1 X105.55 Y81.45 E11.41639
G1 X91.26 Y81.45 E11.91544
G1 F2400 E7.91544
G1 F240 Z0.6
G0 F6000 X92.005 Y96.028 Z0.6
G1 F240 Z0.2
G1 F2400 E11.91544
G1 F900 X92.516 Y96.019 E11.93329
G1 X94.958 Y96.019 E12.01857
G1 X95.14 Y96.053 E12.02504
G1 X95.31 Y96.192 E12.03271
G1 X95.347 Y96.245 E12.03497
G1 X95.398 Y96.408 E12.04093
G1 X95.407 Y96.468 E12.04305
G1 X95.402 Y108.565 E12.46551
G1 X95.382 Y108.658 E12.46884
G1 X95.338 Y108.748 E12.47234
G1 X95.25 Y108.854 E12.47715
G1 X95.148 Y108.921 E12.48141
G1 X94.994 Y108.965 E12.487
G1 X92.575 Y108.968 E12.57148
G1 X92.094 Y108.958 E12.58828
G1 X91.64 Y108.932 E12.60416
G1 X91.186 Y108.88 E12.62012
G1 X90.753 Y108.813 E12.63542
G1 X90.344 Y108.721 E12.65006
G1 X89.99 Y108.619 E12.66293
G1 X89.635 Y108.493 E12.67609
G1 X89.283 Y108.337 E12.68953
G1 X88.917 Y108.133 E12.70417
G1 X88.658 Y107.958 E12.71508
G1 X88.357 Y107.712 E12.72866
G1 X88.11 Y107.465 E12.74086
G1 X87.87 Y107.188 E12.75366
G1 X87.65 Y106.88 E12.76687
G1 X87.469 Y106.567 E12.7795
G1 X87.311 Y106.231 E12.79247
G1 X87.077 Y105.596 E12.8161
G1 X87.09 Y105.581 E12.8168
G1 X86.951 Y105.052 E12.8359
G1 X86.865 Y104.6 E12.85197
G1 X86.803 Y104.16 E12.86748
G1 X86.758 Y103.689 E12.88401
G1 X86.73 Y103.167 E12.90226
G1 X86.721 Y102.62 E12.92137
G1 X86.729 Y102.132 E12.93841
G1 X86.754 Y101.628 E12.95604
G1 X86.795 Y101.146 E12.97293
G1 X86.85 Y100.684 E12.98918
G1 X86.923 Y100.255 E13.00438
G1 X87.017 Y99.815 E13.02009
G1 X87.117 Y99.431 E13.03395
G1 X87.288 Y98.912 E13.05303
G1 X87.308 Y98.901 E13.05383
G1 X87.394 Y98.682 E13.06204
G1 X87.57 Y98.338 E13.07554
G1 X87.765 Y98.029 E13.0883
G1 X88.006 Y97.711 E13.10223
G1 X88.216 Y97.464 E13.11356
G1 X88.621 Y97.071 E13.13326
G1 X88.637 Y97.073 E13.13383
G1 X88.776 Y96.962 E13.14004
G1 X89.09 Y96.756 E13.15315
G1 X89.443 Y96.565 E13.16717
G1 X89.795 Y96.411 E13.18059
G1 X90.17 Y96.291 E13.19434
G1 X90.595 Y96.191 E13.20959
G1 X91.02 Y96.116 E13.22466
G1 X91.521 Y96.06 E13.24226
G1 F902.1 X91.828 Y96.041 E13.25298
G1 X91.84 Y96.054 E13.2536
G1 X92.005 Y96.028 E13.25942
G0 F6000 X91.995 Y95.533
;TYPE:WALL-INNER
G1 F665.5 X94.958 Y95.526 E13.40216
G1 F738.3 X95.188 Y95.614 E13.41285
G1 F861 X95.369 Y95.703 E13.42036
G1 F900 X95.454 Y95.763 E13.42407
G1 X95.649 Y95.942 E13.4335
G1 X95.725 Y96.062 E13.43856
G1 X95.8 Y96.288 E13.44704
G1 X95.827 Y96.468 E13.45352
G1 X95.826 Y108.52 E13.88283
G1 X95.813 Y108.653 E13.88759
G1 X95.793 Y108.746 E13.89098
G1 X95.661 Y109.016 E13.90169
G1 X95.574 Y109.122 E13.90657
G1 F834.4 X95.278 Y109.355 E13.92105
G1 F703.9 X95.081 Y109.462 E13.93126
G1 F647.3 X92.565 Y109.468 E14.05588
G1 F648.4 X92.013 Y109.458 E14.08317
G1 F751.5 X91.607 Y109.351 E14.10109
G1 F900 X91.147 Y109.299 E14.11758
G1 X90.662 Y109.223 E14.13506
G1 X90.227 Y109.125 E14.15095
G1 X89.85 Y109.015 E14.16494
G1 X89.495 Y108.889 E14.17836
G1 X89.112 Y108.721 E14.19325
G1 X88.682 Y108.481 E14.2108
G1 X88.377 Y108.272 E14.22397
G1 X88.061 Y108.01 E14.23859
G1 X87.793 Y107.741 E14.25211
G1 X87.529 Y107.433 E14.26656
G1 X87.286 Y107.09 E14.28154
G1 X87.089 Y106.746 E14.29566
G1 X86.931 Y106.41 E14.30889
G1 X86.68 Y105.744 E14.33424
G1 X86.662 Y105.659 E14.33733
G1 X86.673 Y105.646 E14.33794
G1 X86.539 Y105.132 E14.35686
G1 X86.449 Y104.658 E14.37405
G1 X86.385 Y104.201 E14.39049
G1 X86.338 Y103.712 E14.40798
G1 X86.31 Y103.198 E14.42632
G1 X86.301 Y102.614 E14.44713
G1 X86.309 Y102.111 E14.46505
