;FLAVOR:Marlin
;TIME:4700
;Filament used: 3.66824m
;Layer height: 0.2
;MINX:60.62
;MINY:70.62
;MINZ:0.2
;MAXX:119.38
;MAXY:109.38
;MAXZ:18.4
;TARGET_MACHINE.NAME:Kingroon KP3S
;Generated with Cura_SteamEngine 5.6.0
M140 S60
M104 S220
M190 S60
M109 S220
M82 ;absolute extrusion mode
G28 ; home all axes
 M117 Purge extruder
 G92 E0 ; reset extruder
 G1 Z1.0 F3000 ; move z up little to prevent scratching of surface
 G1 X2 Y20 Z0.3 F5000.0 ; move to start-line position
 G1 X2 Y175.0 Z0.3 F1500.0 E15 ; draw 1st line
 G1 X2 Y175.0 Z0.4 F5000.0 ; move to side a little
 G1 X2 Y20 Z0.4 F1500.0 E30 ; draw 2nd line
 G92 E0 ; reset extruder
 G1 Z1.0 F3000 ; move z up little to prevent scratching of surface
G92 E0
G92 E0
G1 F2400 E-4
;LAYER_COUNT:90
;LAYER:0
M107
G1 F240 Z0.6
;MESH:Tetromino_Z.3mf
G0 F6000 X76.632 Y86.632 Z0.6
;TYPE:WALL-INNER
G1 F240 Z0.2
G1 F2400 E0
G1 F1200 X76.632 Y73.368 E0.48528
G1 X63.368 Y73.368 E0.97056
G1 X63.368 Y86.632 E1.45584
G1 X76.632 Y86.632 E1.94111
G0 F6000 X77.072 Y87.072
G1 F1200 X77.072 Y72.928 E2.45859
G1 X62.928 Y72.928 E2.97606
G1 X62.928 Y87.072 E3.49354
G1 X77.072 Y87.072 E4.01101
G0 F6000 X77.512 Y87.512
G1 F1200 X77.512 Y72.488 E4.56068
G1 X62.488 Y72.488 E5.11035
G1 X62.488 Y87.512 E5.66002
G1 X77.512 Y87.512 E6.20969
G0 F6000 X77.952 Y87.952
;TYPE:WALL-OUTER
G1 F1200 X77.952 Y72.048 E6.79156
G1 X62.048 Y72.048 E7.37343
G1 X62.048 Y87.952 E7.95529
G1 X77.952 Y87.952 E8.53716
G1 F2400 E4.53716
G1 F240 Z0.6
G0 F6000 X76.236 Y86.236 Z0.6
;TYPE:SKIN
G1 F240 Z0.2
G1 F2400 E8.53716
G1 F1200 X63.764 Y86.236 E8.99346
G1 X63.764 Y73.764 E9.44976
G1 X76.236 Y73.764 E9.90607
G1 X76.236 Y86.236 E10.36237
G1 F2400 E6.36237
G1 F240 Z0.6
G0 F6000 X76.015 Y74.148 Z0.6
G1 F240 Z0.2
G1 F2400 E10.36237
G1 F1200 X75.851 Y73.984 E10.37085
G0 F6000 X75.229 Y73.984
G1 F1200 X76.015 Y74.77 E10.41152
G0 F6000 X76.015 Y75.393
G1 F1200 X74.606 Y73.984 E10.48442
G0 F6000 X73.984 Y73.984
G1 F1200 X76.015 Y76.015 E10.58951
G0 F6000 X76.015 Y76.637
G1 F1200 X73.362 Y73.984 E10.72678
G0 F6000 X72.74 Y73.984
G1 F1200 X76.015 Y77.259 E10.89623
G0 F6000 X76.015 Y77.882
G1 F1200 X72.117 Y73.984 E11.09791
G0 F6000 X71.495 Y73.984
G1 F1200 X76.015 Y78.504 E11.33178
G0 F6000 X76.015 Y79.126
G1 F1200 X70.873 Y73.984 E11.59783
G0 F6000 X70.251 Y73.984
G1 F1200 X76.015 Y79.748 E11.89606
G0 F6000 X76.015 Y80.371
G1 F1200 X69.628 Y73.984 E12.22653
G0 F6000 X69.006 Y73.984
G1 F1200 X76.015 Y80.993 E12.58918
G0 F6000 X76.015 Y81.615
G1 F1200 X68.384 Y73.984 E12.98401
G0 F6000 X67.762 Y73.984
G1 F1200 X76.015 Y82.237 E13.41103
G0 F6000 X76.015 Y82.86
G1 F1200 X67.139 Y73.984 E13.87028
G0 F6000 X66.517 Y73.984
G1 F1200 X76.015 Y83.482 E14.36171
G0 F6000 X76.015 Y84.104
G1 F1200 X65.895 Y73.984 E14.88533
G0 F6000 X65.273 Y73.984
G1 F1200 X76.015 Y84.726 E15.44112
G0 F6000 X76.015 Y85.349
G1 F1200 X64.65 Y73.984 E16.02916
G0 F6000 X64.028 Y73.984
G1 F1200 X76.015 Y85.971 E16.64937
G0 F6000 X75.436 Y86.015
G1 F1200 X63.983 Y74.562 E17.24196
G0 F6000 X63.983 Y75.184
G1 F1200 X74.814 Y86.015 E17.80236
G0 F6000 X74.192 Y86.015
G1 F1200 X63.983 Y75.806 E18.33058
G0 F6000 X63.983 Y76.429
G1 F1200 X73.57 Y86.015 E18.82659
G0 F6000 X72.947 Y86.015
G1 F1200 X63.983 Y77.051 E19.29039
G0 F6000 X63.983 Y77.673
G1 F1200 X72.325 Y86.015 E19.72201
G0 F6000 X71.703 Y86.015
G1 F1200 X63.983 Y78.295 E20.12145
G0 F6000 X63.983 Y78.918
G1 F1200 X71.081 Y86.015 E20.48868
G0 F6000 X70.458 Y86.015
G1 F1200 X63.983 Y79.54 E20.8237
G0 F6000 X63.983 Y80.162
G1 F1200 X69.836 Y86.015 E21.12654
G0 F6000 X69.214 Y86.015
G1 F1200 X63.983 Y80.784 E21.3972
G0 F6000 X63.983 Y81.407
G1 F1200 X68.592 Y86.015 E21.63564
G0 F6000 X67.969 Y86.015
G1 F1200 X63.983 Y82.029 E21.84188
G0 F6000 X63.983 Y82.651
G1 F1200 X67.347 Y86.015 E22.01594
G0 F6000 X66.725 Y86.015
G1 F1200 X63.983 Y83.273 E22.15781
G0 F6000 X63.983 Y83.896
G1 F1200 X66.103 Y86.015 E22.26747
G0 F6000 X65.48 Y86.015
G1 F1200 X63.983 Y84.518 E22.34493
G0 F6000 X63.983 Y85.14
G1 F1200 X64.858 Y86.015 E22.3902
G0 F6000 X64.236 Y86.015
G1 F1200 X63.983 Y85.762 E22.40329
G1 F2400 E18.40329
G1 F240 Z0.6
G0 F6000 X96.632 Y86.632 Z0.6
;TYPE:WALL-INNER
G1 F240 Z0.2
G1 F2400 E22.40329
G1 F1200 X96.632 Y73.368 E22.88857
G1 X83.368 Y73.368 E23.37385
G1 X83.368 Y86.632 E23.85913
G1 X96.632 Y86.632 E24.34441
G0 F6000 X97.072 Y87.072
G1 F1200 X97.072 Y72.928 E24.86188
G1 X82.928 Y72.928 E25.37936
G1 X82.928 Y87.072 E25.89683
G1 X97.072 Y87.072 E26.4143
G0 F6000 X97.512 Y87.512
G1 F1200 X97.512 Y72.488 E26.96397
G1 X82.488 Y72.488 E27.51364
G1 X82.488 Y87.512 E28.06332
G1 X97.512 Y87.512 E28.61299
G0 F6000 X97.952 Y87.952
;TYPE:WALL-OUTER
G1 F1200 X97.952 Y72.048 E29.19485
G1 X82.048 Y72.048 E29.77672
G1 X82.048 Y87.952 E30.35858
G1 X97.952 Y87.952 E30.94045
G1 F2400 E26.94045
G1 F240 Z0.6
G0 F6000 X96.236 Y86.236 Z0.6
;TYPE:SKIN
G1 F240 Z0.2
G1 F2400 E30.94045
G1 F1200 X83.764 Y86.236 E31.39675
G1 X83.764 Y73.764 E31.85305
G1 X96.236 Y73.764 E32.30936
G1 X96.236 Y86.236 E32.76566
G1 F2400 E28.76566
G1 F240 Z0.6
G0 F6000 X95.763 Y73.984 Z0.6
G1 F240 Z0.2
G1 F2400 E32.76566
G1 F1200 X96.015 Y74.237 E32.77872
G0 F6000 X96.015 Y74.859
G1 F1200 X95.141 Y73.984 E32.82397
G0 F6000 X94.518 Y73.984
G1 F1200 X96.015 Y75.481 E32.90143
G0 F6000 X96.015 Y76.103
G1 F1200 X93.896 Y73.984 E33.01107
G0 F6000 X93.274 Y73.984
G1 F1200 X96.015 Y76.726 E33.15291
G0 F6000 X96.015 Y77.348
G1 F1200 X92.652 Y73.984 E33.32694
G0 F6000 X92.029 Y73.984
G1 F1200 X96.015 Y77.97 E33.53318
G0 F6000 X96.015 Y78.592
G1 F1200 X91.407 Y73.984 E33.7716
G0 F6000 X90.785 Y73.984
G1 F1200 X96.015 Y79.215 E34.04223
G0 F6000 X96.015 Y79.837
G1 F1200 X90.163 Y73.984 E34.34504
G0 F6000 X89.54 Y73.984
G1 F1200 X96.015 Y80.459 E34.68006
G0 F6000 X96.015 Y81.081
G1 F1200 X88.918 Y73.984 E35.04727
G0 F6000 X88.296 Y73.984
G1 F1200 X96.015 Y81.704 E35.44668
G0 F6000 X96.015 Y82.326
G1 F1200 X87.674 Y73.984 E35.87827
G0 F6000 X87.051 Y73.984
G1 F1200 X96.015 Y82.948 E36.34208
G0 F6000 X96.015 Y83.57
G1 F1200 X86.429 Y73.984 E36.83806
G0 F6000 X85.807 Y73.984
G1 F1200 X96.015 Y84.193 E37.36626
G0 F6000 X96.015 Y84.815
G1 F1200 X85.185 Y73.984 E37.92663
G0 F6000 X84.562 Y73.984
G1 F1200 X96.015 Y85.437 E38.51922
G0 F6000 X95.971 Y86.015
G1 F1200 X83.983 Y74.027 E39.13948
G0 F6000 X83.983 Y74.649
G1 F1200 X95.349 Y86.015 E39.72757
G0 F6000 X94.726 Y86.015
G1 F1200 X83.983 Y75.272 E40.28342
G0 F6000 X83.983 Y75.894
G1 F1200 X94.104 Y86.015 E40.80708
G0 F6000 X93.482 Y86.015
G1 F1200 X83.983 Y76.516 E41.29857
G0 F6000 X83.983 Y77.138
G1 F1200 X92.86 Y86.015 E41.75787
G0 F6000 X92.237 Y86.015
G1 F1200 X83.983 Y77.761 E42.18494
G0 F6000 X83.983 Y78.383
G1 F1200 X91.615 Y86.015 E42.57982
G0 F6000 X90.993 Y86.015
G1 F1200 X83.983 Y79.005 E42.94252
G0 F6000 X83.983 Y79.628
G1 F1200 X90.371 Y86.015 E43.27302
G0 F6000 X89.748 Y86.015
G1 F1200 X83.983 Y80.25 E43.5713
G0 F6000 X83.983 Y80.872
G1 F1200 X89.126 Y86.015 E43.8374
G0 F6000 X88.504 Y86.015
G1 F1200 X83.983 Y81.494 E44.07132
G0 F6000 X83.983 Y82.117
G1 F1200 X87.882 Y86.015 E44.27303
G0 F6000 X87.259 Y86.015
G1 F1200 X83.983 Y82.739 E44.44254
G0 F6000 X83.983 Y83.361
G1 F1200 X86.637 Y86.015 E44.57986
G0 F6000 X86.015 Y86.015
G1 F1200 X83.983 Y83.983 E44.68499
G0 F6000 X83.983 Y84.606
G1 F1200 X85.393 Y86.015 E44.75792
G0 F6000 X84.77 Y86.015
G1 F1200 X83.983 Y85.228 E44.79864
G0 F6000 X83.983 Y85.85
G1 F1200 X84.148 Y86.015 E44.80718
G1 F2400 E40.80718
G1 F240 Z0.6
G0 F6000 X96.632 Y106.632 Z0.6
;TYPE:WALL-INNER
G1 F240 Z0.2
G1 F2400 E44.80718
G1 F1200 X96.632 Y93.368 E45.29246
G1 X83.368 Y93.368 E45.77774
G1 X83.368 Y106.632 E46.26301
G1 X96.632 Y106.632 E46.74829
G0 F6000 X97.072 Y107.072
G1 F1200 X97.072 Y92.928 E47.26577
G1 X82.928 Y92.928 E47.78324
G1 X82.928 Y107.072 E48.30072
G1 X97.072 Y107.072 E48.81819
G0 F6000 X97.512 Y107.512
G1 F1200 X97.512 Y92.488 E49.36786
G1 X82.488 Y92.488 E49.91753
G1 X82.488 Y107.512 E50.4672
G1 X97.512 Y107.512 E51.01687
G0 F6000 X97.952 Y107.952
;TYPE:WALL-OUTER
G1 F1200 X97.952 Y92.048 E51.59874
G1 X82.048 Y92.048 E52.1806
G1 X82.048 Y107.952 E52.76247
G1 X97.952 Y107.952 E53.34434
G1 F2400 E49.34434
G1 F240 Z0.6
G0 F6000 X96.236 Y106.236 Z0.6
;TYPE:SKIN
G1 F240 Z0.2
G1 F2400 E53.34434
G1 F1200 X83.764 Y106.236 E53.80064
G1 X83.764 Y93.764 E54.25694
G1 X96.236 Y93.764 E54.71324
G1 X96.236 Y106.236 E55.16955
G1 F2400 E51.16955
G1 F240 Z0.6
G0 F6000 X95.851 Y93.984 Z0.6
G1 F240 Z0.2
G1 F2400 E55.16955
G1 F1200 X96.015 Y94.149 E55.17806
G0 F6000 X96.015 Y94.771
G1 F1200 X95.228 Y93.984 E55.21878
G0 F6000 X94.606 Y93.984
G1 F1200 X96.015 Y95.393 E55.29168
G0 F6000 X96.015 Y96.015
G1 F1200 X93.984 Y93.984 E55.39677
G0 F6000 X93.362 Y93.984
G1 F1200 X96.015 Y96.638 E55.53406
G0 F6000 X96.015 Y97.26
G1 F1200 X92.739 Y93.984 E55.70356
G0 F6000 X92.117 Y93.984
G1 F1200 X96.015 Y97.882 E55.90525
G0 F6000 X96.015 Y98.504
G1 F1200 X91.495 Y93.984 E56.13911
G0 F6000 X90.873 Y93.984
G1 F1200 X96.015 Y99.127 E56.40519
G0 F6000 X96.015 Y99.749
G1 F1200 X90.25 Y93.984 E56.70347
G0 F6000 X89.628 Y93.984
G1 F1200 X96.015 Y100.371 E57.03394
G0 F6000 X96.015 Y100.993
G1 F1200 X89.006 Y93.984 E57.39659
G0 F6000 X88.384 Y93.984
G1 F1200 X96.015 Y101.616 E57.79145
G0 F6000 X96.015 Y102.238
G1 F1200 X87.761 Y93.984 E58.21852
G0 F6000 X87.139 Y93.984
G1 F1200 X96.015 Y102.86 E58.67777
G0 F6000 X96.015 Y103.482
G1 F1200 X86.517 Y93.984 E59.1692
G0 F6000 X85.895 Y93.984
G1 F1200 X96.015 Y104.105 E59.69284
G0 F6000 X96.015 Y104.727
G1 F1200 X85.272 Y93.984 E60.24869
G0 F6000 X84.65 Y93.984
G1 F1200 X96.015 Y105.349 E60.83672
G0 F6000 X96.015 Y105.971
G1 F1200 X84.028 Y93.984 E61.45694
G0 F6000 X83.983 Y94.562
G1 F1200 X95.436 Y106.015 E62.04952
G0 F6000 X94.814 Y106.015
G1 F1200 X83.983 Y95.184 E62.60993
G0 F6000 X83.983 Y95.806
G1 F1200 X94.192 Y106.015 E63.13815
G0 F6000 X93.57 Y106.015
G1 F1200 X83.983 Y96.428 E63.63418
G0 F6000 X83.983 Y97.051
G1 F1200 X92.947 Y106.015 E64.09799
G0 F6000 X92.325 Y106.015
G1 F1200 X83.983 Y97.673 E64.52961
G0 F6000 X83.983 Y98.295
G1 F1200 X91.703 Y106.015 E64.92904
G0 F6000 X91.081 Y106.015
G1 F1200 X83.983 Y98.917 E65.2963
G0 F6000 X83.983 Y99.54
G1 F1200 X90.458 Y106.015 E65.63132
G0 F6000 X89.836 Y106.015
G1 F1200 X83.983 Y100.162 E65.93416
G0 F6000 X83.983 Y100.784
G1 F1200 X89.214 Y106.015 E66.20481
G0 F6000 X88.591 Y106.015
G1 F1200 X83.983 Y101.406 E66.44326
G0 F6000 X83.983 Y102.029
G1 F1200 X87.969 Y106.015 E66.6495
G0 F6000 X87.347 Y106.015
G1 F1200 X83.983 Y102.651 E66.82355
G0 F6000 X83.983 Y103.273
G1 F1200 X86.725 Y106.015 E66.96543
G0 F6000 X86.102 Y106.015
G1 F1200 X83.983 Y103.895 E67.07509
G0 F6000 X83.983 Y104.518
G1 F1200 X85.48 Y106.015 E67.15255
G0 F6000 X84.858 Y106.015
G1 F1200 X83.983 Y105.14 E67.19782
G0 F6000 X83.983 Y105.762
G1 F1200 X84.236 Y106.015 E67.21091
G1 F2400 E63.21091
G1 F240 Z0.6
G0 F6000 X103.368 Y106.632 Z0.6
;TYPE:WALL-INNER
G1 F240 Z0.2
G1 F2400 E67.21091
G1 F1200 X116.632 Y106.632 E67.69619
G1 X116.632 Y93.368 E68.18147
G1 X103.368 Y93.368 E68.66675
G1 X103.368 Y106.632 E69.15202
G0 F6000 X102.928 Y107.072
G1 F1200 X117.072 Y107.072 E69.6695
G1 X117.072 Y92.928 E70.18697
G1 X102.928 Y92.928 E70.70445
G1 X102.928 Y107.072 E71.22192
G0 F6000 X102.488 Y107.512
G1 F1200 X117.512 Y107.512 E71.77159
G1 X117.512 Y92.488 E72.32126
G1 X102.488 Y92.488 E72.87093
G1 X102.488 Y107.512 E73.4206
G0 F6000 X102.048 Y107.952
;TYPE:WALL-OUTER
G1 F1200 X117.952 Y107.952 E74.00247
G1 X117.952 Y92.048 E74.58434
G1 X102.048 Y92.048 E75.1662
G1 X102.048 Y107.952 E75.74807
G1 F2400 E71.74807
G1 F240 Z0.6
G0 F6000 X103.764 Y106.236 Z0.6
;TYPE:SKIN
G1 F240 Z0.2
G1 F2400 E75.74807
G1 F1200 X103.764 Y93.764 E76.20437
G1 X116.236 Y93.764 E76.66067
G1 X116.236 Y106.236 E77.11698
G1 X103.764 Y106.236 E77.57328
G0 F6000 X104.148 Y106.015
G1 F1200 X103.983 Y105.85 E77.58182
G0 F6000 X103.983 Y105.228
G1 F1200 X104.77 Y106.015 E77.62253
G0 F6000 X105.392 Y106.015
G1 F1200 X103.983 Y104.605 E77.69546
G0 F6000 X103.983 Y103.983
G1 F1200 X106.015 Y106.015 E77.8006
G0 F6000 X106.637 Y106.015
G1 F1200 X103.983 Y103.361 E77.93792
G0 F6000 X103.983 Y102.739
G1 F1200 X107.259 Y106.015 E78.10742
G0 F6000 X107.881 Y106.015
G1 F1200 X103.983 Y102.116 E78.30913
G0 F6000 X103.983 Y101.494
G1 F1200 X108.504 Y106.015 E78.54305
G0 F6000 X109.126 Y106.015
G1 F1200 X103.983 Y100.872 E78.80915
G0 F6000 X103.983 Y100.25
G1 F1200 X109.748 Y106.015 E79.10744
G0 F6000 X110.37 Y106.015
G1 F1200 X103.983 Y99.627 E79.43793
G0 F6000 X103.983 Y99.005
G1 F1200 X110.993 Y106.015 E79.80063
G0 F6000 X111.615 Y106.015
G1 F1200 X103.983 Y98.383 E80.19552
G0 F6000 X103.983 Y97.761
G1 F1200 X112.237 Y106.015 E80.62259
G0 F6000 X112.859 Y106.015
G1 F1200 X103.983 Y97.138 E81.08186
G0 F6000 X103.983 Y96.516
G1 F1200 X113.482 Y106.015 E81.57335
G0 F6000 X114.104 Y106.015
G1 F1200 X103.983 Y95.894 E82.09701
G0 F6000 X103.983 Y95.272
G1 F1200 X114.726 Y106.015 E82.65286
G0 F6000 X115.348 Y106.015
G1 F1200 X103.983 Y94.649 E83.24092
G0 F6000 X103.983 Y94.027
G1 F1200 X115.971 Y106.015 E83.86119
G0 F6000 X116.015 Y105.437
G1 F1200 X104.562 Y93.984 E84.45377
G0 F6000 X105.184 Y93.984
G1 F1200 X116.015 Y104.815 E85.01418
G0 F6000 X116.015 Y104.192
G1 F1200 X105.807 Y93.984 E85.54234
G0 F6000 X106.429 Y93.984
G1 F1200 X116.015 Y103.57 E86.03833
G0 F6000 X116.015 Y102.948
G1 F1200 X107.051 Y93.984 E86.50213
G0 F6000 X107.673 Y93.984
G1 F1200 X116.015 Y102.326 E86.93375
G0 F6000 X116.015 Y101.703
G1 F1200 X108.296 Y93.984 E87.33314
G0 F6000 X108.918 Y93.984
G1 F1200 X116.015 Y101.081 E87.70034
G0 F6000 X116.015 Y100.459
G1 F1200 X109.54 Y93.984 E88.03536
G0 F6000 X110.162 Y93.984
G1 F1200 X116.015 Y99.837 E88.3382
G0 F6000 X116.015 Y99.214
G1 F1200 X110.785 Y93.984 E88.6088
G0 F6000 X111.407 Y93.984
G1 F1200 X116.015 Y98.592 E88.84722
G0 F6000 X116.015 Y97.97
G1 F1200 X112.029 Y93.984 E89.05346
G0 F6000 X112.652 Y93.984
G1 F1200 X116.015 Y97.348 E89.22749
G0 F6000 X116.015 Y96.725
G1 F1200 X113.274 Y93.984 E89.36931
G0 F6000 X113.896 Y93.984
G1 F1200 X116.015 Y96.103 E89.47895
G0 F6000 X116.015 Y95.481
G1 F1200 X114.518 Y93.984 E89.55641
G0 F6000 X115.141 Y93.984
G1 F1200 X116.015 Y94.859 E89.60165
G0 F6000 X116.015 Y94.236
G1 F1200 X115.763 Y93.984 E89.61469
G1 F2400 E85.61469
G1 F240 Z0.6
;MESH:NONMESH
G0 F6000 X76.716 Y86.716 Z0.6
;TIME_ELAPSED:146.324394
;LAYER:1
M106 S85
;MESH:Tetromino_Z.3mf
G0 F7500 X76.716 Y86.716 Z0.8
;TYPE:WALL-INNER
G1 F240 Z0.4
G1 F2400 E89.61469
G1 F1350 X76.716 Y73.284 E90.10612
G1 X63.284 Y73.284 E90.59754
G1 X63.284 Y86.716 E91.08897
G1 X76.716 Y86.716 E91.58039
G0 F7500 X77.156 Y87.156
G1 F1350 X77.156 Y72.844 E92.10401
G1 X62.844 Y72.844 E92.62764
G1 X62.844 Y87.156 E93.15126
G1 X77.156 Y87.156 E93.67488
G0 F7500 X77.596 Y87.596
G1 F1350 X77.596 Y72.404 E94.23069
G1 X62.404 Y72.404 E94.78651
G1 X62.404 Y87.596 E95.34233
G1 X77.596 Y87.596 E95.89814
G0 F7500 X78.036 Y88.036
;TYPE:WALL-OUTER
G1 F1350 X78.036 Y71.964 E96.48616
G1 X61.964 Y71.964 E97.07417
G1 X61.964 Y88.036 E97.66218
G1 X78.036 Y88.036 E98.25019
G1 F2400 E94.25019
G1 F240 Z0.8
G0 F7500 X76.32 Y86.32 Z0.8
;TYPE:SKIN
G1 F240 Z0.4
G1 F2400 E98.25019
G1 F1350 X63.68 Y86.32 E98.71264
G1 X63.68 Y73.68 E99.17509
G1 X76.32 Y73.68 E99.63754
G1 X76.32 Y86.32 E100.09999
G0 F7500 X75.686 Y86.099
G1 F1350 X76.099 Y85.686 E100.12136
G0 F7500 X76.099 Y85.064
G1 F1350 X75.064 Y86.099 E100.17491
G0 F7500 X74.442 Y86.099
G1 F1350 X76.099 Y84.441 E100.26067
G0 F7500 X76.099 Y83.819
G1 F1350 X73.819 Y86.099 E100.37864
G0 F7500 X73.197 Y86.099
