;FLAVOR:Marlin
;TIME:4708
;Filament used: 3.67655m
;Layer height: 0.2
;MINX:60.62
;MINY:70.62
;MINZ:0.2
;MAXX:119.38
;MAXY:109.38
;MAXZ:18.4
;TARGET_MACHINE.NAME:Kingroon KP3S
;Generated with Cura_SteamEngine 5.6.0
M140 S60
M104 S220
M190 S60
M109 S220
M82 ;absolute extrusion mode
G28 ; home all axes
 M117 Purge extruder
 G92 E0 ; reset extruder
 G1 Z1.0 F3000 ; move z up little to prevent scratching of surface
 G1 X2 Y20 Z0.3 F5000.0 ; move to start-line position
 G1 X2 Y175.0 Z0.3 F1500.0 E15 ; draw 1st line
 G1 X2 Y175.0 Z0.4 F5000.0 ; move to side a little
 G1 X2 Y20 Z0.4 F1500.0 E30 ; draw 2nd line
 G92 E0 ; reset extruder
 G1 Z1.0 F3000 ; move z up little to prevent scratching of surface
G92 E0
G92 E0
G1 F2400 E-4
;LAYER_COUNT:90
;LAYER:0
M107
G1 F240 Z0.6
;MESH:Tetromino_L.3mf
G0 F6000 X76.632 Y106.632 Z0.6
;TYPE:WALL-INNER
G1 F240 Z0.2
G1 F2400 E0
G1 F1200 X76.632 Y93.368 E0.48528
G1 X63.368 Y93.368 E0.97056
G1 X63.368 Y106.632 E1.45584
G1 X76.632 Y106.632 E1.94111
G0 F6000 X77.072 Y107.072
G1 F1200 X77.072 Y92.928 E2.45859
G1 X62.928 Y92.928 E2.97606
G1 X62.928 Y107.072 E3.49354
G1 X77.072 Y107.072 E4.01101
G0 F6000 X77.512 Y107.512
G1 F1200 X77.512 Y92.488 E4.56068
G1 X62.488 Y92.488 E5.11035
G1 X62.488 Y107.512 E5.66002
G1 X77.512 Y107.512 E6.20969
G0 F6000 X77.952 Y107.952
;TYPE:WALL-OUTER
G1 F1200 X77.952 Y92.048 E6.79156
G1 X62.048 Y92.048 E7.37343
G1 X62.048 Y107.952 E7.95529
G1 X77.952 Y107.952 E8.53716
G1 F2400 E4.53716
G1 F240 Z0.6
G0 F6000 X76.236 Y106.236 Z0.6
;TYPE:SKIN
G1 F240 Z0.2
G1 F2400 E8.53716
G1 F1200 X63.764 Y106.236 E8.99346
G1 X63.764 Y93.764 E9.44976
G1 X76.236 Y93.764 E9.90607
G1 X76.236 Y106.236 E10.36237
G1 F2400 E6.36237
G1 F240 Z0.6
G0 F6000 X76.016 Y94.061 Z0.6
G1 F240 Z0.2
G1 F2400 E10.36237
G1 F1200 X75.938 Y93.983 E10.3664
G0 F6000 X75.316 Y93.983
G1 F1200 X76.016 Y94.683 E10.40262
G0 F6000 X76.016 Y95.305
G1 F1200 X74.693 Y93.983 E10.47105
G0 F6000 X74.071 Y93.983
G1 F1200 X76.016 Y95.928 E10.57168
G0 F6000 X76.016 Y96.55
G1 F1200 X73.449 Y93.983 E10.7045
G0 F6000 X72.827 Y93.983
G1 F1200 X76.016 Y97.172 E10.8695
G0 F6000 X76.016 Y97.794
G1 F1200 X72.204 Y93.983 E11.06671
G0 F6000 X71.582 Y93.983
G1 F1200 X76.016 Y98.417 E11.29613
G0 F6000 X76.016 Y99.039
G1 F1200 X70.96 Y93.983 E11.55773
G0 F6000 X70.338 Y93.983
G1 F1200 X76.016 Y99.661 E11.85152
G0 F6000 X76.016 Y100.284
G1 F1200 X69.715 Y93.983 E12.17753
G0 F6000 X69.093 Y93.983
G1 F1200 X76.016 Y100.906 E12.53573
G0 F6000 X76.016 Y101.528
G1 F1200 X68.471 Y93.983 E12.92612
G0 F6000 X67.849 Y93.983
G1 F1200 X76.016 Y102.15 E13.34868
G0 F6000 X76.016 Y102.773
G1 F1200 X67.226 Y93.983 E13.80348
G0 F6000 X66.604 Y93.983
G1 F1200 X76.016 Y103.395 E14.29046
G0 F6000 X76.016 Y104.017
G1 F1200 X65.982 Y93.983 E14.80963
G0 F6000 X65.36 Y93.983
G1 F1200 X76.016 Y104.639 E15.36098
G0 F6000 X76.016 Y105.262
G1 F1200 X64.737 Y93.983 E15.94456
G0 F6000 X64.115 Y93.983
G1 F1200 X76.016 Y105.884 E16.56033
G0 F6000 X75.525 Y106.015
G1 F1200 X63.983 Y94.474 E17.15749
G0 F6000 X63.983 Y95.096
G1 F1200 X74.903 Y106.015 E17.72247
G0 F6000 X74.28 Y106.015
G1 F1200 X63.983 Y95.718 E18.25525
G0 F6000 X63.983 Y96.341
G1 F1200 X73.658 Y106.015 E18.75581
G0 F6000 X73.036 Y106.015
G1 F1200 X63.983 Y96.963 E19.22419
G0 F6000 X63.983 Y97.585
G1 F1200 X72.414 Y106.015 E19.66039
G0 F6000 X71.791 Y106.015
G1 F1200 X63.983 Y98.207 E20.06438
G0 F6000 X63.983 Y98.83
G1 F1200 X71.169 Y106.015 E20.43616
G0 F6000 X70.547 Y106.015
G1 F1200 X63.983 Y99.452 E20.77576
G0 F6000 X63.983 Y100.074
G1 F1200 X69.925 Y106.015 E21.08318
G0 F6000 X69.302 Y106.015
G1 F1200 X63.983 Y100.696 E21.35839
G0 F6000 X63.983 Y101.319
G1 F1200 X68.68 Y106.015 E21.60139
G0 F6000 X68.058 Y106.015
G1 F1200 X63.983 Y101.941 E21.81221
G0 F6000 X63.983 Y102.563
G1 F1200 X67.436 Y106.015 E21.99084
G0 F6000 X66.813 Y106.015
G1 F1200 X63.983 Y103.185 E22.13727
G0 F6000 X63.983 Y103.808
G1 F1200 X66.191 Y106.015 E22.25148
G0 F6000 X65.569 Y106.015
G1 F1200 X63.983 Y104.43 E22.33352
G0 F6000 X63.983 Y105.052
G1 F1200 X64.947 Y106.015 E22.38337
G0 F6000 X64.324 Y106.015
G1 F1200 X63.983 Y105.674 E22.40102
G1 F2400 E18.40102
G1 F240 Z0.6
G0 F6000 X96.632 Y106.632 Z0.6
;TYPE:WALL-INNER
G1 F240 Z0.2
G1 F2400 E22.40102
G1 F1200 X96.632 Y93.368 E22.88629
G1 X83.368 Y93.368 E23.37157
G1 X83.368 Y106.632 E23.85685
G1 X96.632 Y106.632 E24.34213
G0 F6000 X97.072 Y107.072
G1 F1200 X97.072 Y92.928 E24.8596
G1 X82.928 Y92.928 E25.37708
G1 X82.928 Y107.072 E25.89455
G1 X97.072 Y107.072 E26.41203
G0 F6000 X97.512 Y107.512
G1 F1200 X97.512 Y92.488 E26.9617
G1 X82.488 Y92.488 E27.51137
G1 X82.488 Y107.512 E28.06104
G1 X97.512 Y107.512 E28.61071
G0 F6000 X97.952 Y107.952
;TYPE:WALL-OUTER
G1 F1200 X97.952 Y92.048 E29.19258
G1 X82.048 Y92.048 E29.77444
G1 X82.048 Y107.952 E30.35631
G1 X97.952 Y107.952 E30.93817
G1 F2400 E26.93817
G1 F240 Z0.6
G0 F6000 X96.236 Y106.236 Z0.6
;TYPE:SKIN
G1 F240 Z0.2
G1 F2400 E30.93817
G1 F1200 X83.764 Y106.236 E31.39448
G1 X83.764 Y93.764 E31.85078
G1 X96.236 Y93.764 E32.30708
G1 X96.236 Y106.236 E32.76338
G1 F2400 E28.76338
G1 F240 Z0.6
G0 F6000 X95.851 Y93.984 Z0.6
G1 F240 Z0.2
G1 F2400 E32.76338
G1 F1200 X96.015 Y94.149 E32.77189
G0 F6000 X96.015 Y94.771
G1 F1200 X95.228 Y93.984 E32.81261
G0 F6000 X94.606 Y93.984
G1 F1200 X96.015 Y95.393 E32.88552
G0 F6000 X96.015 Y96.015
G1 F1200 X93.984 Y93.984 E32.9906
G0 F6000 X93.362 Y93.984
G1 F1200 X96.015 Y96.638 E33.1279
G0 F6000 X96.015 Y97.26
G1 F1200 X92.739 Y93.984 E33.2974
G0 F6000 X92.117 Y93.984
G1 F1200 X96.015 Y97.882 E33.49908
G0 F6000 X96.015 Y98.504
G1 F1200 X91.495 Y93.984 E33.73295
G0 F6000 X90.873 Y93.984
G1 F1200 X96.015 Y99.127 E33.99903
G0 F6000 X96.015 Y99.749
G1 F1200 X90.25 Y93.984 E34.29731
G0 F6000 X89.628 Y93.984
G1 F1200 X96.015 Y100.371 E34.62778
G0 F6000 X96.015 Y100.993
G1 F1200 X89.006 Y93.984 E34.99043
G0 F6000 X88.384 Y93.984
G1 F1200 X96.015 Y101.616 E35.38529
G0 F6000 X96.015 Y102.238
G1 F1200 X87.761 Y93.984 E35.81235
G0 F6000 X87.139 Y93.984
G1 F1200 X96.015 Y102.86 E36.2716
G0 F6000 X96.015 Y103.482
G1 F1200 X86.517 Y93.984 E36.76304
G0 F6000 X85.895 Y93.984
G1 F1200 X96.015 Y104.105 E37.28668
G0 F6000 X96.015 Y104.727
G1 F1200 X85.272 Y93.984 E37.84253
G0 F6000 X84.65 Y93.984
G1 F1200 X96.015 Y105.349 E38.43056
G0 F6000 X96.015 Y105.971
G1 F1200 X84.028 Y93.984 E39.05077
G0 F6000 X83.983 Y94.562
G1 F1200 X95.436 Y106.015 E39.64336
G0 F6000 X94.814 Y106.015
G1 F1200 X83.983 Y95.184 E40.20376
G0 F6000 X83.983 Y95.806
G1 F1200 X94.192 Y106.015 E40.73198
G0 F6000 X93.57 Y106.015
G1 F1200 X83.983 Y96.428 E41.22802
G0 F6000 X83.983 Y97.051
G1 F1200 X92.947 Y106.015 E41.69182
G0 F6000 X92.325 Y106.015
G1 F1200 X83.983 Y97.673 E42.12344
G0 F6000 X83.983 Y98.295
G1 F1200 X91.703 Y106.015 E42.52288
G0 F6000 X91.081 Y106.015
G1 F1200 X83.983 Y98.917 E42.89014
G0 F6000 X83.983 Y99.54
G1 F1200 X90.458 Y106.015 E43.22516
G0 F6000 X89.836 Y106.015
G1 F1200 X83.983 Y100.162 E43.52799
G0 F6000 X83.983 Y100.784
G1 F1200 X89.214 Y106.015 E43.79865
G0 F6000 X88.591 Y106.015
G1 F1200 X83.983 Y101.406 E44.0371
G0 F6000 X83.983 Y102.029
G1 F1200 X87.969 Y106.015 E44.24333
G0 F6000 X87.347 Y106.015
G1 F1200 X83.983 Y102.651 E44.41739
G0 F6000 X83.983 Y103.273
G1 F1200 X86.725 Y106.015 E44.55926
G0 F6000 X86.102 Y106.015
G1 F1200 X83.983 Y103.895 E44.66893
G0 F6000 X83.983 Y104.518
G1 F1200 X85.48 Y106.015 E44.74638
G0 F6000 X84.858 Y106.015
G1 F1200 X83.983 Y105.14 E44.79166
G0 F6000 X83.983 Y105.762
G1 F1200 X84.236 Y106.015 E44.80475
G1 F2400 E40.80475
G1 F240 Z0.6
G0 F6000 X103.368 Y106.632 Z0.6
;TYPE:WALL-INNER
G1 F240 Z0.2
G1 F2400 E44.80475
G1 F1200 X116.632 Y106.632 E45.29003
G1 X116.632 Y93.368 E45.7753
G1 X103.368 Y93.368 E46.26058
G1 X103.368 Y106.632 E46.74586
G0 F6000 X102.928 Y107.072
G1 F1200 X117.072 Y107.072 E47.26334
G1 X117.072 Y92.928 E47.78081
G1 X102.928 Y92.928 E48.29828
G1 X102.928 Y107.072 E48.81576
G0 F6000 X102.488 Y107.512
G1 F1200 X117.512 Y107.512 E49.36543
G1 X117.512 Y92.488 E49.9151
G1 X102.488 Y92.488 E50.46477
G1 X102.488 Y107.512 E51.01444
G0 F6000 X102.048 Y107.952
;TYPE:WALL-OUTER
G1 F1200 X117.952 Y107.952 E51.59631
G1 X117.952 Y92.048 E52.17817
G1 X102.048 Y92.048 E52.76004
G1 X102.048 Y107.952 E53.3419
G1 F2400 E49.3419
G1 F240 Z0.6
G0 F6000 X103.764 Y106.236 Z0.6
;TYPE:SKIN
G1 F240 Z0.2
G1 F2400 E53.3419
G1 F1200 X103.764 Y93.764 E53.79821
G1 X116.236 Y93.764 E54.25451
G1 X116.236 Y106.236 E54.71081
G1 X103.764 Y106.236 E55.16711
G0 F6000 X104.148 Y106.015
G1 F1200 X103.983 Y105.85 E55.17565
G0 F6000 X103.983 Y105.228
G1 F1200 X104.77 Y106.015 E55.21637
G0 F6000 X105.392 Y106.015
G1 F1200 X103.983 Y104.605 E55.2893
G0 F6000 X103.983 Y103.983
G1 F1200 X106.015 Y106.015 E55.39444
G0 F6000 X106.637 Y106.015
G1 F1200 X103.983 Y103.361 E55.53176
G0 F6000 X103.983 Y102.739
G1 F1200 X107.259 Y106.015 E55.70126
G0 F6000 X107.881 Y106.015
G1 F1200 X103.983 Y102.116 E55.90297
G0 F6000 X103.983 Y101.494
G1 F1200 X108.504 Y106.015 E56.13689
G0 F6000 X109.126 Y106.015
G1 F1200 X103.983 Y100.872 E56.40299
G0 F6000 X103.983 Y100.25
G1 F1200 X109.748 Y106.015 E56.70128
G0 F6000 X110.37 Y106.015
G1 F1200 X103.983 Y99.627 E57.03177
G0 F6000 X103.983 Y99.005
G1 F1200 X110.993 Y106.015 E57.39447
G0 F6000 X111.615 Y106.015
G1 F1200 X103.983 Y98.383 E57.78936
G0 F6000 X103.983 Y97.761
G1 F1200 X112.237 Y106.015 E58.21642
G0 F6000 X112.859 Y106.015
G1 F1200 X103.983 Y97.138 E58.6757
G0 F6000 X103.983 Y96.516
G1 F1200 X113.482 Y106.015 E59.16718
G0 F6000 X114.104 Y106.015
G1 F1200 X103.983 Y95.894 E59.69085
G0 F6000 X103.983 Y95.272
G1 F1200 X114.726 Y106.015 E60.2467
G0 F6000 X115.348 Y106.015
G1 F1200 X103.983 Y94.649 E60.83476
G0 F6000 X103.983 Y94.027
G1 F1200 X115.971 Y106.015 E61.45502
G0 F6000 X116.015 Y105.437
G1 F1200 X104.562 Y93.984 E62.04761
G0 F6000 X105.184 Y93.984
G1 F1200 X116.015 Y104.815 E62.60801
G0 F6000 X116.015 Y104.192
G1 F1200 X105.807 Y93.984 E63.13618
G0 F6000 X106.429 Y93.984
G1 F1200 X116.015 Y103.57 E63.63217
G0 F6000 X116.015 Y102.948
G1 F1200 X107.051 Y93.984 E64.09597
G0 F6000 X107.673 Y93.984
G1 F1200 X116.015 Y102.326 E64.52759
G0 F6000 X116.015 Y101.703
G1 F1200 X108.296 Y93.984 E64.92698
G0 F6000 X108.918 Y93.984
G1 F1200 X116.015 Y101.081 E65.29418
G0 F6000 X116.015 Y100.459
G1 F1200 X109.54 Y93.984 E65.6292
G0 F6000 X110.162 Y93.984
G1 F1200 X116.015 Y99.837 E65.93204
G0 F6000 X116.015 Y99.214
G1 F1200 X110.785 Y93.984 E66.20264
G0 F6000 X111.407 Y93.984
G1 F1200 X116.015 Y98.592 E66.44106
G0 F6000 X116.015 Y97.97
G1 F1200 X112.029 Y93.984 E66.6473
G0 F6000 X112.652 Y93.984
G1 F1200 X116.015 Y97.348 E66.82133
G0 F6000 X116.015 Y96.725
G1 F1200 X113.274 Y93.984 E66.96315
G0 F6000 X113.896 Y93.984
G1 F1200 X116.015 Y96.103 E67.07279
G0 F6000 X116.015 Y95.481
G1 F1200 X114.518 Y93.984 E67.15024
G0 F6000 X115.141 Y93.984
G1 F1200 X116.015 Y94.859 E67.19549
G0 F6000 X116.015 Y94.236
G1 F1200 X115.763 Y93.984 E67.20853
G1 F2400 E63.20853
G1 F240 Z0.6
G0 F6000 X103.368 Y86.632 Z0.6
;TYPE:WALL-INNER
G1 F240 Z0.2
G1 F2400 E67.20853
G1 F1200 X116.632 Y86.632 E67.69381
G1 X116.632 Y73.368 E68.17909
G1 X103.368 Y73.368 E68.66437
G1 X103.368 Y86.632 E69.14964
G0 F6000 X102.928 Y87.072
G1 F1200 X117.072 Y87.072 E69.66712
G1 X117.072 Y72.928 E70.18459
G1 X102.928 Y72.928 E70.70207
G1 X102.928 Y87.072 E71.21954
G0 F6000 X102.488 Y87.512
G1 F1200 X117.512 Y87.512 E71.76921
G1 X117.512 Y72.488 E72.31888
G1 X102.488 Y72.488 E72.86855
G1 X102.488 Y87.512 E73.41822
G0 F6000 X102.048 Y87.952
;TYPE:WALL-OUTER
G1 F1200 X117.952 Y87.952 E74.00009
G1 X117.952 Y72.048 E74.58196
G1 X102.048 Y72.048 E75.16382
G1 X102.048 Y87.952 E75.74569
G1 F2400 E71.74569
G1 F240 Z0.6
G0 F6000 X103.764 Y86.236 Z0.6
;TYPE:SKIN
G1 F240 Z0.2
G1 F2400 E75.74569
G1 F1200 X103.764 Y73.764 E76.20199
G1 X116.236 Y73.764 E76.65829
G1 X116.236 Y86.236 E77.1146
G1 X103.764 Y86.236 E77.5709
G0 F6000 X104.061 Y86.016
G1 F1200 X103.983 Y85.938 E77.57493
G0 F6000 X103.983 Y85.315
G1 F1200 X104.683 Y86.016 E77.61118
G0 F6000 X105.305 Y86.016
G1 F1200 X103.983 Y84.693 E77.6796
G0 F6000 X103.983 Y84.071
G1 F1200 X105.928 Y86.016 E77.78024
G0 F6000 X106.55 Y86.016
G1 F1200 X103.983 Y83.449 E77.91306
G0 F6000 X103.983 Y82.826
G1 F1200 X107.172 Y86.016 E78.07809
G0 F6000 X107.794 Y86.016
G1 F1200 X103.983 Y82.204 E78.27529
G0 F6000 X103.983 Y81.582
G1 F1200 X108.417 Y86.016 E78.50471
G0 F6000 X109.039 Y86.016
G1 F1200 X103.983 Y80.96 E78.76631
G0 F6000 X103.983 Y80.337
G1 F1200 X109.661 Y86.016 E79.06012
G0 F6000 X110.283 Y86.016
G1 F1200 X103.983 Y79.715 E79.38611
G0 F6000 X103.983 Y79.093
G1 F1200 X110.906 Y86.016 E79.74431
G0 F6000 X111.528 Y86.016
G1 F1200 X103.983 Y78.471 E80.1347
G0 F6000 X103.983 Y77.848
G1 F1200 X112.15 Y86.016 E80.55729
G0 F6000 X112.772 Y86.016
G1 F1200 X103.983 Y77.226 E81.01206
G0 F6000 X103.983 Y76.604
G1 F1200 X113.395 Y86.016 E81.49905
G0 F6000 X114.017 Y86.016
G1 F1200 X103.983 Y75.982 E82.01821
G0 F6000 X103.983 Y75.359
G1 F1200 X114.639 Y86.016 E82.56959
G0 F6000 X115.261 Y86.016
G1 F1200 X103.983 Y74.737 E83.15314
G0 F6000 X103.983 Y74.115
G1 F1200 X115.884 Y86.016 E83.76891
G0 F6000 X116.015 Y85.525
G1 F1200 X104.474 Y73.983 E84.36607
G0 F6000 X105.096 Y73.983
G1 F1200 X116.015 Y84.903 E84.93105
G0 F6000 X116.015 Y84.28
G1 F1200 X105.718 Y73.983 E85.46383
G0 F6000 X106.341 Y73.983
G1 F1200 X116.015 Y83.658 E85.96439
G0 F6000 X116.015 Y83.036
G1 F1200 X106.963 Y73.983 E86.43277
G0 F6000 X107.585 Y73.983
G1 F1200 X116.015 Y82.414 E86.86897
G0 F6000 X116.015 Y81.791
G1 F1200 X108.207 Y73.983 E87.27296
G0 F6000 X108.83 Y73.983
G1 F1200 X116.015 Y81.169 E87.64475
G0 F6000 X116.015 Y80.547
G1 F1200 X109.452 Y73.983 E87.98435
G0 F6000 X110.074 Y73.983
G1 F1200 X116.015 Y79.924 E88.29174
G0 F6000 X116.015 Y79.302
G1 F1200 X110.696 Y73.983 E88.56695
G0 F6000 X111.319 Y73.983
G1 F1200 X116.015 Y78.68 E88.80995
G0 F6000 X116.015 Y78.058
G1 F1200 X111.941 Y73.983 E89.02076
G0 F6000 X112.563 Y73.983
G1 F1200 X116.015 Y77.435 E89.19937
G0 F6000 X116.015 Y76.813
G1 F1200 X113.185 Y73.983 E89.3458
G0 F6000 X113.808 Y73.983
G1 F1200 X116.015 Y76.191 E89.46001
G0 F6000 X116.015 Y75.569
G1 F1200 X114.43 Y73.983 E89.54205
G0 F6000 X115.052 Y73.983
G1 F1200 X116.015 Y74.946 E89.59188
G0 F6000 X116.015 Y74.324
G1 F1200 X115.674 Y73.983 E89.60952
G1 F2400 E85.60952
G1 F240 Z0.6
;MESH:NONMESH
G0 F6000 X76.716 Y106.716 Z0.6
;TIME_ELAPSED:145.920619
;LAYER:1
M106 S85
;MESH:Tetromino_L.3mf
G0 F7500 X76.716 Y106.716 Z0.8
;TYPE:WALL-INNER
G1 F240 Z0.4
G1 F2400 E89.60952
G1 F1350 X76.716 Y93.284 E90.10094
G1 X63.284 Y93.284 E90.59237
G1 X63.284 Y106.716 E91.08379
G1 X76.716 Y106.716 E91.57522
G0 F7500 X77.156 Y107.156
G1 F1350 X77.156 Y92.844 E92.09884
G1 X62.844 Y92.844 E92.62246
G1 X62.844 Y107.156 E93.14608
G1 X77.156 Y107.156 E93.6697
G0 F7500 X77.596 Y107.596
G1 F1350 X77.596 Y92.404 E94.22552
G1 X62.404 Y92.404 E94.78134
G1 X62.404 Y107.596 E95.33715
G1 X77.596 Y107.596 E95.89297
G0 F7500 X78.036 Y108.036
;TYPE:WALL-OUTER
G1 F1350 X78.036 Y91.964 E96.48098
G1 X61.964 Y91.964 E97.069
G1 X61.964 Y108.036 E97.65701
G1 X78.036 Y108.036 E98.24502
G1 F2400 E94.24502
G1 F240 Z0.8
G0 F7500 X76.32 Y106.32 Z0.8
;TYPE:SKIN
G1 F240 Z0.4
G1 F2400 E98.24502
G1 F1350 X63.68 Y106.32 E98.70747
G1 X63.68 Y93.68 E99.16992
G1 X76.32 Y93.68 E99.63237
G1 X76.32 Y106.32 E100.09482
G0 F7500 X75.598 Y106.099
G1 F1350 X76.099 Y105.598 E100.12074
G0 F7500 X76.099 Y104.976
G1 F1350 X74.976 Y106.099 E100.17884
G0 F7500 X74.354 Y106.099
G1 F1350 X76.099 Y104.354 E100.26913
