;FLAVOR:Marlin
;TIME:2012
;Filament used: 1.57647m
;Layer height: 0.2
;MINX:69.497
;MINY:78.248
;MINZ:0.2
;MAXX:115.127
;MAXY:108.878
;MAXZ:13
;TARGET_MACHINE.NAME:Kingroon KP3S
;Generated with Cura_SteamEngine 5.6.0
M140 S60
M105
M190 S60
M104 S220
M105
M109 S220
M82 ;absolute extrusion mode
G28 ; home all axes
 M117 Purge extruder
 G92 E0 ; reset extruder
 G1 Z1.0 F3000 ; move z up little to prevent scratching of surface
 G1 X10 Y20 Z0.3 F5000.0 ; move to start-line position
 G1 X10 Y175.0 Z0.3 F1500.0 E15 ; draw 1st line
 G1 X10 Y175.0 Z0.4 F5000.0 ; move to side a little
 G1 X10 Y20 Z0.4 F1500.0 E30 ; draw 2nd line
 G92 E0 ; reset extruder
 G1 Z1.0 F3000 ; move z up little to prevent scratching of surface
G92 E0
G92 E0
G1 F2400 E-4
;LAYER_COUNT:65
;LAYER:0
M107
;MESH:Small_Tetromino_T.3mf
G0 F6000 X82.303 Y91.054 Z0.2
;TYPE:WALL-INNER
G1 F2400 E0
G1 F1200 X82.303 Y81.072 E0.35557
G1 X72.321 Y81.072 E0.71115
G1 X72.321 Y91.054 E1.06672
G1 X82.303 Y91.054 E1.4223
G0 F6000 X82.723 Y91.474
G1 F1200 X82.723 Y80.652 E1.8078
G1 X71.901 Y80.652 E2.19329
G1 X71.901 Y91.474 E2.57879
G1 X82.723 Y91.474 E2.96429
G0 F6000 X83.143 Y91.894
;TYPE:WALL-OUTER
G1 F1200 X83.143 Y80.232 E3.37156
G1 X71.481 Y80.232 E3.77883
G1 X71.481 Y91.894 E4.18611
G1 X83.143 Y91.894 E4.59338
G1 F2400 E0.59338
G0 F6000 X81.925 Y90.676
;TYPE:SKIN
G1 F2400 E4.59338
G1 F1200 X72.699 Y90.676 E4.91558
G1 X72.699 Y81.45 E5.23778
G1 X81.925 Y81.45 E5.55998
G1 X81.925 Y90.676 E5.88219
G1 F2400 E1.88219
G0 F6000 X84.018 Y90.676
G0 X84.018 Y82.308
G0 X81.714 Y82.308
G1 F2400 E5.88219
G1 F1200 X81.066 Y81.66 E5.91419
G0 F6000 X80.472 Y81.66
G1 F1200 X81.714 Y82.902 E5.97553
G0 F6000 X81.714 Y83.496
G1 F1200 X79.878 Y81.66 E6.06621
G0 F6000 X79.284 Y81.66
G1 F1200 X81.714 Y84.09 E6.18622
G0 F6000 X81.714 Y84.684
G1 F1200 X78.69 Y81.66 E6.33557
G0 F6000 X78.096 Y81.66
G1 F1200 X81.714 Y85.278 E6.51426
G0 F6000 X81.714 Y85.872
G1 F1200 X77.502 Y81.66 E6.72229
G0 F6000 X76.907 Y81.659
G1 F1200 X81.715 Y86.467 E6.95975
G0 F6000 X81.715 Y87.061
G1 F1200 X76.313 Y81.659 E7.22655
G0 F6000 X75.719 Y81.659
G1 F1200 X81.715 Y87.655 E7.52268
G0 F6000 X81.715 Y88.249
G1 F1200 X75.125 Y81.659 E7.84816
G0 F6000 X74.531 Y81.659
G1 F1200 X81.715 Y88.843 E8.20296
G0 F6000 X81.715 Y89.436
G1 F1200 X73.937 Y81.659 E8.58709
G0 F6000 X73.343 Y81.659
G1 F1200 X81.715 Y90.03 E9.00054
G0 F6000 X81.555 Y90.465
G1 F1200 X72.909 Y81.818 E9.42758
G0 F6000 X72.909 Y82.412
G1 F1200 X80.961 Y90.465 E9.82529
G0 F6000 X80.367 Y90.465
G1 F1200 X72.909 Y83.006 E10.19365
G0 F6000 X72.909 Y83.6
G1 F1200 X79.773 Y90.465 E10.53268
G0 F6000 X79.179 Y90.465
G1 F1200 X72.909 Y84.194 E10.84238
G0 F6000 X72.909 Y84.788
G1 F1200 X78.585 Y90.465 E11.12273
G0 F6000 X77.991 Y90.465
G1 F1200 X72.909 Y85.382 E11.37375
G0 F6000 X72.909 Y85.976
G1 F1200 X77.397 Y90.465 E11.59543
G0 F6000 X76.803 Y90.465
G1 F1200 X72.909 Y86.57 E11.78778
G0 F6000 X72.909 Y87.164
G1 F1200 X76.209 Y90.465 E11.95078
G0 F6000 X75.615 Y90.465
G1 F1200 X72.909 Y87.758 E12.08445
G0 F6000 X72.909 Y88.352
G1 F1200 X75.021 Y90.465 E12.18879
G0 F6000 X74.427 Y90.465
G1 F1200 X72.909 Y88.946 E12.26378
G0 F6000 X72.909 Y89.54
G1 F1200 X73.833 Y90.465 E12.30944
G0 F6000 X73.239 Y90.465
G1 F1200 X72.909 Y90.134 E12.32577
G1 F2400 E8.32577
G0 F6000 X70.606 Y90.134
G0 X70.618 Y92.757
G0 X84.006 Y92.757
G0 X85.606 Y91.054
G0 X87.321 Y91.054
;TYPE:WALL-INNER
G1 F2400 E12.32577
G1 F1200 X97.303 Y91.054 E12.68134
G1 X97.303 Y81.072 E13.03692
G1 X87.321 Y81.072 E13.39249
G1 X87.321 Y91.054 E13.74807
G0 F6000 X86.901 Y91.474
G1 F1200 X97.723 Y91.474 E14.13356
G1 X97.723 Y80.652 E14.51906
G1 X86.901 Y80.652 E14.90456
G1 X86.901 Y91.474 E15.29005
G0 F6000 X86.481 Y91.894
;TYPE:WALL-OUTER
G1 F1200 X98.143 Y91.894 E15.69733
G1 X98.143 Y80.232 E16.1046
G1 X86.481 Y80.232 E16.51188
G1 X86.481 Y91.894 E16.91915
G1 F2400 E12.91915
G0 F6000 X87.699 Y90.676
;TYPE:SKIN
G1 F2400 E16.91915
G1 F1200 X87.699 Y81.45 E17.24135
G1 X96.925 Y81.45 E17.56355
G1 X96.925 Y90.676 E17.88575
G1 X87.699 Y90.676 E18.20795
G0 F6000 X88.089 Y90.465
G1 F1200 X87.908 Y90.284 E18.21689
G0 F6000 X87.908 Y89.69
G1 F1200 X88.683 Y90.465 E18.25517
G0 F6000 X89.277 Y90.465
G1 F1200 X87.908 Y89.096 E18.32278
G0 F6000 X87.908 Y88.502
G1 F1200 X89.871 Y90.465 E18.41973
G0 F6000 X90.465 Y90.465
G1 F1200 X87.908 Y87.908 E18.54602
G0 F6000 X87.908 Y87.314
G1 F1200 X91.059 Y90.465 E18.70164
G0 F6000 X91.653 Y90.465
G1 F1200 X87.908 Y86.72 E18.8866
G0 F6000 X87.908 Y86.126
G1 F1200 X92.247 Y90.465 E19.1009
G0 F6000 X92.841 Y90.465
G1 F1200 X87.908 Y85.532 E19.34454
G0 F6000 X87.908 Y84.938
G1 F1200 X93.435 Y90.465 E19.61751
G0 F6000 X94.029 Y90.465
G1 F1200 X87.908 Y84.344 E19.91982
G0 F6000 X87.908 Y83.75
G1 F1200 X94.623 Y90.465 E20.25146
G0 F6000 X95.217 Y90.465
G1 F1200 X87.908 Y83.156 E20.61245
G0 F6000 X87.908 Y82.562
G1 F1200 X95.811 Y90.465 E21.00277
G0 F6000 X96.405 Y90.465
G1 F1200 X87.908 Y81.968 E21.42242
G0 F6000 X88.193 Y81.66
G1 F1200 X96.714 Y90.18 E21.84324
G0 F6000 X96.714 Y89.586
G1 F1200 X88.787 Y81.66 E22.23472
G0 F6000 X89.381 Y81.66
G1 F1200 X96.714 Y88.992 E22.59686
G0 F6000 X96.714 Y88.398
G1 F1200 X89.975 Y81.66 E22.92967
G0 F6000 X90.569 Y81.66
G1 F1200 X96.714 Y87.804 E23.23314
G0 F6000 X96.714 Y87.211
G1 F1200 X91.163 Y81.66 E23.5073
G0 F6000 X91.757 Y81.66
G1 F1200 X96.714 Y86.617 E23.75212
G0 F6000 X96.714 Y86.023
G1 F1200 X92.351 Y81.66 E23.9676
G0 F6000 X92.945 Y81.66
G1 F1200 X96.714 Y85.429 E24.15374
G0 F6000 X96.714 Y84.835
G1 F1200 X93.539 Y81.66 E24.31055
G0 F6000 X94.133 Y81.66
G1 F1200 X96.714 Y84.241 E24.43803
G0 F6000 X96.714 Y83.647
G1 F1200 X94.727 Y81.66 E24.53616
G0 F6000 X95.321 Y81.66
G1 F1200 X96.714 Y83.053 E24.60496
G0 F6000 X96.714 Y82.459
G1 F1200 X95.915 Y81.66 E24.64442
G0 F6000 X96.509 Y81.66
G1 F1200 X96.714 Y81.865 E24.65455
G1 F2400 E20.65455
G0 F6000 X99.018 Y81.865
G0 X99.006 Y92.757
G0 X85.618 Y94.369
G0 X85.606 Y106.054
G0 X87.321 Y106.054
;TYPE:WALL-INNER
G1 F2400 E24.65455
G1 F1200 X97.303 Y106.054 E25.01012
G1 X97.303 Y96.072 E25.3657
G1 X87.321 Y96.072 E25.72127
G1 X87.321 Y106.054 E26.07685
G0 F6000 X86.901 Y106.474
G1 F1200 X97.723 Y106.474 E26.46234
G1 X97.723 Y95.652 E26.84784
G1 X86.901 Y95.652 E27.23334
G1 X86.901 Y106.474 E27.61883
G0 F6000 X86.481 Y106.894
;TYPE:WALL-OUTER
G1 F1200 X98.143 Y106.894 E28.02611
G1 X98.143 Y95.232 E28.43338
G1 X86.481 Y95.232 E28.84066
G1 X86.481 Y106.894 E29.24793
G1 F2400 E25.24793
G0 F6000 X87.699 Y105.676
;TYPE:SKIN
G1 F2400 E29.24793
G1 F1200 X87.699 Y96.45 E29.57013
G1 X96.925 Y96.45 E29.89233
G1 X96.925 Y105.676 E30.21453
G1 X87.699 Y105.676 E30.53673
G0 F6000 X88.239 Y105.464
G1 F1200 X87.908 Y105.134 E30.55306
G0 F6000 X87.908 Y104.54
G1 F1200 X88.833 Y105.464 E30.59872
G0 F6000 X89.427 Y105.464
G1 F1200 X87.908 Y103.946 E30.67371
G0 F6000 X87.908 Y103.352
G1 F1200 X90.021 Y105.464 E30.77805
G0 F6000 X90.615 Y105.464
G1 F1200 X87.908 Y102.758 E30.91172
G0 F6000 X87.908 Y102.164
G1 F1200 X91.209 Y105.464 E31.07472
G0 F6000 X91.803 Y105.464
G1 F1200 X87.908 Y101.57 E31.26707
G0 F6000 X87.908 Y100.976
G1 F1200 X92.397 Y105.464 E31.48875
G0 F6000 X92.991 Y105.464
G1 F1200 X87.908 Y100.382 E31.73977
G0 F6000 X87.908 Y99.788
G1 F1200 X93.585 Y105.464 E32.02012
G0 F6000 X94.179 Y105.464
G1 F1200 X87.908 Y99.194 E32.32982
G0 F6000 X87.908 Y98.6
G1 F1200 X94.773 Y105.464 E32.66885
G0 F6000 X95.367 Y105.464
G1 F1200 X87.908 Y98.006 E33.03721
G0 F6000 X87.908 Y97.412
G1 F1200 X95.961 Y105.464 E33.43492
G0 F6000 X96.555 Y105.464
G1 F1200 X87.908 Y96.818 E33.86196
G0 F6000 X88.343 Y96.659
G1 F1200 X96.715 Y105.03 E34.27541
G0 F6000 X96.715 Y104.436
G1 F1200 X88.937 Y96.659 E34.65954
G0 F6000 X89.531 Y96.659
G1 F1200 X96.715 Y103.842 E35.01432
G0 F6000 X96.715 Y103.248
G1 F1200 X90.125 Y96.659 E35.33977
G0 F6000 X90.719 Y96.659
G1 F1200 X96.715 Y102.654 E35.63588
G0 F6000 X96.715 Y102.06
G1 F1200 X91.313 Y96.659 E35.90265
G0 F6000 X91.907 Y96.659
G1 F1200 X96.715 Y101.466 E36.14009
G0 F6000 X96.714 Y100.872
G1 F1200 X92.502 Y96.66 E36.34811
G0 F6000 X93.096 Y96.66
G1 F1200 X96.714 Y100.278 E36.5268
G0 F6000 X96.714 Y99.684
G1 F1200 X93.69 Y96.66 E36.67615
G0 F6000 X94.284 Y96.66
G1 F1200 X96.714 Y99.09 E36.79617
G0 F6000 X96.714 Y98.496
G1 F1200 X94.878 Y96.66 E36.88685
G0 F6000 X95.472 Y96.66
G1 F1200 X96.714 Y97.902 E36.94819
G0 F6000 X96.714 Y97.308
G1 F1200 X96.066 Y96.66 E36.98019
G1 F2400 E32.98019
G0 F6000 X96.066 Y94.357
G0 X99.006 Y92.757
G0 X100.606 Y91.054
G0 X102.321 Y91.054
;TYPE:WALL-INNER
G1 F2400 E36.98019
G1 F1200 X112.303 Y91.054 E37.33577
G1 X112.303 Y81.072 E37.69134
G1 X102.321 Y81.072 E38.04692
G1 X102.321 Y91.054 E38.40249
G0 F6000 X101.901 Y91.474
G1 F1200 X112.723 Y91.474 E38.78799
G1 X112.723 Y80.652 E39.17348
G1 X101.901 Y80.652 E39.55898
G1 X101.901 Y91.474 E39.94448
G0 F6000 X101.481 Y91.894
;TYPE:WALL-OUTER
G1 F1200 X113.143 Y91.894 E40.35175
G1 X113.143 Y80.232 E40.75903
G1 X101.481 Y80.232 E41.1663
G1 X101.481 Y91.894 E41.57357
G1 F2400 E37.57357
G0 F6000 X102.699 Y90.676
;TYPE:SKIN
G1 F2400 E41.57357
G1 F1200 X102.699 Y81.45 E41.89577
G1 X111.925 Y81.45 E42.21797
G1 X111.925 Y90.676 E42.54018
G1 X102.699 Y90.676 E42.86238
G0 F6000 X103.533 Y90.465
G1 F1200 X102.908 Y89.84 E42.89324
G0 F6000 X102.908 Y89.246
G1 F1200 X104.127 Y90.465 E42.95345
G0 F6000 X104.721 Y90.465
G1 F1200 X102.908 Y88.652 E43.04299
G0 F6000 X102.908 Y88.058
G1 F1200 X105.315 Y90.465 E43.16187
G0 F6000 X105.909 Y90.465
G1 F1200 X102.908 Y87.464 E43.31009
G0 F6000 X102.908 Y86.87
G1 F1200 X106.503 Y90.465 E43.48764
G0 F6000 X107.096 Y90.465
G1 F1200 X102.908 Y86.276 E43.6945
G0 F6000 X102.908 Y85.682
G1 F1200 X107.69 Y90.465 E43.93071
G0 F6000 X108.284 Y90.465
G1 F1200 X102.908 Y85.088 E44.19624
G0 F6000 X102.908 Y84.495
G1 F1200 X108.878 Y90.465 E44.4911
G0 F6000 X109.472 Y90.465
G1 F1200 X102.908 Y83.901 E44.81528
G0 F6000 X102.908 Y83.307
G1 F1200 X110.066 Y90.465 E45.16881
G0 F6000 X110.66 Y90.465
G1 F1200 X102.908 Y82.713 E45.55167
G0 F6000 X102.908 Y82.119
G1 F1200 X111.254 Y90.465 E45.96387
G0 F6000 X111.714 Y90.331
G1 F1200 X103.042 Y81.659 E46.39217
G0 F6000 X103.636 Y81.659
G1 F1200 X111.714 Y89.737 E46.79113
G0 F6000 X111.714 Y89.143
G1 F1200 X104.23 Y81.659 E47.16076
G0 F6000 X104.824 Y81.659
G1 F1200 X111.714 Y88.549 E47.50105
G0 F6000 X111.714 Y87.955
G1 F1200 X105.418 Y81.659 E47.812
G0 F6000 X106.012 Y81.659
G1 F1200 X111.714 Y87.361 E48.09361
G0 F6000 X111.714 Y86.767
G1 F1200 X106.606 Y81.659 E48.34589
G0 F6000 X107.2 Y81.659
G1 F1200 X111.714 Y86.173 E48.56883
G0 F6000 X111.714 Y85.579
G1 F1200 X107.794 Y81.659 E48.76243
G0 F6000 X108.388 Y81.659
G1 F1200 X111.714 Y84.985 E48.9267
G0 F6000 X111.714 Y84.391
G1 F1200 X108.982 Y81.659 E49.06163
G0 F6000 X109.576 Y81.659
G1 F1200 X111.714 Y83.797 E49.16722
G0 F6000 X111.714 Y83.203
G1 F1200 X110.17 Y81.659 E49.24348
G0 F6000 X110.764 Y81.659
G1 F1200 X111.714 Y82.609 E49.2904
G0 F6000 X111.714 Y82.015
G1 F1200 X111.358 Y81.659 E49.30798
G1 F2400 E45.30798
;MESH:NONMESH
G0 F240 X111.358 Y81.659 Z0.4
G0 F6000 X111.358 Y79.357
G0 X100.618 Y79.369
G0 X99.006 Y92.757
G0 X85.618 Y92.757
G0 X84.018 Y91.177
G0 X82.426 Y91.177
;TIME_ELAPSED:91.416743
;LAYER:1
M106 S85
;TYPE:WALL-INNER
;MESH:Small_Tetromino_T.3mf
G1 F2400 E49.30798
G1 F1500 X82.426 Y80.949 E49.67232
G1 X72.198 Y80.949 E50.03666
G1 X72.198 Y91.177 E50.401
G1 X82.426 Y91.177 E50.76533
G0 F7500 X82.846 Y91.597
G1 F1500 X82.846 Y80.529 E51.15959
G1 X71.778 Y80.529 E51.55385
G1 X71.778 Y91.597 E51.94811
G1 X82.846 Y91.597 E52.34237
G0 F7500 X83.266 Y92.017
;TYPE:WALL-OUTER
G1 F1500 X83.266 Y80.109 E52.75824
G1 X71.358 Y80.109 E53.1741
G1 X71.358 Y92.017 E53.58997
G1 X83.266 Y92.017 E54.00583
G1 F2400 E50.00583
G0 F7500 X82.048 Y90.799
;TYPE:SKIN
G1 F2400 E54.00583
G1 F1350 X72.576 Y90.799 E54.33662
G1 X72.576 Y81.327 E54.66742
G1 X82.048 Y81.327 E54.99821
G1 X82.048 Y90.799 E55.329
G0 F7500 X81.663 Y90.588
G1 F1350 X81.837 Y90.413 E55.33762
G0 F7500 X81.837 Y89.819
G1 F1350 X81.069 Y90.588 E55.37557
G0 F7500 X80.475 Y90.588
G1 F1350 X81.837 Y89.225 E55.44287
G0 F7500 X81.837 Y88.631
G1 F1350 X79.881 Y90.588 E55.5395
G0 F7500 X79.287 Y90.588
G1 F1350 X81.837 Y88.037 E55.66546
G0 F7500 X81.837 Y87.443
G1 F1350 X78.693 Y90.588 E55.82076
G0 F7500 X78.099 Y90.588
G1 F1350 X81.837 Y86.849 E56.0054
G0 F7500 X81.837 Y86.255
G1 F1350 X77.505 Y90.588 E56.21938
G0 F7500 X76.911 Y90.588
G1 F1350 X81.837 Y85.662 E56.46267
G0 F7500 X81.837 Y85.068
G1 F1350 X76.317 Y90.588 E56.7353
G0 F7500 X75.723 Y90.588
G1 F1350 X81.837 Y84.474 E57.03726
G0 F7500 X81.837 Y83.88
G1 F1350 X75.129 Y90.588 E57.36856
G0 F7500 X74.535 Y90.588
G1 F1350 X81.837 Y83.286 E57.7292
G0 F7500 X81.837 Y82.692
G1 F1350 X73.941 Y90.588 E58.11917
G0 F7500 X73.347 Y90.588
G1 F1350 X81.837 Y82.098 E58.53848
G0 F7500 X81.805 Y81.536
G1 F1350 X72.786 Y90.555 E58.98392
G0 F7500 X72.786 Y89.961
G1 F1350 X81.211 Y81.536 E59.40002
G0 F7500 X80.617 Y81.536
G1 F1350 X72.786 Y89.367 E59.78678
G0 F7500 X72.786 Y88.773
G1 F1350 X80.023 Y81.536 E60.14421
G0 F7500 X79.429 Y81.536
G1 F1350 X72.786 Y88.179 E60.4723
G0 F7500 X72.786 Y87.585
G1 F1350 X78.835 Y81.536 E60.77105
G0 F7500 X78.241 Y81.536
G1 F1350 X72.786 Y86.991 E61.04047
G0 F7500 X72.786 Y86.397
G1 F1350 X77.647 Y81.536 E61.28055
G0 F7500 X77.054 Y81.535
G1 F1350 X72.786 Y85.803 E61.49134
G0 F7500 X72.786 Y85.209
G1 F1350 X76.46 Y81.535 E61.67279
G0 F7500 X75.866 Y81.535
G1 F1350 X72.786 Y84.615 E61.82491
G0 F7500 X72.786 Y84.021
G1 F1350 X75.272 Y81.535 E61.94769
G0 F7500 X74.678 Y81.535
G1 F1350 X72.786 Y83.427 E62.04113
G0 F7500 X72.786 Y82.834
G1 F1350 X74.084 Y81.535 E62.10527
G0 F7500 X73.49 Y81.535
G1 F1350 X72.786 Y82.24 E62.14006
G0 F7500 X72.786 Y81.646
G1 F1350 X72.896 Y81.535 E62.14552
G1 F2400 E58.14552
G0 F7500 X72.896 Y79.234
G0 X84.129 Y79.246
G0 X85.483 Y91.177
G0 X87.198 Y91.177
;TYPE:WALL-INNER
G1 F2400 E62.14552
G1 F1500 X97.426 Y91.177 E62.50985
G1 X97.426 Y80.949 E62.87419
G1 X87.198 Y80.949 E63.23853
G1 X87.198 Y91.177 E63.60287
G0 F7500 X86.778 Y91.597
G1 F1500 X97.846 Y91.597 E63.99713
G1 X97.846 Y80.529 E64.39139
G1 X86.778 Y80.529 E64.78565
G1 X86.778 Y91.597 E65.17991
G0 F7500 X86.358 Y92.017
;TYPE:WALL-OUTER
G1 F1500 X98.266 Y92.017 E65.59577
G1 X98.266 Y80.109 E66.01164
G1 X86.358 Y80.109 E66.4275
G1 X86.358 Y92.017 E66.84337
G1 F2400 E62.84337
G0 F7500 X87.576 Y90.799
;TYPE:SKIN
G1 F2400 E66.84337
G1 F1350 X87.576 Y81.327 E67.17416
G1 X97.048 Y81.327 E67.50495
G1 X97.048 Y90.799 E67.83574
G1 X87.576 Y90.799 E68.16653
G1 F2400 E64.16653
G0 F7500 X85.483 Y90.799
G0 X85.483 Y82.089
G0 X87.785 Y82.089
G1 F2400 E68.16653
G1 F1350 X88.338 Y81.537 E68.19382
G0 F7500 X88.932 Y81.537
G1 F1350 X87.785 Y82.683 E68.25045
G0 F7500 X87.785 Y83.277
G1 F1350 X89.526 Y81.537 E68.33641
G0 F7500 X90.12 Y81.537
G1 F1350 X87.785 Y83.871 E68.45171
G0 F7500 X87.785 Y84.465
G1 F1350 X90.714 Y81.537 E68.59634
G0 F7500 X91.307 Y81.537
G1 F1350 X87.785 Y85.059 E68.77029
G0 F7500 X87.785 Y85.653
G1 F1350 X91.901 Y81.537 E68.97357
G0 F7500 X92.495 Y81.537
G1 F1350 X87.785 Y86.247 E69.20619
G0 F7500 X87.785 Y86.841
G1 F1350 X93.089 Y81.537 E69.46815
G0 F7500 X93.683 Y81.537
G1 F1350 X87.785 Y87.435 E69.75945
G0 F7500 X87.785 Y88.029
G1 F1350 X94.277 Y81.537 E70.08008
G0 F7500 X94.871 Y81.537
G1 F1350 X87.785 Y88.623 E70.43005
G0 F7500 X87.785 Y89.217
G1 F1350 X95.465 Y81.537 E70.80935
G0 F7500 X96.059 Y81.537
G1 F1350 X87.785 Y89.811 E71.218
G0 F7500 X87.785 Y90.405
G1 F1350 X96.653 Y81.537 E71.65598
