;FLAVOR:Marlin
;TIME:2038
;Filament used: 1.57184m
;Layer height: 0.2
;MINX:67.185
;MINY:74.685
;MINZ:0.2
;MAXX:112.815
;MAXY:105.315
;MAXZ:13
;TARGET_MACHINE.NAME:Kingroon KP3S
;Generated with Cura_SteamEngine 5.6.0
M140 S60
M104 S220
M190 S60
M109 S220
M82 ;absolute extrusion mode
G28 ; home all axes
 M117 Purge extruder
 G92 E0 ; reset extruder
 G1 Z1.0 F3000 ; move z up little to prevent scratching of surface
 G1 X10 Y20 Z0.3 F5000.0 ; move to start-line position
 G1 X10 Y175.0 Z0.3 F1500.0 E15 ; draw 1st line
 G1 X10 Y175.0 Z0.4 F5000.0 ; move to side a little
 G1 X10 Y20 Z0.4 F1500.0 E30 ; draw 2nd line
 G92 E0 ; reset extruder
 G1 Z1.0 F3000 ; move z up little to prevent scratching of surface
G92 E0
G92 E0
G1 F2400 E-4
;LAYER_COUNT:65
;LAYER:0
M107
;MESH:Small_Tetromino_S.3mf
G0 F6000 X94.991 Y87.491 Z0.2
;TYPE:WALL-INNER
G1 F2400 E0
G1 F1200 X94.991 Y77.509 E0.35557
G1 X85.009 Y77.509 E0.71115
G1 X85.009 Y87.491 E1.06672
G1 X94.991 Y87.491 E1.4223
G0 F6000 X95.411 Y87.911
G1 F1200 X95.411 Y77.089 E1.8078
G1 X84.589 Y77.089 E2.19329
G1 X84.589 Y87.911 E2.57879
G1 X95.411 Y87.911 E2.96429
G0 F6000 X95.831 Y88.331
;TYPE:WALL-OUTER
G1 F1200 X95.831 Y76.669 E3.37156
G1 X84.169 Y76.669 E3.77883
G1 X84.169 Y88.331 E4.18611
G1 X95.831 Y88.331 E4.59338
G1 F2400 E0.59338
G0 F6000 X94.613 Y87.113
;TYPE:SKIN
G1 F2400 E4.59338
G1 F1200 X85.387 Y87.113 E4.91558
G1 X85.387 Y77.887 E5.23778
G1 X94.613 Y77.887 E5.55998
G1 X94.613 Y87.113 E5.88219
G1 F2400 E1.88219
G0 F6000 X96.706 Y87.113
G0 X96.706 Y78.365
G0 X94.402 Y78.365
G1 F2400 E5.88219
G1 F1200 X94.134 Y78.097 E5.89542
G0 F6000 X93.54 Y78.097
G1 F1200 X94.402 Y78.959 E5.938
G0 F6000 X94.402 Y79.553
G1 F1200 X92.946 Y78.097 E6.00991
G0 F6000 X92.352 Y78.097
G1 F1200 X94.402 Y80.147 E6.11115
G0 F6000 X94.402 Y80.74
G1 F1200 X91.758 Y78.097 E6.24171
G0 F6000 X91.164 Y78.097
G1 F1200 X94.402 Y81.334 E6.40161
G0 F6000 X94.402 Y81.928
G1 F1200 X90.57 Y78.097 E6.59084
G0 F6000 X89.976 Y78.097
G1 F1200 X94.402 Y82.522 E6.80941
G0 F6000 X94.402 Y83.116
G1 F1200 X89.382 Y78.097 E7.05732
G0 F6000 X88.788 Y78.097
G1 F1200 X94.402 Y83.71 E7.33456
G0 F6000 X94.402 Y84.304
G1 F1200 X88.194 Y78.097 E7.64114
G0 F6000 X87.6 Y78.097
G1 F1200 X94.402 Y84.898 E7.97706
G0 F6000 X94.402 Y85.492
G1 F1200 X87.006 Y78.097 E8.34232
G0 F6000 X86.412 Y78.097
G1 F1200 X94.402 Y86.086 E8.73691
G0 F6000 X94.402 Y86.68
G1 F1200 X85.818 Y78.097 E9.16084
G0 F6000 X85.596 Y78.469
G1 F1200 X94.029 Y86.902 E9.57733
G0 F6000 X93.435 Y86.902
G1 F1200 X85.596 Y79.063 E9.96449
G0 F6000 X85.596 Y79.656
G1 F1200 X92.841 Y86.902 E10.32234
G0 F6000 X92.247 Y86.902
G1 F1200 X85.596 Y80.25 E10.65085
G0 F6000 X85.596 Y80.844
G1 F1200 X91.653 Y86.902 E10.95002
G0 F6000 X91.059 Y86.902
G1 F1200 X85.596 Y81.438 E11.21985
G0 F6000 X85.596 Y82.032
G1 F1200 X90.465 Y86.902 E11.46035
G0 F6000 X89.871 Y86.902
G1 F1200 X85.596 Y82.626 E11.67151
G0 F6000 X85.596 Y83.22
G1 F1200 X89.277 Y86.902 E11.85334
G0 F6000 X88.683 Y86.902
G1 F1200 X85.596 Y83.814 E12.00583
G0 F6000 X85.596 Y84.408
G1 F1200 X88.089 Y86.902 E12.12898
G0 F6000 X87.495 Y86.902
G1 F1200 X85.596 Y85.002 E12.22279
G0 F6000 X85.596 Y85.596
G1 F1200 X86.902 Y86.902 E12.28729
G0 F6000 X86.308 Y86.902
G1 F1200 X85.596 Y86.19 E12.32246
G0 F6000 X85.596 Y86.784
G1 F1200 X85.714 Y86.902 E12.32829
G1 F2400 E8.32829
G0 F6000 X85.714 Y89.206
G0 X96.694 Y90.806
G0 X96.706 Y102.491
G0 X94.991 Y102.491
;TYPE:WALL-INNER
G1 F2400 E12.32829
G1 F1200 X94.991 Y92.509 E12.68386
G1 X85.009 Y92.509 E13.03944
G1 X85.009 Y102.491 E13.39501
G1 X94.991 Y102.491 E13.75059
G0 F6000 X95.411 Y102.911
G1 F1200 X95.411 Y92.089 E14.13608
G1 X84.589 Y92.089 E14.52158
G1 X84.589 Y102.911 E14.90708
G1 X95.411 Y102.911 E15.29257
G0 F6000 X95.831 Y103.331
;TYPE:WALL-OUTER
G1 F1200 X95.831 Y91.669 E15.69985
G1 X84.169 Y91.669 E16.10712
G1 X84.169 Y103.331 E16.51439
G1 X95.831 Y103.331 E16.92167
G1 F2400 E12.92167
G0 F6000 X94.613 Y102.113
;TYPE:SKIN
G1 F2400 E16.92167
G1 F1200 X85.387 Y102.113 E17.24387
G1 X85.387 Y92.887 E17.56607
G1 X94.613 Y92.887 E17.88827
G1 X94.613 Y102.113 E18.21047
G1 F2400 E14.21047
G0 F6000 X96.706 Y102.113
G0 X96.706 Y93.096
G0 X94.284 Y93.096
G1 F2400 E18.21047
G1 F1200 X94.402 Y93.215 E18.21632
G0 F6000 X94.402 Y93.809
G1 F1200 X93.69 Y93.096 E18.25151
G0 F6000 X93.096 Y93.096
G1 F1200 X94.402 Y94.402 E18.31602
G0 F6000 X94.402 Y94.996
G1 F1200 X92.503 Y93.096 E18.40983
G0 F6000 X91.909 Y93.096
G1 F1200 X94.402 Y95.59 E18.53298
G0 F6000 X94.402 Y96.184
G1 F1200 X91.315 Y93.096 E18.68547
G0 F6000 X90.721 Y93.096
G1 F1200 X94.402 Y96.778 E18.86729
G0 F6000 X94.402 Y97.372
G1 F1200 X90.127 Y93.096 E19.07846
G0 F6000 X89.533 Y93.096
G1 F1200 X94.402 Y97.966 E19.31895
G0 F6000 X94.402 Y98.56
G1 F1200 X88.939 Y93.096 E19.58879
G0 F6000 X88.345 Y93.096
G1 F1200 X94.402 Y99.154 E19.88796
G0 F6000 X94.402 Y99.748
G1 F1200 X87.751 Y93.096 E20.21647
G0 F6000 X87.157 Y93.096
G1 F1200 X94.402 Y100.342 E20.57432
G0 F6000 X94.402 Y100.936
G1 F1200 X86.563 Y93.096 E20.9615
G0 F6000 X85.969 Y93.096
G1 F1200 X94.402 Y101.53 E21.37802
G0 F6000 X94.18 Y101.902
G1 F1200 X85.596 Y93.318 E21.80197
G0 F6000 X85.596 Y93.912
G1 F1200 X93.586 Y101.902 E22.19659
G0 F6000 X92.993 Y101.902
G1 F1200 X85.596 Y94.506 E22.5619
G0 F6000 X85.596 Y95.1
G1 F1200 X92.399 Y101.902 E22.89786
G0 F6000 X91.805 Y101.902
G1 F1200 X85.596 Y95.694 E23.20449
G0 F6000 X85.596 Y96.288
G1 F1200 X91.211 Y101.902 E23.48179
G0 F6000 X90.617 Y101.902
G1 F1200 X85.596 Y96.882 E23.72974
G0 F6000 X85.596 Y97.476
G1 F1200 X90.023 Y101.902 E23.94836
G0 F6000 X89.429 Y101.902
G1 F1200 X85.596 Y98.07 E24.13764
G0 F6000 X85.596 Y98.664
G1 F1200 X88.835 Y101.902 E24.29759
G0 F6000 X88.241 Y101.902
G1 F1200 X85.596 Y99.257 E24.42822
G0 F6000 X85.596 Y99.851
G1 F1200 X87.647 Y101.902 E24.52952
G0 F6000 X87.053 Y101.902
G1 F1200 X85.596 Y100.445 E24.60148
G0 F6000 X85.596 Y101.039
G1 F1200 X86.459 Y101.902 E24.6441
G0 F6000 X85.865 Y101.902
G1 F1200 X85.596 Y101.633 E24.65739
G1 F2400 E20.65739
G0 F6000 X83.294 Y101.633
G0 X81.706 Y102.491
G0 X79.991 Y102.491
;TYPE:WALL-INNER
G1 F2400 E24.65739
G1 F1200 X79.991 Y92.509 E25.01296
G1 X70.009 Y92.509 E25.36854
G1 X70.009 Y102.491 E25.72411
G1 X79.991 Y102.491 E26.07969
G0 F6000 X80.411 Y102.911
G1 F1200 X80.411 Y92.089 E26.46518
G1 X69.589 Y92.089 E26.85068
G1 X69.589 Y102.911 E27.23618
G1 X80.411 Y102.911 E27.62167
G0 F6000 X80.831 Y103.331
;TYPE:WALL-OUTER
G1 F1200 X80.831 Y91.669 E28.02895
G1 X69.169 Y91.669 E28.43622
G1 X69.169 Y103.331 E28.8435
G1 X80.831 Y103.331 E29.25077
G1 F2400 E25.25077
G0 F6000 X79.613 Y102.113
;TYPE:SKIN
G1 F2400 E29.25077
G1 F1200 X70.387 Y102.113 E29.57297
G1 X70.387 Y92.887 E29.89517
G1 X79.613 Y92.887 E30.21737
G1 X79.613 Y102.113 E30.53957
G1 F2400 E26.53957
G0 F6000 X81.706 Y102.113
G0 X81.706 Y93.658
G0 X79.403 Y93.658
G1 F2400 E30.53957
G1 F1200 X78.84 Y93.096 E30.56735
G0 F6000 X78.247 Y93.096
G1 F1200 X79.403 Y94.252 E30.62445
G0 F6000 X79.403 Y94.846
G1 F1200 X77.653 Y93.096 E30.71088
G0 F6000 X77.059 Y93.096
G1 F1200 X79.403 Y95.44 E30.82665
G0 F6000 X79.403 Y96.034
G1 F1200 X76.465 Y93.096 E30.97175
G0 F6000 X75.871 Y93.096
G1 F1200 X79.403 Y96.628 E31.14619
G0 F6000 X79.403 Y97.222
G1 F1200 X75.277 Y93.096 E31.34997
G0 F6000 X74.683 Y93.096
G1 F1200 X79.403 Y97.816 E31.58308
G0 F6000 X79.403 Y98.41
G1 F1200 X74.089 Y93.096 E31.84554
G0 F6000 X73.495 Y93.096
G1 F1200 X79.403 Y99.004 E32.13732
G0 F6000 X79.403 Y99.598
G1 F1200 X72.901 Y93.096 E32.45845
G0 F6000 X72.307 Y93.096
G1 F1200 X79.403 Y100.192 E32.80891
G0 F6000 X79.403 Y100.786
G1 F1200 X71.713 Y93.096 E33.18871
G0 F6000 X71.119 Y93.096
G1 F1200 X79.403 Y101.38 E33.59785
G0 F6000 X79.331 Y101.901
G1 F1200 X70.596 Y93.167 E34.02924
G0 F6000 X70.596 Y93.761
G1 F1200 X78.737 Y101.901 E34.43129
G0 F6000 X78.143 Y101.901
G1 F1200 X70.596 Y94.355 E34.804
G0 F6000 X70.596 Y94.949
G1 F1200 X77.549 Y101.901 E35.14737
G0 F6000 X76.955 Y101.901
G1 F1200 X70.596 Y95.543 E35.46141
G0 F6000 X70.596 Y96.137
G1 F1200 X76.361 Y101.901 E35.74611
G0 F6000 X75.767 Y101.901
G1 F1200 X70.596 Y96.731 E36.00148
G0 F6000 X70.596 Y97.325
G1 F1200 X75.173 Y101.901 E36.22751
G0 F6000 X74.579 Y101.901
G1 F1200 X70.596 Y97.919 E36.4242
G0 F6000 X70.596 Y98.513
G1 F1200 X73.985 Y101.901 E36.59155
G0 F6000 X73.391 Y101.901
G1 F1200 X70.596 Y99.107 E36.72957
G0 F6000 X70.596 Y99.701
G1 F1200 X72.797 Y101.901 E36.83825
G0 F6000 X72.203 Y101.901
G1 F1200 X70.596 Y100.295 E36.91759
G0 F6000 X70.596 Y100.889
G1 F1200 X71.609 Y101.901 E36.9676
G0 F6000 X71.015 Y101.901
G1 F1200 X70.596 Y101.483 E36.98827
G1 F2400 E32.98827
G0 F6000 X68.294 Y101.483
G0 X68.306 Y104.194
G0 X81.694 Y104.194
G0 X83.306 Y90.806
G0 X96.694 Y89.194
G0 X98.294 Y87.491
G0 X100.009 Y87.491
;TYPE:WALL-INNER
G1 F2400 E36.98827
G1 F1200 X109.991 Y87.491 E37.34384
G1 X109.991 Y77.509 E37.69942
G1 X100.009 Y77.509 E38.05499
G1 X100.009 Y87.491 E38.41057
G0 F6000 X99.589 Y87.911
G1 F1200 X110.411 Y87.911 E38.79606
G1 X110.411 Y77.089 E39.18156
G1 X99.589 Y77.089 E39.56706
G1 X99.589 Y87.911 E39.95255
G0 F6000 X99.169 Y88.331
;TYPE:WALL-OUTER
G1 F1200 X110.831 Y88.331 E40.35983
G1 X110.831 Y76.669 E40.7671
G1 X99.169 Y76.669 E41.17437
G1 X99.169 Y88.331 E41.58165
G1 F2400 E37.58165
G0 F6000 X100.387 Y87.113
;TYPE:SKIN
G1 F2400 E41.58165
G1 F1200 X100.387 Y77.887 E41.90385
G1 X109.613 Y77.887 E42.22605
G1 X109.613 Y87.113 E42.54825
G1 X100.387 Y87.113 E42.87045
G0 F6000 X101.157 Y86.902
G1 F1200 X100.595 Y86.34 E42.89821
G0 F6000 X100.595 Y85.746
G1 F1200 X101.751 Y86.902 E42.9553
G0 F6000 X102.345 Y86.902
G1 F1200 X100.595 Y85.152 E43.04173
G0 F6000 X100.595 Y84.558
G1 F1200 X102.939 Y86.902 E43.1575
G0 F6000 X103.533 Y86.902
G1 F1200 X100.595 Y83.964 E43.3026
G0 F6000 X100.595 Y83.37
G1 F1200 X104.127 Y86.902 E43.47704
G0 F6000 X104.721 Y86.902
G1 F1200 X100.595 Y82.776 E43.68082
G0 F6000 X100.595 Y82.182
G1 F1200 X105.315 Y86.902 E43.91394
G0 F6000 X105.909 Y86.902
G1 F1200 X100.595 Y81.588 E44.17639
G0 F6000 X100.595 Y80.994
G1 F1200 X106.503 Y86.902 E44.46818
G0 F6000 X107.097 Y86.902
G1 F1200 X100.595 Y80.4 E44.7893
G0 F6000 X100.595 Y79.806
G1 F1200 X107.691 Y86.902 E45.13977
G0 F6000 X108.285 Y86.902
G1 F1200 X100.595 Y79.212 E45.51957
G0 F6000 X100.595 Y78.618
G1 F1200 X108.879 Y86.902 E45.9287
G0 F6000 X109.402 Y86.831
G1 F1200 X100.667 Y78.097 E46.36009
G0 F6000 X101.261 Y78.097
G1 F1200 X109.402 Y86.237 E46.76214
G0 F6000 X109.402 Y85.643
G1 F1200 X101.855 Y78.097 E47.13485
G0 F6000 X102.449 Y78.097
G1 F1200 X109.402 Y85.049 E47.47823
G0 F6000 X109.402 Y84.455
G1 F1200 X103.043 Y78.097 E47.79227
G0 F6000 X103.637 Y78.097
G1 F1200 X109.402 Y83.861 E48.07697
G0 F6000 X109.402 Y83.267
G1 F1200 X104.231 Y78.097 E48.33233
G0 F6000 X104.825 Y78.097
G1 F1200 X109.402 Y82.673 E48.55836
G0 F6000 X109.402 Y82.079
G1 F1200 X105.419 Y78.097 E48.75505
G0 F6000 X106.013 Y78.097
G1 F1200 X109.402 Y81.485 E48.9224
G0 F6000 X109.402 Y80.891
G1 F1200 X106.607 Y78.097 E49.06042
G0 F6000 X107.201 Y78.097
G1 F1200 X109.402 Y80.297 E49.1691
G0 F6000 X109.402 Y79.703
G1 F1200 X107.795 Y78.097 E49.24844
G0 F6000 X108.389 Y78.097
G1 F1200 X109.402 Y79.109 E49.29845
G0 F6000 X109.402 Y78.515
G1 F1200 X108.983 Y78.097 E49.31912
G1 F2400 E45.31912
;MESH:NONMESH
G0 F240 X108.983 Y78.097 Z0.4
G0 F6000 X108.983 Y75.794
G0 X98.306 Y75.806
G0 X96.706 Y87.614
G0 X95.114 Y87.614
;TIME_ELAPSED:92.422707
;LAYER:1
M106 S85
;TYPE:WALL-INNER
;MESH:Small_Tetromino_S.3mf
G1 F2400 E49.31912
G1 F1500 X95.114 Y77.386 E49.68346
G1 X84.886 Y77.386 E50.0478
G1 X84.886 Y87.614 E50.41213
G1 X95.114 Y87.614 E50.77647
G0 F7500 X95.534 Y88.034
G1 F1500 X95.534 Y76.966 E51.17073
G1 X84.466 Y76.966 E51.56499
G1 X84.466 Y88.034 E51.95925
G1 X95.534 Y88.034 E52.35351
G0 F7500 X95.954 Y88.454
;TYPE:WALL-OUTER
G1 F1500 X95.954 Y76.546 E52.76938
G1 X84.046 Y76.546 E53.18524
G1 X84.046 Y88.454 E53.60111
G1 X95.954 Y88.454 E54.01697
G1 F2400 E50.01697
G0 F7500 X94.736 Y87.236
;TYPE:SKIN
G1 F2400 E54.01697
G1 F1350 X85.264 Y87.236 E54.34776
G1 X85.264 Y77.764 E54.67855
G1 X94.736 Y77.764 E55.00935
G1 X94.736 Y87.236 E55.34014
G0 F7500 X94.135 Y87.025
G1 F1350 X94.525 Y86.635 E55.3594
G0 F7500 X94.525 Y86.041
G1 F1350 X93.541 Y87.025 E55.408
G0 F7500 X92.947 Y87.025
G1 F1350 X94.525 Y85.447 E55.48593
G0 F7500 X94.525 Y84.853
G1 F1350 X92.353 Y87.025 E55.59321
G0 F7500 X91.759 Y87.025
G1 F1350 X94.525 Y84.259 E55.72982
G0 F7500 X94.525 Y83.665
G1 F1350 X91.165 Y87.025 E55.89576
G0 F7500 X90.571 Y87.025
G1 F1350 X94.525 Y83.071 E56.09105
G0 F7500 X94.525 Y82.477
G1 F1350 X89.977 Y87.025 E56.31567
G0 F7500 X89.383 Y87.025
G1 F1350 X94.525 Y81.883 E56.56962
G0 F7500 X94.525 Y81.289
G1 F1350 X88.789 Y87.025 E56.85292
G0 F7500 X88.195 Y87.025
G1 F1350 X94.525 Y80.695 E57.16555
G0 F7500 X94.525 Y80.101
G1 F1350 X87.601 Y87.025 E57.50752
G0 F7500 X87.007 Y87.025
G1 F1350 X94.525 Y79.507 E57.87882
G0 F7500 X94.525 Y78.913
G1 F1350 X86.413 Y87.025 E58.27946
G0 F7500 X85.819 Y87.025
G1 F1350 X94.525 Y78.319 E58.70944
G0 F7500 X94.277 Y77.973
G1 F1350 X85.473 Y86.777 E59.14426
G0 F7500 X85.473 Y86.183
G1 F1350 X93.683 Y77.973 E59.54974
G0 F7500 X93.089 Y77.973
G1 F1350 X85.473 Y85.589 E59.92589
G0 F7500 X85.473 Y84.995
G1 F1350 X92.495 Y77.973 E60.27269
G0 F7500 X91.901 Y77.973
G1 F1350 X85.473 Y84.401 E60.59017
G0 F7500 X85.473 Y83.807
G1 F1350 X91.307 Y77.973 E60.8783
G0 F7500 X90.714 Y77.973
G1 F1350 X85.473 Y83.213 E61.13712
G0 F7500 X85.473 Y82.619
G1 F1350 X90.12 Y77.973 E61.36661
G0 F7500 X89.526 Y77.973
G1 F1350 X85.473 Y82.025 E61.56675
G0 F7500 X85.473 Y81.431
G1 F1350 X88.932 Y77.973 E61.73757
G0 F7500 X88.338 Y77.973
G1 F1350 X85.473 Y80.837 E61.87904
G0 F7500 X85.473 Y80.243
G1 F1350 X87.744 Y77.973 E61.99118
G0 F7500 X87.15 Y77.973
G1 F1350 X85.473 Y79.649 E62.07398
G0 F7500 X85.473 Y79.055
G1 F1350 X86.556 Y77.973 E62.12744
G0 F7500 X85.962 Y77.973
G1 F1350 X85.473 Y78.461 E62.15157
G1 F2400 E58.15157
G0 F7500 X83.171 Y78.461
G0 X83.183 Y89.317
G0 X96.817 Y90.683
G0 X96.829 Y102.614
G0 X95.114 Y102.614
;TYPE:WALL-INNER
G1 F2400 E62.15157
G1 F1500 X95.114 Y92.386 E62.5159
G1 X84.886 Y92.386 E62.88024
G1 X84.886 Y102.614 E63.24458
G1 X95.114 Y102.614 E63.60892
G0 F7500 X95.534 Y103.034
G1 F1500 X95.534 Y91.966 E64.00318
G1 X84.466 Y91.966 E64.39744
G1 X84.466 Y103.034 E64.7917
G1 X95.534 Y103.034 E65.18596
G0 F7500 X95.954 Y103.454
;TYPE:WALL-OUTER
G1 F1500 X95.954 Y91.546 E65.60182
G1 X84.046 Y91.546 E66.01769
G1 X84.046 Y103.454 E66.43355
G1 X95.954 Y103.454 E66.84942
G1 F2400 E62.84942
G0 F7500 X94.736 Y102.236
;TYPE:SKIN
G1 F2400 E66.84942
G1 F1350 X85.264 Y102.236 E67.18021
G1 X85.264 Y92.764 E67.511
G1 X94.736 Y92.764 E67.84179
G1 X94.736 Y102.236 E68.17258
G0 F7500 X93.984 Y102.025
G1 F1350 X94.525 Y101.484 E68.1993
G0 F7500 X94.525 Y100.89
G1 F1350 X93.39 Y102.025 E68.25536
G0 F7500 X92.796 Y102.025
G1 F1350 X94.525 Y100.296 E68.34075
G0 F7500 X94.525 Y99.702
G1 F1350 X92.202 Y102.025 E68.45548
G0 F7500 X91.608 Y102.025
G1 F1350 X94.525 Y99.108 E68.59955
G0 F7500 X94.525 Y98.514
G1 F1350 X91.014 Y102.025 E68.77295
G0 F7500 X90.42 Y102.025
G1 F1350 X94.525 Y97.92 E68.9757
G0 F7500 X94.525 Y97.326
G1 F1350 X89.826 Y102.025 E69.20777
G0 F7500 X89.232 Y102.025
G1 F1350 X94.525 Y96.732 E69.46919
G0 F7500 X94.525 Y96.138
G1 F1350 X88.638 Y102.025 E69.75994
G0 F7500 X88.044 Y102.025
G1 F1350 X94.525 Y95.544 E70.08003
G0 F7500 X94.525 Y94.951
G1 F1350 X87.45 Y102.025 E70.42943
G0 F7500 X86.856 Y102.025
G1 F1350 X94.525 Y94.357 E70.80817
G0 F7500 X94.525 Y93.763
G1 F1350 X86.262 Y102.025 E71.21624
G0 F7500 X85.668 Y102.025
G1 F1350 X94.525 Y93.169 E71.65365
G0 F7500 X94.127 Y92.973
G1 F1350 X85.473 Y101.626 E72.08104
G0 F7500 X85.473 Y101.032
G1 F1350 X93.533 Y92.973 E72.47909
G0 F7500 X92.939 Y92.973
G1 F1350 X85.473 Y100.438 E72.8478
G0 F7500 X85.473 Y99.844
G1 F1350 X92.345 Y92.973 E73.18718
G0 F7500 X91.751 Y92.973
G1 F1350 X85.473 Y99.25 E73.49721
G0 F7500 X85.473 Y98.656
G1 F1350 X91.157 Y92.973 E73.77792
G0 F7500 X90.563 Y92.973
G1 F1350 X85.473 Y98.062 E74.02928
