;FLAVOR:Marlin
;TIME:2008
;Filament used: 1.57156m
;Layer height: 0.2
;MINX:59.697
;MINY:82.185
;MINZ:0.2
;MAXX:120.315
;MAXY:97.815
;MAXZ:13
;TARGET_MACHINE.NAME:Kingroon KP3S
;Generated with Cura_SteamEngine 5.6.0
M140 S60
M104 S220
M190 S60
M109 S220
M82 ;absolute extrusion mode
G28 ; home all axes
 M117 Purge extruder
 G92 E0 ; reset extruder
 G1 Z1.0 F3000 ; move z up little to prevent scratching of surface
 G1 X10 Y20 Z0.3 F5000.0 ; move to start-line position
 G1 X10 Y175.0 Z0.3 F1500.0 E15 ; draw 1st line
 G1 X10 Y175.0 Z0.4 F5000.0 ; move to side a little
 G1 X10 Y20 Z0.4 F1500.0 E30 ; draw 2nd line
 G92 E0 ; reset extruder
 G1 Z1.0 F3000 ; move z up little to prevent scratching of surface
G92 E0
G92 E0
G1 F2400 E-4
;LAYER_COUNT:65
;LAYER:0
M107
;MESH:Small_Tetromino_I.3mf
G0 F6000 X72.491 Y94.991 Z0.2
;TYPE:WALL-INNER
G1 F2400 E0
G1 F1200 X72.491 Y85.009 E0.35557
G1 X62.509 Y85.009 E0.71115
G1 X62.509 Y94.991 E1.06672
G1 X72.491 Y94.991 E1.4223
G0 F6000 X72.911 Y95.411
G1 F1200 X72.911 Y84.589 E1.8078
G1 X62.089 Y84.589 E2.19329
G1 X62.089 Y95.411 E2.57879
G1 X72.911 Y95.411 E2.96429
G0 F6000 X73.331 Y95.831
;TYPE:WALL-OUTER
G1 F1200 X73.331 Y84.169 E3.37156
G1 X61.669 Y84.169 E3.77883
G1 X61.669 Y95.831 E4.18611
G1 X73.331 Y95.831 E4.59338
G1 F2400 E0.59338
G0 F6000 X72.113 Y94.613
;TYPE:SKIN
G1 F2400 E4.59338
G1 F1200 X62.887 Y94.613 E4.91558
G1 X62.887 Y85.387 E5.23778
G1 X72.113 Y85.387 E5.55998
G1 X72.113 Y94.613 E5.88219
G1 F2400 E1.88219
G0 F6000 X74.206 Y94.613
G0 X74.206 Y86.158
G0 X71.903 Y86.158
G1 F2400 E5.88219
G1 F1200 X71.341 Y85.596 E5.90994
G0 F6000 X70.747 Y85.596
G1 F1200 X71.903 Y86.752 E5.96704
G0 F6000 X71.903 Y87.346
G1 F1200 X70.153 Y85.596 E6.05347
G0 F6000 X69.559 Y85.596
G1 F1200 X71.903 Y87.94 E6.16923
G0 F6000 X71.903 Y88.534
G1 F1200 X68.965 Y85.596 E6.31434
G0 F6000 X68.371 Y85.596
G1 F1200 X71.903 Y89.128 E6.48878
G0 F6000 X71.903 Y89.722
G1 F1200 X67.777 Y85.596 E6.69256
G0 F6000 X67.183 Y85.596
G1 F1200 X71.903 Y90.316 E6.92567
G0 F6000 X71.903 Y90.91
G1 F1200 X66.589 Y85.596 E7.18812
G0 F6000 X65.995 Y85.596
G1 F1200 X71.903 Y91.504 E7.47991
G0 F6000 X71.903 Y92.098
G1 F1200 X65.401 Y85.596 E7.80104
G0 F6000 X64.807 Y85.596
G1 F1200 X71.903 Y92.692 E8.1515
G0 F6000 X71.903 Y93.286
G1 F1200 X64.213 Y85.596 E8.5313
G0 F6000 X63.619 Y85.596
G1 F1200 X71.903 Y93.88 E8.94044
G0 F6000 X71.831 Y94.402
G1 F1200 X63.097 Y85.668 E9.3718
G0 F6000 X63.097 Y86.262
G1 F1200 X71.237 Y94.402 E9.77382
G0 F6000 X70.643 Y94.402
G1 F1200 X63.097 Y86.856 E10.14651
G0 F6000 X63.097 Y87.45
G1 F1200 X70.049 Y94.402 E10.48986
G0 F6000 X69.455 Y94.402
G1 F1200 X63.097 Y88.043 E10.8039
G0 F6000 X63.097 Y88.637
G1 F1200 X68.861 Y94.402 E11.0886
G0 F6000 X68.267 Y94.402
G1 F1200 X63.097 Y89.231 E11.34397
G0 F6000 X63.097 Y89.825
G1 F1200 X67.673 Y94.402 E11.57
G0 F6000 X67.079 Y94.402
G1 F1200 X63.097 Y90.419 E11.76669
G0 F6000 X63.097 Y91.013
G1 F1200 X66.485 Y94.402 E11.93404
G0 F6000 X65.891 Y94.402
G1 F1200 X63.097 Y91.607 E12.07206
G0 F6000 X63.097 Y92.201
G1 F1200 X65.297 Y94.402 E12.18074
G0 F6000 X64.703 Y94.402
G1 F1200 X63.097 Y92.795 E12.26008
G0 F6000 X63.097 Y93.389
G1 F1200 X64.109 Y94.402 E12.31009
G0 F6000 X63.515 Y94.402
G1 F1200 X63.097 Y93.983 E12.33076
G1 F2400 E8.33076
G0 F6000 X60.794 Y93.983
G0 X60.806 Y96.694
G0 X87.491 Y96.706
G0 X87.491 Y94.991
;TYPE:WALL-INNER
G1 F2400 E12.33076
G1 F1200 X87.491 Y85.009 E12.68633
G1 X77.509 Y85.009 E13.04191
G1 X77.509 Y94.991 E13.39748
G1 X87.491 Y94.991 E13.75305
G0 F6000 X87.911 Y95.411
G1 F1200 X87.911 Y84.589 E14.13855
G1 X77.089 Y84.589 E14.52405
G1 X77.089 Y95.411 E14.90955
G1 X87.911 Y95.411 E15.29504
G0 F6000 X88.331 Y95.831
;TYPE:WALL-OUTER
G1 F1200 X88.331 Y84.169 E15.70232
G1 X76.669 Y84.169 E16.10959
G1 X76.669 Y95.831 E16.51686
G1 X88.331 Y95.831 E16.92414
G1 F2400 E12.92414
G0 F6000 X87.113 Y94.613
;TYPE:SKIN
G1 F2400 E16.92414
G1 F1200 X77.887 Y94.613 E17.24634
G1 X77.887 Y85.387 E17.56854
G1 X87.113 Y85.387 E17.89074
G1 X87.113 Y94.613 E18.21294
G1 F2400 E14.21294
G0 F6000 X89.206 Y94.613
G0 X89.206 Y85.714
G0 X86.902 Y85.714
G1 F2400 E18.21294
G1 F1200 X86.784 Y85.596 E18.21877
G0 F6000 X86.19 Y85.596
G1 F1200 X86.902 Y86.308 E18.25393
G0 F6000 X86.902 Y86.902
G1 F1200 X85.596 Y85.596 E18.31844
G0 F6000 X85.002 Y85.596
G1 F1200 X86.902 Y87.496 E18.41227
G0 F6000 X86.902 Y88.09
G1 F1200 X84.408 Y85.596 E18.53545
G0 F6000 X83.814 Y85.596
G1 F1200 X86.902 Y88.684 E18.68796
G0 F6000 X86.902 Y89.278
G1 F1200 X83.22 Y85.596 E18.86981
G0 F6000 X82.626 Y85.596
G1 F1200 X86.902 Y89.872 E19.081
G0 F6000 X86.902 Y90.466
G1 F1200 X82.032 Y85.596 E19.32152
G0 F6000 X81.438 Y85.596
G1 F1200 X86.902 Y91.06 E19.59138
G0 F6000 X86.902 Y91.654
G1 F1200 X80.844 Y85.596 E19.89058
G0 F6000 X80.25 Y85.596
G1 F1200 X86.902 Y92.248 E20.21911
G0 F6000 X86.902 Y92.842
G1 F1200 X79.656 Y85.596 E20.57698
G0 F6000 X79.063 Y85.596
G1 F1200 X86.902 Y93.436 E20.96417
G0 F6000 X86.902 Y94.03
G1 F1200 X78.469 Y85.596 E21.38069
G0 F6000 X78.096 Y85.818
G1 F1200 X86.68 Y94.402 E21.80464
G0 F6000 X86.086 Y94.402
G1 F1200 X78.096 Y86.411 E22.19928
G0 F6000 X78.096 Y87.005
G1 F1200 X85.492 Y94.402 E22.56459
G0 F6000 X84.898 Y94.402
G1 F1200 X78.096 Y87.599 E22.90055
G0 F6000 X78.096 Y88.193
G1 F1200 X84.304 Y94.402 E23.20718
G0 F6000 X83.71 Y94.402
G1 F1200 X78.096 Y88.787 E23.48448
G0 F6000 X78.096 Y89.381
G1 F1200 X83.116 Y94.402 E23.73243
G0 F6000 X82.522 Y94.402
G1 F1200 X78.096 Y89.975 E23.95105
G0 F6000 X78.096 Y90.569
G1 F1200 X81.928 Y94.402 E24.14034
G0 F6000 X81.334 Y94.402
G1 F1200 X78.096 Y91.163 E24.30028
G0 F6000 X78.096 Y91.757
G1 F1200 X80.74 Y94.402 E24.43089
G0 F6000 X80.147 Y94.402
G1 F1200 X78.096 Y92.351 E24.53219
G0 F6000 X78.096 Y92.945
G1 F1200 X79.553 Y94.402 E24.60415
G0 F6000 X78.959 Y94.402
G1 F1200 X78.096 Y93.539 E24.64677
G0 F6000 X78.096 Y94.133
G1 F1200 X78.365 Y94.402 E24.66005
G1 F2400 E20.66005
G0 F6000 X78.365 Y96.706
G0 X89.194 Y96.694
G0 X90.794 Y94.991
G0 X92.509 Y94.991
;TYPE:WALL-INNER
G1 F2400 E24.66005
G1 F1200 X102.491 Y94.991 E25.01563
G1 X102.491 Y85.009 E25.3712
G1 X92.509 Y85.009 E25.72678
G1 X92.509 Y94.991 E26.08235
G0 F6000 X92.089 Y95.411
G1 F1200 X102.911 Y95.411 E26.46785
G1 X102.911 Y84.589 E26.85335
G1 X92.089 Y84.589 E27.23884
G1 X92.089 Y95.411 E27.62434
G0 F6000 X91.669 Y95.831
;TYPE:WALL-OUTER
G1 F1200 X103.331 Y95.831 E28.03162
G1 X103.331 Y84.169 E28.43889
G1 X91.669 Y84.169 E28.84616
G1 X91.669 Y95.831 E29.25344
G1 F2400 E25.25344
G0 F6000 X92.887 Y94.613
;TYPE:SKIN
G1 F2400 E29.25344
G1 F1200 X92.887 Y85.387 E29.57564
G1 X102.113 Y85.387 E29.89784
G1 X102.113 Y94.613 E30.22004
G1 X92.887 Y94.613 E30.54224
G0 F6000 X93.214 Y94.402
G1 F1200 X93.096 Y94.284 E30.54807
G0 F6000 X93.096 Y93.69
G1 F1200 X93.808 Y94.402 E30.58323
G0 F6000 X94.402 Y94.402
G1 F1200 X93.096 Y93.096 E30.64773
G0 F6000 X93.096 Y92.502
G1 F1200 X94.996 Y94.402 E30.74157
G0 F6000 X95.59 Y94.402
G1 F1200 X93.096 Y91.908 E30.86475
G0 F6000 X93.096 Y91.314
G1 F1200 X96.184 Y94.402 E31.01726
G0 F6000 X96.778 Y94.402
G1 F1200 X93.096 Y90.72 E31.19911
G0 F6000 X93.096 Y90.126
G1 F1200 X97.372 Y94.402 E31.4103
G0 F6000 X97.966 Y94.402
G1 F1200 X93.096 Y89.532 E31.65082
G0 F6000 X93.096 Y88.938
G1 F1200 X98.56 Y94.402 E31.92068
G0 F6000 X99.154 Y94.402
G1 F1200 X93.096 Y88.344 E32.21988
G0 F6000 X93.096 Y87.75
G1 F1200 X99.748 Y94.402 E32.54841
G0 F6000 X100.341 Y94.402
G1 F1200 X93.096 Y87.156 E32.90626
G0 F6000 X93.096 Y86.562
G1 F1200 X100.935 Y94.402 E33.29344
G0 F6000 X101.529 Y94.402
G1 F1200 X93.096 Y85.968 E33.70996
G0 F6000 X93.318 Y85.596
G1 F1200 X101.902 Y94.18 E34.13392
G0 F6000 X101.902 Y93.586
G1 F1200 X93.912 Y85.596 E34.52853
G0 F6000 X94.506 Y85.596
G1 F1200 X101.902 Y92.993 E34.89384
G0 F6000 X101.902 Y92.399
G1 F1200 X95.1 Y85.596 E35.2298
G0 F6000 X95.694 Y85.596
G1 F1200 X101.902 Y91.805 E35.53643
G0 F6000 X101.902 Y91.211
G1 F1200 X96.288 Y85.596 E35.81373
G0 F6000 X96.882 Y85.596
G1 F1200 X101.902 Y90.617 E36.06168
G0 F6000 X101.902 Y90.023
G1 F1200 X97.476 Y85.596 E36.2803
G0 F6000 X98.07 Y85.596
G1 F1200 X101.902 Y89.429 E36.46958
G0 F6000 X101.902 Y88.835
G1 F1200 X98.664 Y85.596 E36.62953
G0 F6000 X99.257 Y85.596
G1 F1200 X101.902 Y88.241 E36.76016
G0 F6000 X101.902 Y87.647
G1 F1200 X99.851 Y85.596 E36.86146
G0 F6000 X100.445 Y85.596
G1 F1200 X101.902 Y87.053 E36.93342
G0 F6000 X101.902 Y86.459
G1 F1200 X101.039 Y85.596 E36.97604
G0 F6000 X101.633 Y85.596
G1 F1200 X101.902 Y85.865 E36.98933
G1 F2400 E32.98933
G0 F6000 X104.206 Y85.865
G0 X105.794 Y94.991
G0 X107.509 Y94.991
;TYPE:WALL-INNER
G1 F2400 E36.98933
G1 F1200 X117.491 Y94.991 E37.3449
G1 X117.491 Y85.009 E37.70048
G1 X107.509 Y85.009 E38.05605
G1 X107.509 Y94.991 E38.41163
G0 F6000 X107.089 Y95.411
G1 F1200 X117.911 Y95.411 E38.79712
G1 X117.911 Y84.589 E39.18262
G1 X107.089 Y84.589 E39.56812
G1 X107.089 Y95.411 E39.95362
G0 F6000 X106.669 Y95.831
;TYPE:WALL-OUTER
G1 F1200 X118.331 Y95.831 E40.36089
G1 X118.331 Y84.169 E40.76816
G1 X106.669 Y84.169 E41.17544
G1 X106.669 Y95.831 E41.58271
G1 F2400 E37.58271
G0 F6000 X107.887 Y94.613
;TYPE:SKIN
G1 F2400 E41.58271
G1 F1200 X107.887 Y85.387 E41.90491
G1 X117.113 Y85.387 E42.22711
G1 X117.113 Y94.613 E42.54931
G1 X107.887 Y94.613 E42.87151
G0 F6000 X108.658 Y94.402
G1 F1200 X108.096 Y93.84 E42.89927
G0 F6000 X108.096 Y93.246
G1 F1200 X109.252 Y94.402 E42.95636
G0 F6000 X109.846 Y94.402
G1 F1200 X108.096 Y92.652 E43.04279
G0 F6000 X108.096 Y92.058
G1 F1200 X110.44 Y94.402 E43.15856
G0 F6000 X111.034 Y94.402
G1 F1200 X108.096 Y91.464 E43.30367
G0 F6000 X108.096 Y90.87
G1 F1200 X111.628 Y94.402 E43.47811
G0 F6000 X112.222 Y94.402
G1 F1200 X108.096 Y90.277 E43.68186
G0 F6000 X108.096 Y89.683
G1 F1200 X112.816 Y94.402 E43.91495
G0 F6000 X113.41 Y94.402
G1 F1200 X108.096 Y89.089 E44.17738
G0 F6000 X108.096 Y88.495
G1 F1200 X114.003 Y94.402 E44.46912
G0 F6000 X114.597 Y94.402
G1 F1200 X108.096 Y87.901 E44.79019
G0 F6000 X108.096 Y87.307
G1 F1200 X115.191 Y94.402 E45.14061
G0 F6000 X115.785 Y94.402
G1 F1200 X108.096 Y86.713 E45.52036
G0 F6000 X108.096 Y86.119
G1 F1200 X116.379 Y94.402 E45.92944
G0 F6000 X116.902 Y94.331
G1 F1200 X108.168 Y85.597 E46.36081
G0 F6000 X108.762 Y85.597
G1 F1200 X116.902 Y93.737 E46.76283
G0 F6000 X116.902 Y93.143
G1 F1200 X109.356 Y85.597 E47.13552
G0 F6000 X109.95 Y85.597
G1 F1200 X116.902 Y92.549 E47.47887
G0 F6000 X116.902 Y91.955
G1 F1200 X110.544 Y85.597 E47.79288
G0 F6000 X111.138 Y85.597
G1 F1200 X116.902 Y91.361 E48.07756
G0 F6000 X116.902 Y90.767
G1 F1200 X111.732 Y85.597 E48.3329
G0 F6000 X112.326 Y85.597
G1 F1200 X116.902 Y90.173 E48.5589
G0 F6000 X116.902 Y89.579
G1 F1200 X112.92 Y85.597 E48.75557
G0 F6000 X113.513 Y85.597
G1 F1200 X116.902 Y88.985 E48.92292
G0 F6000 X116.902 Y88.391
G1 F1200 X114.107 Y85.597 E49.06094
G0 F6000 X114.701 Y85.597
G1 F1200 X116.902 Y87.797 E49.16962
G0 F6000 X116.902 Y87.203
G1 F1200 X115.295 Y85.597 E49.24896
G0 F6000 X115.889 Y85.597
G1 F1200 X116.902 Y86.609 E49.29897
G0 F6000 X116.902 Y86.016
G1 F1200 X116.483 Y85.597 E49.31966
G1 F2400 E45.31966
;MESH:NONMESH
G0 F240 X116.483 Y85.597 Z0.4
G0 F6000 X116.483 Y83.294
G0 X90.806 Y83.306
G0 X89.194 Y96.694
G0 X75.806 Y96.694
G0 X74.206 Y95.114
G0 X72.614 Y95.114
;TIME_ELAPSED:91.942287
;LAYER:1
M106 S85
;TYPE:WALL-INNER
;MESH:Small_Tetromino_I.3mf
G1 F2400 E49.31966
G1 F1500 X72.614 Y84.886 E49.684
G1 X62.386 Y84.886 E50.04834
G1 X62.386 Y95.114 E50.41268
G1 X72.614 Y95.114 E50.77701
G0 F7500 X73.034 Y95.534
G1 F1500 X73.034 Y84.466 E51.17127
G1 X61.966 Y84.466 E51.56553
G1 X61.966 Y95.534 E51.95979
G1 X73.034 Y95.534 E52.35405
G0 F7500 X73.454 Y95.954
;TYPE:WALL-OUTER
G1 F1500 X73.454 Y84.046 E52.76992
G1 X61.546 Y84.046 E53.18578
G1 X61.546 Y95.954 E53.60165
G1 X73.454 Y95.954 E54.01751
G1 F2400 E50.01751
G0 F7500 X72.236 Y94.736
;TYPE:SKIN
G1 F2400 E54.01751
G1 F1350 X62.764 Y94.736 E54.34831
G1 X62.764 Y85.264 E54.6791
G1 X72.236 Y85.264 E55.00989
G1 X72.236 Y94.736 E55.34068
G0 F7500 X71.786 Y94.525
G1 F1350 X72.025 Y94.285 E55.35251
G0 F7500 X72.025 Y93.691
G1 F1350 X71.192 Y94.525 E55.39368
G0 F7500 X70.598 Y94.525
G1 F1350 X72.025 Y93.097 E55.46418
G0 F7500 X72.025 Y92.503
G1 F1350 X70.004 Y94.525 E55.56402
G0 F7500 X69.41 Y94.525
G1 F1350 X72.025 Y91.909 E55.69319
G0 F7500 X72.025 Y91.315
G1 F1350 X68.816 Y94.525 E55.85171
G0 F7500 X68.222 Y94.525
G1 F1350 X72.025 Y90.721 E56.03956
G0 F7500 X72.025 Y90.127
G1 F1350 X67.628 Y94.525 E56.25674
G0 F7500 X67.034 Y94.525
G1 F1350 X72.025 Y89.533 E56.50327
G0 F7500 X72.025 Y88.939
G1 F1350 X66.44 Y94.525 E56.77913
G0 F7500 X65.846 Y94.525
G1 F1350 X72.025 Y88.345 E57.08433
G0 F7500 X72.025 Y87.751
G1 F1350 X65.252 Y94.525 E57.41886
G0 F7500 X64.658 Y94.525
G1 F1350 X72.025 Y87.157 E57.78273
G0 F7500 X72.025 Y86.564
G1 F1350 X64.064 Y94.525 E58.17592
G0 F7500 X63.47 Y94.525
G1 F1350 X72.025 Y85.97 E58.59844
G0 F7500 X71.929 Y85.472
G1 F1350 X62.974 Y94.427 E59.04072
G0 F7500 X62.974 Y93.833
G1 F1350 X71.335 Y85.472 E59.45366
G0 F7500 X70.741 Y85.472
G1 F1350 X62.974 Y93.239 E59.83726
G0 F7500 X62.974 Y92.645
G1 F1350 X70.147 Y85.472 E60.19152
G0 F7500 X69.553 Y85.472
G1 F1350 X62.974 Y92.051 E60.51645
G0 F7500 X62.974 Y91.457
G1 F1350 X68.959 Y85.472 E60.81204
G0 F7500 X68.365 Y85.472
G1 F1350 X62.974 Y90.863 E61.0783
G0 F7500 X62.974 Y90.269
G1 F1350 X67.771 Y85.472 E61.31522
G0 F7500 X67.177 Y85.472
G1 F1350 X62.974 Y89.675 E61.5228
G0 F7500 X62.974 Y89.082
G1 F1350 X66.583 Y85.472 E61.70107
G0 F7500 X65.989 Y85.472
G1 F1350 X62.974 Y88.488 E61.85
G0 F7500 X62.974 Y87.894
G1 F1350 X65.395 Y85.472 E61.96959
G0 F7500 X64.801 Y85.472
G1 F1350 X62.974 Y87.3 E62.05985
G0 F7500 X62.974 Y86.706
G1 F1350 X64.207 Y85.472 E62.12077
G0 F7500 X63.613 Y85.472
G1 F1350 X62.974 Y86.112 E62.15236
G1 F2400 E58.15236
G0 F7500 X60.671 Y86.112
G0 X60.683 Y83.183
G0 X74.317 Y83.183
G0 X75.683 Y96.817
G0 X87.614 Y96.829
G0 X87.614 Y95.114
;TYPE:WALL-INNER
G1 F2400 E62.15236
G1 F1500 X87.614 Y84.886 E62.5167
G1 X77.386 Y84.886 E62.88103
G1 X77.386 Y95.114 E63.24537
G1 X87.614 Y95.114 E63.60971
G0 F7500 X88.034 Y95.534
G1 F1500 X88.034 Y84.466 E64.00397
G1 X76.966 Y84.466 E64.39823
G1 X76.966 Y95.534 E64.79249
G1 X88.034 Y95.534 E65.18675
G0 F7500 X88.454 Y95.954
;TYPE:WALL-OUTER
G1 F1500 X88.454 Y84.046 E65.60261
G1 X76.546 Y84.046 E66.01848
G1 X76.546 Y95.954 E66.43434
G1 X88.454 Y95.954 E66.85021
G1 F2400 E62.85021
G0 F7500 X87.236 Y94.736
;TYPE:SKIN
G1 F2400 E66.85021
G1 F1350 X77.764 Y94.736 E67.181
G1 X77.764 Y85.264 E67.51179
G1 X87.236 Y85.264 E67.84258
G1 X87.236 Y94.736 E68.17338
G0 F7500 X86.635 Y94.525
G1 F1350 X87.025 Y94.135 E68.19264
G0 F7500 X87.025 Y93.541
G1 F1350 X86.041 Y94.525 E68.24124
G0 F7500 X85.447 Y94.525
G1 F1350 X87.025 Y92.947 E68.31917
G0 F7500 X87.025 Y92.353
G1 F1350 X84.853 Y94.525 E68.42644
G0 F7500 X84.259 Y94.525
G1 F1350 X87.025 Y91.759 E68.56305
G0 F7500 X87.025 Y91.165
G1 F1350 X83.665 Y94.525 E68.729
G0 F7500 X83.071 Y94.525
G1 F1350 X87.025 Y90.571 E68.92428
G0 F7500 X87.025 Y89.977
G1 F1350 X82.477 Y94.525 E69.1489
G0 F7500 X81.883 Y94.525
G1 F1350 X87.025 Y89.383 E69.40286
G0 F7500 X87.025 Y88.789
G1 F1350 X81.289 Y94.525 E69.68615
G0 F7500 X80.695 Y94.525
G1 F1350 X87.025 Y88.196 E69.99876
G0 F7500 X87.025 Y87.602
G1 F1350 X80.101 Y94.525 E70.3407
G0 F7500 X79.507 Y94.525
G1 F1350 X87.025 Y87.008 E70.71198
G0 F7500 X87.025 Y86.414
G1 F1350 X78.913 Y94.525 E71.1126
G0 F7500 X78.319 Y94.525
G1 F1350 X87.025 Y85.82 E71.54255
G0 F7500 X86.777 Y85.473
G1 F1350 X77.974 Y94.277 E71.97735
G0 F7500 X77.974 Y93.683
G1 F1350 X86.183 Y85.473 E72.38281
G0 F7500 X85.589 Y85.473
G1 F1350 X77.974 Y93.089 E72.75893
G0 F7500 X77.974 Y92.495
G1 F1350 X84.995 Y85.473 E73.10571
G0 F7500 X84.401 Y85.473
G1 F1350 X77.974 Y91.901 E73.42316
G0 F7500 X77.974 Y91.307
G1 F1350 X83.807 Y85.473 E73.71127
G0 F7500 X83.213 Y85.473
G1 F1350 X77.974 Y90.713 E73.97004
G0 F7500 X77.974 Y90.119
G1 F1350 X82.619 Y85.473 E74.19947
G0 F7500 X82.025 Y85.473
G1 F1350 X77.974 Y89.525 E74.39957
G0 F7500 X77.974 Y88.931
