;FLAVOR:Marlin
;TIME:2042
;Filament used: 1.56713m
;Layer height: 0.2
;MINX:67.197
;MINY:74.685
;MINZ:0.2
;MAXX:112.815
;MAXY:105.315
;MAXZ:13
;TARGET_MACHINE.NAME:Kingroon KP3S
;Generated with Cura_SteamEngine 5.6.0
M140 S60
M104 S220
M190 S60
M109 S220
M82 ;absolute extrusion mode
G28 ; home all axes
 M117 Purge extruder
 G92 E0 ; reset extruder
 G1 Z1.0 F3000 ; move z up little to prevent scratching of surface
 G1 X10 Y20 Z0.3 F5000.0 ; move to start-line position
 G1 X10 Y175.0 Z0.3 F1500.0 E15 ; draw 1st line
 G1 X10 Y175.0 Z0.4 F5000.0 ; move to side a little
 G1 X10 Y20 Z0.4 F1500.0 E30 ; draw 2nd line
 G92 E0 ; reset extruder
 G1 Z1.0 F3000 ; move z up little to prevent scratching of surface
G92 E0
G92 E0
G1 F2400 E-4
;LAYER_COUNT:65
;LAYER:0
M107
;MESH:Small_Tetromino_Z.3mf
G0 F6000 X79.991 Y87.491 Z0.2
;TYPE:WALL-INNER
G1 F2400 E0
G1 F1200 X79.991 Y77.509 E0.35557
G1 X70.009 Y77.509 E0.71115
G1 X70.009 Y87.491 E1.06672
G1 X79.991 Y87.491 E1.4223
G0 F6000 X80.411 Y87.911
G1 F1200 X80.411 Y77.089 E1.8078
G1 X69.589 Y77.089 E2.19329
G1 X69.589 Y87.911 E2.57879
G1 X80.411 Y87.911 E2.96429
G0 F6000 X80.831 Y88.331
;TYPE:WALL-OUTER
G1 F1200 X80.831 Y76.669 E3.37156
G1 X69.169 Y76.669 E3.77883
G1 X69.169 Y88.331 E4.18611
G1 X80.831 Y88.331 E4.59338
G1 F2400 E0.59338
G0 F6000 X79.613 Y87.113
;TYPE:SKIN
G1 F2400 E4.59338
G1 F1200 X70.387 Y87.113 E4.91558
G1 X70.387 Y77.887 E5.23778
G1 X79.613 Y77.887 E5.55998
G1 X79.613 Y87.113 E5.88219
G1 F2400 E1.88219
G0 F6000 X81.706 Y87.113
G0 X81.706 Y78.097
G0 X79.285 Y78.097
G1 F2400 E5.88219
G1 F1200 X79.403 Y78.215 E5.88801
G0 F6000 X79.403 Y78.809
G1 F1200 X78.691 Y78.097 E5.92318
G0 F6000 X78.097 Y78.097
G1 F1200 X79.403 Y79.403 E5.98768
G0 F6000 X79.403 Y79.997
G1 F1200 X77.503 Y78.097 E6.08152
G0 F6000 X76.909 Y78.097
G1 F1200 X79.403 Y80.591 E6.20469
G0 F6000 X79.403 Y81.185
G1 F1200 X76.315 Y78.097 E6.35721
G0 F6000 X75.721 Y78.097
G1 F1200 X79.403 Y81.779 E6.53906
G0 F6000 X79.403 Y82.372
G1 F1200 X75.127 Y78.097 E6.75022
G0 F6000 X74.533 Y78.097
G1 F1200 X79.403 Y82.966 E6.99072
G0 F6000 X79.403 Y83.56
G1 F1200 X73.939 Y78.097 E7.26055
G0 F6000 X73.345 Y78.097
G1 F1200 X79.403 Y84.154 E7.55973
G0 F6000 X79.403 Y84.748
G1 F1200 X72.751 Y78.097 E7.88823
G0 F6000 X72.157 Y78.097
G1 F1200 X79.403 Y85.342 E8.24608
G0 F6000 X79.403 Y85.936
G1 F1200 X71.563 Y78.097 E8.63326
G0 F6000 X70.969 Y78.097
G1 F1200 X79.403 Y86.53 E9.04978
G0 F6000 X79.181 Y86.902
G1 F1200 X70.596 Y78.318 E9.47376
G0 F6000 X70.596 Y78.912
G1 F1200 X78.587 Y86.902 E9.8684
G0 F6000 X77.993 Y86.902
G1 F1200 X70.596 Y79.506 E10.23371
G0 F6000 X70.596 Y80.1
G1 F1200 X77.399 Y86.902 E10.56967
G0 F6000 X76.805 Y86.902
G1 F1200 X70.596 Y80.694 E10.87631
G0 F6000 X70.596 Y81.288
G1 F1200 X76.211 Y86.902 E11.1536
G0 F6000 X75.617 Y86.902
G1 F1200 X70.596 Y81.882 E11.40155
G0 F6000 X70.596 Y82.476
G1 F1200 X75.023 Y86.902 E11.62017
G0 F6000 X74.429 Y86.902
G1 F1200 X70.596 Y83.07 E11.80946
G0 F6000 X70.596 Y83.664
G1 F1200 X73.835 Y86.902 E11.9694
G0 F6000 X73.241 Y86.902
G1 F1200 X70.596 Y84.258 E12.10001
G0 F6000 X70.596 Y84.852
G1 F1200 X72.647 Y86.902 E12.20128
G0 F6000 X72.053 Y86.902
G1 F1200 X70.596 Y85.446 E12.27322
G0 F6000 X70.596 Y86.04
G1 F1200 X71.459 Y86.902 E12.31582
G0 F6000 X70.865 Y86.902
G1 F1200 X70.596 Y86.634 E12.32908
G1 F2400 E8.32908
G0 F6000 X70.596 Y89.206
G0 X94.991 Y89.206
G0 X94.991 Y87.491
;TYPE:WALL-INNER
G1 F2400 E12.32908
G1 F1200 X94.991 Y77.509 E12.68465
G1 X85.009 Y77.509 E13.04023
G1 X85.009 Y87.491 E13.3958
G1 X94.991 Y87.491 E13.75138
G0 F6000 X95.411 Y87.911
G1 F1200 X95.411 Y77.089 E14.13687
G1 X84.589 Y77.089 E14.52237
G1 X84.589 Y87.911 E14.90787
G1 X95.411 Y87.911 E15.29336
G0 F6000 X95.831 Y88.331
;TYPE:WALL-OUTER
G1 F1200 X95.831 Y76.669 E15.70064
G1 X84.169 Y76.669 E16.10791
G1 X84.169 Y88.331 E16.51518
G1 X95.831 Y88.331 E16.92246
G1 F2400 E12.92246
G0 F6000 X94.613 Y87.113
;TYPE:SKIN
G1 F2400 E16.92246
G1 F1200 X85.387 Y87.113 E17.24466
G1 X85.387 Y77.887 E17.56686
G1 X94.613 Y77.887 E17.88906
G1 X94.613 Y87.113 E18.21126
G1 F2400 E14.21126
G0 F6000 X96.706 Y87.113
G0 X96.706 Y78.365
G0 X94.402 Y78.365
G1 F2400 E18.21126
G1 F1200 X94.134 Y78.097 E18.2245
G0 F6000 X93.54 Y78.097
G1 F1200 X94.402 Y78.959 E18.26707
G0 F6000 X94.402 Y79.553
G1 F1200 X92.946 Y78.097 E18.33898
G0 F6000 X92.352 Y78.097
G1 F1200 X94.402 Y80.147 E18.44023
G0 F6000 X94.402 Y80.74
G1 F1200 X91.758 Y78.097 E18.57079
G0 F6000 X91.164 Y78.097
G1 F1200 X94.402 Y81.334 E18.73068
G0 F6000 X94.402 Y81.928
G1 F1200 X90.57 Y78.097 E18.91992
G0 F6000 X89.976 Y78.097
G1 F1200 X94.402 Y82.522 E19.13849
G0 F6000 X94.402 Y83.116
G1 F1200 X89.382 Y78.097 E19.38639
G0 F6000 X88.788 Y78.097
G1 F1200 X94.402 Y83.71 E19.66364
G0 F6000 X94.402 Y84.304
G1 F1200 X88.194 Y78.097 E19.97022
G0 F6000 X87.6 Y78.097
G1 F1200 X94.402 Y84.898 E20.30614
G0 F6000 X94.402 Y85.492
G1 F1200 X87.006 Y78.097 E20.67139
G0 F6000 X86.412 Y78.097
G1 F1200 X94.402 Y86.086 E21.06598
G0 F6000 X94.402 Y86.68
G1 F1200 X85.818 Y78.097 E21.48991
G0 F6000 X85.596 Y78.469
G1 F1200 X94.029 Y86.902 E21.90641
G0 F6000 X93.435 Y86.902
G1 F1200 X85.596 Y79.063 E22.29357
G0 F6000 X85.596 Y79.656
G1 F1200 X92.841 Y86.902 E22.65141
G0 F6000 X92.247 Y86.902
G1 F1200 X85.596 Y80.25 E22.97992
G0 F6000 X85.596 Y80.844
G1 F1200 X91.653 Y86.902 E23.27909
G0 F6000 X91.059 Y86.902
G1 F1200 X85.596 Y81.438 E23.54893
G0 F6000 X85.596 Y82.032
G1 F1200 X90.465 Y86.902 E23.78943
G0 F6000 X89.871 Y86.902
G1 F1200 X85.596 Y82.626 E24.00059
G0 F6000 X85.596 Y83.22
G1 F1200 X89.277 Y86.902 E24.18242
G0 F6000 X88.683 Y86.902
G1 F1200 X85.596 Y83.814 E24.3349
G0 F6000 X85.596 Y84.408
G1 F1200 X88.089 Y86.902 E24.45805
G0 F6000 X87.495 Y86.902
G1 F1200 X85.596 Y85.002 E24.55187
G0 F6000 X85.596 Y85.596
G1 F1200 X86.902 Y86.902 E24.61637
G0 F6000 X86.308 Y86.902
G1 F1200 X85.596 Y86.19 E24.65153
G0 F6000 X85.596 Y86.784
G1 F1200 X85.714 Y86.902 E24.65736
G1 F2400 E20.65736
G0 F6000 X85.714 Y89.206
G0 X96.694 Y90.806
G0 X96.706 Y102.491
G0 X94.991 Y102.491
;TYPE:WALL-INNER
G1 F2400 E24.65736
G1 F1200 X94.991 Y92.509 E25.01294
G1 X85.009 Y92.509 E25.36851
G1 X85.009 Y102.491 E25.72409
G1 X94.991 Y102.491 E26.07966
G0 F6000 X95.411 Y102.911
G1 F1200 X95.411 Y92.089 E26.46516
G1 X84.589 Y92.089 E26.85066
G1 X84.589 Y102.911 E27.23615
G1 X95.411 Y102.911 E27.62165
G0 F6000 X95.831 Y103.331
;TYPE:WALL-OUTER
G1 F1200 X95.831 Y91.669 E28.02892
G1 X84.169 Y91.669 E28.4362
G1 X84.169 Y103.331 E28.84347
G1 X95.831 Y103.331 E29.25074
G1 F2400 E25.25074
G0 F6000 X94.613 Y102.113
;TYPE:SKIN
G1 F2400 E29.25074
G1 F1200 X85.387 Y102.113 E29.57295
G1 X85.387 Y92.887 E29.89515
G1 X94.613 Y92.887 E30.21735
G1 X94.613 Y102.113 E30.53955
G1 F2400 E26.53955
G0 F6000 X96.706 Y102.113
G0 X96.706 Y93.096
G0 X94.284 Y93.096
G1 F2400 E30.53955
G1 F1200 X94.402 Y93.215 E30.5454
G0 F6000 X94.402 Y93.809
G1 F1200 X93.69 Y93.096 E30.58059
G0 F6000 X93.096 Y93.096
G1 F1200 X94.402 Y94.402 E30.64509
G0 F6000 X94.402 Y94.996
G1 F1200 X92.503 Y93.096 E30.73891
G0 F6000 X91.909 Y93.096
G1 F1200 X94.402 Y95.59 E30.86206
G0 F6000 X94.402 Y96.184
G1 F1200 X91.315 Y93.096 E31.01454
G0 F6000 X90.721 Y93.096
G1 F1200 X94.402 Y96.778 E31.19637
G0 F6000 X94.402 Y97.372
G1 F1200 X90.127 Y93.096 E31.40753
G0 F6000 X89.533 Y93.096
G1 F1200 X94.402 Y97.966 E31.64803
G0 F6000 X94.402 Y98.56
G1 F1200 X88.939 Y93.096 E31.91787
G0 F6000 X88.345 Y93.096
G1 F1200 X94.402 Y99.154 E32.21704
G0 F6000 X94.402 Y99.748
G1 F1200 X87.751 Y93.096 E32.54555
G0 F6000 X87.157 Y93.096
G1 F1200 X94.402 Y100.342 E32.90339
G0 F6000 X94.402 Y100.936
G1 F1200 X86.563 Y93.096 E33.29058
G0 F6000 X85.969 Y93.096
G1 F1200 X94.402 Y101.53 E33.7071
G0 F6000 X94.18 Y101.902
G1 F1200 X85.596 Y93.318 E34.13105
G0 F6000 X85.596 Y93.912
G1 F1200 X93.586 Y101.902 E34.52567
G0 F6000 X92.993 Y101.902
G1 F1200 X85.596 Y94.506 E34.89097
G0 F6000 X85.596 Y95.1
G1 F1200 X92.399 Y101.902 E35.22694
G0 F6000 X91.805 Y101.902
G1 F1200 X85.596 Y95.694 E35.53357
G0 F6000 X85.596 Y96.288
G1 F1200 X91.211 Y101.902 E35.81086
G0 F6000 X90.617 Y101.902
G1 F1200 X85.596 Y96.882 E36.05882
G0 F6000 X85.596 Y97.476
G1 F1200 X90.023 Y101.902 E36.27744
G0 F6000 X89.429 Y101.902
G1 F1200 X85.596 Y98.07 E36.46672
G0 F6000 X85.596 Y98.664
G1 F1200 X88.835 Y101.902 E36.62667
G0 F6000 X88.241 Y101.902
G1 F1200 X85.596 Y99.257 E36.7573
G0 F6000 X85.596 Y99.851
G1 F1200 X87.647 Y101.902 E36.8586
G0 F6000 X87.053 Y101.902
G1 F1200 X85.596 Y100.445 E36.93056
G0 F6000 X85.596 Y101.039
G1 F1200 X86.459 Y101.902 E36.97318
G0 F6000 X85.865 Y101.902
G1 F1200 X85.596 Y101.633 E36.98646
G1 F2400 E32.98646
G0 F6000 X85.596 Y104.206
G0 X96.694 Y104.194
G0 X98.294 Y102.491
G0 X100.009 Y102.491
;TYPE:WALL-INNER
G1 F2400 E36.98646
G1 F1200 X109.991 Y102.491 E37.34204
G1 X109.991 Y92.509 E37.69761
G1 X100.009 Y92.509 E38.05319
G1 X100.009 Y102.491 E38.40876
G0 F6000 X99.589 Y102.911
G1 F1200 X110.411 Y102.911 E38.79426
G1 X110.411 Y92.089 E39.17976
G1 X99.589 Y92.089 E39.56525
G1 X99.589 Y102.911 E39.95075
G0 F6000 X99.169 Y103.331
;TYPE:WALL-OUTER
G1 F1200 X110.831 Y103.331 E40.35802
G1 X110.831 Y91.669 E40.7653
G1 X99.169 Y91.669 E41.17257
G1 X99.169 Y103.331 E41.57985
G1 F2400 E37.57985
G0 F6000 X100.387 Y102.113
;TYPE:SKIN
G1 F2400 E41.57985
G1 F1200 X100.387 Y92.887 E41.90205
G1 X109.613 Y92.887 E42.22425
G1 X109.613 Y102.113 E42.54645
G1 X100.387 Y102.113 E42.86865
G0 F6000 X100.714 Y101.902
G1 F1200 X100.596 Y101.784 E42.87448
G0 F6000 X100.596 Y101.19
G1 F1200 X101.308 Y101.902 E42.90964
G0 F6000 X101.902 Y101.902
G1 F1200 X100.596 Y100.596 E42.97414
G0 F6000 X100.596 Y100.002
G1 F1200 X102.496 Y101.902 E43.06798
G0 F6000 X103.09 Y101.902
G1 F1200 X100.596 Y99.408 E43.19116
G0 F6000 X100.596 Y98.814
G1 F1200 X103.684 Y101.902 E43.34367
G0 F6000 X104.278 Y101.902
G1 F1200 X100.596 Y98.22 E43.52552
G0 F6000 X100.596 Y97.626
G1 F1200 X104.872 Y101.902 E43.73671
G0 F6000 X105.466 Y101.902
G1 F1200 X100.596 Y97.032 E43.97723
G0 F6000 X100.596 Y96.438
G1 F1200 X106.06 Y101.902 E44.24709
G0 F6000 X106.654 Y101.902
G1 F1200 X100.596 Y95.844 E44.54629
G0 F6000 X100.596 Y95.25
G1 F1200 X107.248 Y101.902 E44.87482
G0 F6000 X107.842 Y101.902
G1 F1200 X100.596 Y94.656 E45.23269
G0 F6000 X100.596 Y94.062
G1 F1200 X108.436 Y101.902 E45.6199
G0 F6000 X109.03 Y101.902
G1 F1200 X100.596 Y93.468 E46.03645
G0 F6000 X100.818 Y93.096
G1 F1200 X109.402 Y101.681 E46.46042
G0 F6000 X109.402 Y101.087
G1 F1200 X101.412 Y93.096 E46.85506
G0 F6000 X102.006 Y93.096
G1 F1200 X109.402 Y100.493 E47.22037
G0 F6000 X109.402 Y99.899
G1 F1200 X102.6 Y93.096 E47.55634
G0 F6000 X103.194 Y93.096
G1 F1200 X109.402 Y99.305 E47.86297
G0 F6000 X109.402 Y98.711
G1 F1200 X103.788 Y93.096 E48.14026
G0 F6000 X104.382 Y93.096
G1 F1200 X109.402 Y98.117 E48.38822
G0 F6000 X109.402 Y97.523
G1 F1200 X104.976 Y93.096 E48.60684
G0 F6000 X105.57 Y93.096
G1 F1200 X109.402 Y96.929 E48.79612
G0 F6000 X109.402 Y96.335
G1 F1200 X106.164 Y93.096 E48.95606
G0 F6000 X106.758 Y93.096
G1 F1200 X109.402 Y95.741 E49.08667
G0 F6000 X109.402 Y95.147
G1 F1200 X107.352 Y93.096 E49.18794
G0 F6000 X107.946 Y93.096
G1 F1200 X109.402 Y94.553 E49.25988
G0 F6000 X109.402 Y93.959
G1 F1200 X108.54 Y93.096 E49.30248
G0 F6000 X109.134 Y93.096
G1 F1200 X109.402 Y93.365 E49.31574
G1 F2400 E45.31574
;MESH:NONMESH
G0 F240 X109.402 Y93.365 Z0.4
G0 F6000 X109.402 Y90.794
G0 X83.306 Y89.194
G0 X81.706 Y87.614
G0 X80.114 Y87.614
;TIME_ELAPSED:92.263758
;LAYER:1
M106 S85
;TYPE:WALL-INNER
;MESH:Small_Tetromino_Z.3mf
G1 F2400 E49.31574
G1 F1500 X80.114 Y77.386 E49.68007
G1 X69.886 Y77.386 E50.04441
G1 X69.886 Y87.614 E50.40875
G1 X80.114 Y87.614 E50.77309
G0 F7500 X80.534 Y88.034
G1 F1500 X80.534 Y76.966 E51.16735
G1 X69.466 Y76.966 E51.56161
G1 X69.466 Y88.034 E51.95587
G1 X80.534 Y88.034 E52.35013
G0 F7500 X80.954 Y88.454
;TYPE:WALL-OUTER
G1 F1500 X80.954 Y76.546 E52.76599
G1 X69.046 Y76.546 E53.18186
G1 X69.046 Y88.454 E53.59772
G1 X80.954 Y88.454 E54.01359
G1 F2400 E50.01359
G0 F7500 X79.736 Y87.236
;TYPE:SKIN
G1 F2400 E54.01359
G1 F1350 X70.264 Y87.236 E54.34438
G1 X70.264 Y77.764 E54.67517
G1 X79.736 Y77.764 E55.00596
G1 X79.736 Y87.236 E55.33675
G0 F7500 X79.525 Y86.786
G1 F1350 X79.285 Y87.025 E55.34858
G0 F7500 X78.691 Y87.025
G1 F1350 X79.525 Y86.192 E55.38975
G0 F7500 X79.525 Y85.598
G1 F1350 X78.097 Y87.025 E55.46025
G0 F7500 X77.503 Y87.025
G1 F1350 X79.525 Y85.004 E55.56009
G0 F7500 X79.525 Y84.41
G1 F1350 X76.909 Y87.025 E55.68927
G0 F7500 X76.315 Y87.025
G1 F1350 X79.525 Y83.816 E55.84778
G0 F7500 X79.525 Y83.222
G1 F1350 X75.721 Y87.025 E56.03563
G0 F7500 X75.127 Y87.025
G1 F1350 X79.525 Y82.628 E56.25282
G0 F7500 X79.525 Y82.034
G1 F1350 X74.534 Y87.025 E56.49932
G0 F7500 X73.94 Y87.025
G1 F1350 X79.525 Y81.44 E56.77515
G0 F7500 X79.525 Y80.846
G1 F1350 X73.346 Y87.025 E57.08033
G0 F7500 X72.752 Y87.025
G1 F1350 X79.525 Y80.252 E57.41484
G0 F7500 X79.525 Y79.658
G1 F1350 X72.158 Y87.025 E57.77868
G0 F7500 X71.564 Y87.025
G1 F1350 X79.525 Y79.064 E58.17187
G0 F7500 X79.525 Y78.47
G1 F1350 X70.97 Y87.025 E58.59439
G0 F7500 X70.473 Y86.928
G1 F1350 X79.428 Y77.973 E59.03667
G0 F7500 X78.834 Y77.973
G1 F1350 X70.473 Y86.334 E59.44961
G0 F7500 X70.473 Y85.74
G1 F1350 X78.24 Y77.973 E59.83321
G0 F7500 X77.646 Y77.973
G1 F1350 X70.473 Y85.146 E60.18747
G0 F7500 X70.473 Y84.552
G1 F1350 X77.052 Y77.973 E60.5124
G0 F7500 X76.458 Y77.973
G1 F1350 X70.473 Y83.958 E60.80799
G0 F7500 X70.473 Y83.364
G1 F1350 X75.864 Y77.973 E61.07425
G0 F7500 X75.27 Y77.973
G1 F1350 X70.473 Y82.77 E61.31117
G0 F7500 X70.473 Y82.176
G1 F1350 X74.676 Y77.973 E61.51875
G0 F7500 X74.082 Y77.973
G1 F1350 X70.473 Y81.582 E61.69699
G0 F7500 X70.473 Y80.988
G1 F1350 X73.488 Y77.973 E61.8459
G0 F7500 X72.894 Y77.973
G1 F1350 X70.473 Y80.394 E61.96547
G0 F7500 X70.473 Y79.8
G1 F1350 X72.3 Y77.973 E62.0557
G0 F7500 X71.706 Y77.973
G1 F1350 X70.473 Y79.206 E62.1166
G0 F7500 X70.473 Y78.612
G1 F1350 X71.113 Y77.973 E62.14818
G1 F2400 E58.14818
G0 F7500 X71.113 Y75.671
G0 X81.817 Y75.683
G0 X83.183 Y89.317
G0 X95.114 Y89.329
G0 X95.114 Y87.614
;TYPE:WALL-INNER
G1 F2400 E62.14818
G1 F1500 X95.114 Y77.386 E62.51252
G1 X84.886 Y77.386 E62.87686
G1 X84.886 Y87.614 E63.2412
G1 X95.114 Y87.614 E63.60554
G0 F7500 X95.534 Y88.034
G1 F1500 X95.534 Y76.966 E63.9998
G1 X84.466 Y76.966 E64.39405
G1 X84.466 Y88.034 E64.78831
G1 X95.534 Y88.034 E65.18257
G0 F7500 X95.954 Y88.454
;TYPE:WALL-OUTER
G1 F1500 X95.954 Y76.546 E65.59844
G1 X84.046 Y76.546 E66.0143
G1 X84.046 Y88.454 E66.43017
G1 X95.954 Y88.454 E66.84603
G1 F2400 E62.84603
G0 F7500 X94.736 Y87.236
;TYPE:SKIN
G1 F2400 E66.84603
G1 F1350 X85.264 Y87.236 E67.17683
G1 X85.264 Y77.764 E67.50762
G1 X94.736 Y77.764 E67.83841
G1 X94.736 Y87.236 E68.1692
G0 F7500 X94.135 Y87.025
G1 F1350 X94.525 Y86.635 E68.18846
G0 F7500 X94.525 Y86.041
G1 F1350 X93.541 Y87.025 E68.23706
G0 F7500 X92.947 Y87.025
G1 F1350 X94.525 Y85.447 E68.315
G0 F7500 X94.525 Y84.853
G1 F1350 X92.353 Y87.025 E68.42227
G0 F7500 X91.759 Y87.025
G1 F1350 X94.525 Y84.259 E68.55888
G0 F7500 X94.525 Y83.665
G1 F1350 X91.165 Y87.025 E68.72483
G0 F7500 X90.571 Y87.025
G1 F1350 X94.525 Y83.071 E68.92011
G0 F7500 X94.525 Y82.477
G1 F1350 X89.977 Y87.025 E69.14473
G0 F7500 X89.383 Y87.025
G1 F1350 X94.525 Y81.883 E69.39869
G0 F7500 X94.525 Y81.289
G1 F1350 X88.789 Y87.025 E69.68198
G0 F7500 X88.195 Y87.025
G1 F1350 X94.525 Y80.695 E69.99461
G0 F7500 X94.525 Y80.101
G1 F1350 X87.601 Y87.025 E70.33658
G0 F7500 X87.007 Y87.025
G1 F1350 X94.525 Y79.507 E70.70788
G0 F7500 X94.525 Y78.913
G1 F1350 X86.413 Y87.025 E71.10853
G0 F7500 X85.819 Y87.025
G1 F1350 X94.525 Y78.319 E71.5385
G0 F7500 X94.277 Y77.973
G1 F1350 X85.473 Y86.777 E71.97332
G0 F7500 X85.473 Y86.183
G1 F1350 X93.683 Y77.973 E72.37881
G0 F7500 X93.089 Y77.973
G1 F1350 X85.473 Y85.589 E72.75495
G0 F7500 X85.473 Y84.995
G1 F1350 X92.495 Y77.973 E73.10176
G0 F7500 X91.901 Y77.973
G1 F1350 X85.473 Y84.401 E73.41923
G0 F7500 X85.473 Y83.807
G1 F1350 X91.307 Y77.973 E73.70736
G0 F7500 X90.714 Y77.973
