;FLAVOR:Marlin
;TIME:1994
;Filament used: 1.5681m
;Layer height: 0.2
;MINX:74.681
;MINY:74.697
;MINZ:0.2
;MAXX:105.311
;MAXY:105.327
;MAXZ:13
;TARGET_MACHINE.NAME:Kingroon KP3S
;Generated with Cura_SteamEngine 5.6.0
M140 S60
M104 S220
M190 S60
M109 S220
M82 ;absolute extrusion mode
G28 ; home all axes
 M117 Purge extruder
 G92 E0 ; reset extruder
 G1 Z1.0 F3000 ; move z up little to prevent scratching of surface
 G1 X10 Y20 Z0.3 F5000.0 ; move to start-line position
 G1 X10 Y175.0 Z0.3 F1500.0 E15 ; draw 1st line
 G1 X10 Y175.0 Z0.4 F5000.0 ; move to side a little
 G1 X10 Y20 Z0.4 F1500.0 E30 ; draw 2nd line
 G92 E0 ; reset extruder
 G1 Z1.0 F3000 ; move z up little to prevent scratching of surface
G92 E0
G92 E0
G1 F2400 E-4
;LAYER_COUNT:65
;LAYER:0
M107
;MESH:Small_Tetromino_O.3mf
G0 F6000 X87.487 Y87.503 Z0.2
;TYPE:WALL-INNER
G1 F2400 E0
G1 F1200 X87.487 Y77.521 E0.35557
G1 X77.505 Y77.521 E0.71115
G1 X77.505 Y87.503 E1.06672
G1 X87.487 Y87.503 E1.4223
G0 F6000 X87.907 Y87.923
G1 F1200 X87.907 Y77.101 E1.8078
G1 X77.085 Y77.101 E2.19329
G1 X77.085 Y87.923 E2.57879
G1 X87.907 Y87.923 E2.96429
G0 F6000 X88.327 Y88.343
;TYPE:WALL-OUTER
G1 F1200 X88.327 Y76.681 E3.37156
G1 X76.665 Y76.681 E3.77883
G1 X76.665 Y88.343 E4.18611
G1 X88.327 Y88.343 E4.59338
G1 F2400 E0.59338
G0 F6000 X87.109 Y87.125
;TYPE:SKIN
G1 F2400 E4.59338
G1 F1200 X77.883 Y87.125 E4.91558
G1 X77.883 Y77.899 E5.23778
G1 X87.109 Y77.899 E5.55998
G1 X87.109 Y87.125 E5.88219
G1 F2400 E1.88219
G0 F6000 X89.202 Y87.125
G0 X89.202 Y78.583
G0 X86.899 Y78.583
G1 F2400 E5.88219
G1 F1200 X86.424 Y78.109 E5.90562
G0 F6000 X85.83 Y78.109
G1 F1200 X86.899 Y79.177 E5.95839
G0 F6000 X86.899 Y79.771
G1 F1200 X85.236 Y78.109 E6.0405
G0 F6000 X84.642 Y78.109
G1 F1200 X86.899 Y80.365 E6.15195
G0 F6000 X86.899 Y80.959
G1 F1200 X84.048 Y78.109 E6.29273
G0 F6000 X83.454 Y78.109
G1 F1200 X86.899 Y81.553 E6.46285
G0 F6000 X86.899 Y82.147
G1 F1200 X82.86 Y78.109 E6.66231
G0 F6000 X82.266 Y78.109
G1 F1200 X86.899 Y82.741 E6.8911
G0 F6000 X86.899 Y83.335
G1 F1200 X81.672 Y78.109 E7.14923
G0 F6000 X81.078 Y78.109
G1 F1200 X86.899 Y83.929 E7.4367
G0 F6000 X86.899 Y84.523
G1 F1200 X80.485 Y78.109 E7.75348
G0 F6000 X79.891 Y78.109
G1 F1200 X86.899 Y85.117 E8.09959
G0 F6000 X86.899 Y85.711
G1 F1200 X79.297 Y78.109 E8.47505
G0 F6000 X78.703 Y78.109
G1 F1200 X86.899 Y86.305 E8.87984
G0 F6000 X86.899 Y86.899
G1 F1200 X78.109 Y78.109 E9.31397
G0 F6000 X78.092 Y78.686
G1 F1200 X86.32 Y86.914 E9.72034
G0 F6000 X85.726 Y86.914
G1 F1200 X78.092 Y79.28 E10.09737
G0 F6000 X78.092 Y79.874
G1 F1200 X85.132 Y86.914 E10.44507
G0 F6000 X84.538 Y86.914
G1 F1200 X78.092 Y80.468 E10.76343
G0 F6000 X78.092 Y81.062
G1 F1200 X83.944 Y86.914 E11.05245
G0 F6000 X83.35 Y86.914
G1 F1200 X78.092 Y81.656 E11.31214
G0 F6000 X78.092 Y82.25
G1 F1200 X82.756 Y86.914 E11.54249
G0 F6000 X82.162 Y86.914
G1 F1200 X78.092 Y82.844 E11.7435
G0 F6000 X78.092 Y83.438
G1 F1200 X81.569 Y86.914 E11.9152
G0 F6000 X80.975 Y86.914
G1 F1200 X78.092 Y84.032 E12.05756
G0 F6000 X78.092 Y84.626
G1 F1200 X80.381 Y86.914 E12.17059
G0 F6000 X79.787 Y86.914
G1 F1200 X78.092 Y85.22 E12.25428
G0 F6000 X78.092 Y85.814
G1 F1200 X79.193 Y86.914 E12.30863
G0 F6000 X78.599 Y86.914
G1 F1200 X78.092 Y86.408 E12.33364
G1 F2400 E8.33364
G0 F6000 X75.79 Y86.408
G0 X75.802 Y89.206
G0 X89.19 Y90.818
G0 X89.202 Y102.503
G0 X87.487 Y102.503
;TYPE:WALL-INNER
G1 F2400 E12.33364
G1 F1200 X87.487 Y92.521 E12.68922
G1 X77.505 Y92.521 E13.04479
G1 X77.505 Y102.503 E13.40037
G1 X87.487 Y102.503 E13.75594
G0 F6000 X87.907 Y102.923
G1 F1200 X87.907 Y92.101 E14.14144
G1 X77.085 Y92.101 E14.52694
G1 X77.085 Y102.923 E14.91244
G1 X87.907 Y102.923 E15.29793
G0 F6000 X88.327 Y103.343
;TYPE:WALL-OUTER
G1 F1200 X88.327 Y91.681 E15.70521
G1 X76.665 Y91.681 E16.11248
G1 X76.665 Y103.343 E16.51975
G1 X88.327 Y103.343 E16.92703
G1 F2400 E12.92703
G0 F6000 X87.109 Y102.125
;TYPE:SKIN
G1 F2400 E16.92703
G1 F1200 X77.883 Y102.125 E17.24923
G1 X77.883 Y92.899 E17.57143
G1 X87.109 Y92.899 E17.89363
G1 X87.109 Y102.125 E18.21583
G1 F2400 E14.21583
G0 F6000 X89.202 Y102.125
G0 X89.202 Y93.432
G0 X86.899 Y93.432
G1 F2400 E18.21583
G1 F1200 X86.574 Y93.108 E18.23186
G0 F6000 X85.98 Y93.108
G1 F1200 X86.899 Y94.026 E18.27722
G0 F6000 X86.899 Y94.62
G1 F1200 X85.386 Y93.108 E18.35192
G0 F6000 X84.792 Y93.108
G1 F1200 X86.899 Y95.214 E18.45596
G0 F6000 X86.899 Y95.808
G1 F1200 X84.198 Y93.108 E18.58933
G0 F6000 X83.604 Y93.108
G1 F1200 X86.899 Y96.402 E18.75204
G0 F6000 X86.899 Y96.996
G1 F1200 X83.01 Y93.108 E18.94409
G0 F6000 X82.416 Y93.108
G1 F1200 X86.899 Y97.59 E19.16548
G0 F6000 X86.899 Y98.184
G1 F1200 X81.822 Y93.108 E19.4162
G0 F6000 X81.228 Y93.108
G1 F1200 X86.899 Y98.778 E19.69626
G0 F6000 X86.899 Y99.372
G1 F1200 X80.634 Y93.108 E20.00566
G0 F6000 X80.04 Y93.108
G1 F1200 X86.899 Y99.966 E20.34439
G0 F6000 X86.899 Y100.56
G1 F1200 X79.446 Y93.108 E20.71246
G0 F6000 X78.853 Y93.108
G1 F1200 X86.899 Y101.154 E21.10984
G0 F6000 X86.899 Y101.748
G1 F1200 X78.259 Y93.108 E21.53656
G0 F6000 X78.092 Y93.536
G1 F1200 X86.47 Y101.913 E21.95031
G0 F6000 X85.876 Y101.913
G1 F1200 X78.092 Y94.13 E22.33473
G0 F6000 X78.092 Y94.724
G1 F1200 X85.282 Y101.913 E22.68981
G0 F6000 X84.688 Y101.913
G1 F1200 X78.092 Y95.317 E23.01558
G0 F6000 X78.092 Y95.911
G1 F1200 X84.094 Y101.913 E23.31201
G0 F6000 X83.5 Y101.913
G1 F1200 X78.092 Y96.505 E23.57911
G0 F6000 X78.092 Y97.099
G1 F1200 X82.906 Y101.913 E23.81686
G0 F6000 X82.312 Y101.913
G1 F1200 X78.092 Y97.693 E24.02528
G0 F6000 X78.092 Y98.287
G1 F1200 X81.718 Y101.913 E24.20437
G0 F6000 X81.124 Y101.913
G1 F1200 X78.092 Y98.881 E24.35412
G0 F6000 X78.092 Y99.475
G1 F1200 X80.53 Y101.913 E24.47453
G0 F6000 X79.937 Y101.913
G1 F1200 X78.092 Y100.069 E24.56562
G0 F6000 X78.092 Y100.663
G1 F1200 X79.343 Y101.913 E24.62738
G0 F6000 X78.749 Y101.913
G1 F1200 X78.092 Y101.257 E24.65981
G0 F6000 X78.092 Y101.851
G1 F1200 X78.155 Y101.913 E24.66289
G1 F2400 E20.66289
G0 F6000 X78.155 Y104.218
G0 X89.19 Y104.206
G0 X90.79 Y102.503
G0 X92.505 Y102.503
;TYPE:WALL-INNER
G1 F2400 E24.66289
G1 F1200 X102.487 Y102.503 E25.01847
G1 X102.487 Y92.521 E25.37404
G1 X92.505 Y92.521 E25.72962
G1 X92.505 Y102.503 E26.08519
G0 F6000 X92.085 Y102.923
G1 F1200 X102.907 Y102.923 E26.47069
G1 X102.907 Y92.101 E26.85619
G1 X92.085 Y92.101 E27.24168
G1 X92.085 Y102.923 E27.62718
G0 F6000 X91.665 Y103.343
;TYPE:WALL-OUTER
G1 F1200 X103.327 Y103.343 E28.03446
G1 X103.327 Y91.681 E28.44173
G1 X91.665 Y91.681 E28.849
G1 X91.665 Y103.343 E29.25628
G1 F2400 E25.25628
G0 F6000 X92.883 Y102.125
;TYPE:SKIN
G1 F2400 E29.25628
G1 F1200 X92.883 Y92.899 E29.57848
G1 X102.109 Y92.899 E29.90068
G1 X102.109 Y102.125 E30.22288
G1 X92.883 Y102.125 E30.54508
G0 F6000 X93.599 Y101.914
G1 F1200 X93.092 Y101.408 E30.5701
G0 F6000 X93.092 Y100.814
G1 F1200 X94.192 Y101.914 E30.62442
G0 F6000 X94.786 Y101.914
G1 F1200 X93.092 Y100.22 E30.70809
G0 F6000 X93.092 Y99.626
G1 F1200 X95.38 Y101.914 E30.82109
G0 F6000 X95.974 Y101.914
G1 F1200 X93.092 Y99.032 E30.96343
G0 F6000 X93.092 Y98.438
G1 F1200 X96.568 Y101.914 E31.1351
G0 F6000 X97.162 Y101.914
G1 F1200 X93.092 Y97.844 E31.33612
G0 F6000 X93.092 Y97.25
G1 F1200 X97.756 Y101.914 E31.56646
G0 F6000 X98.35 Y101.914
G1 F1200 X93.092 Y96.656 E31.82615
G0 F6000 X93.092 Y96.062
G1 F1200 X98.944 Y101.914 E32.11517
G0 F6000 X99.538 Y101.914
G1 F1200 X93.092 Y95.468 E32.43353
G0 F6000 X93.092 Y94.874
G1 F1200 X100.132 Y101.914 E32.78123
G0 F6000 X100.726 Y101.914
G1 F1200 X93.092 Y94.28 E33.15826
G0 F6000 X93.092 Y93.686
G1 F1200 X101.32 Y101.914 E33.56464
G0 F6000 X101.899 Y101.899
G1 F1200 X93.108 Y93.108 E33.99881
G0 F6000 X93.702 Y93.108
G1 F1200 X101.899 Y101.305 E34.40365
G0 F6000 X101.899 Y100.711
G1 F1200 X94.296 Y93.108 E34.77916
G0 F6000 X94.89 Y93.108
G1 F1200 X101.899 Y100.117 E35.12532
G0 F6000 X101.899 Y99.523
G1 F1200 X95.484 Y93.108 E35.44215
G0 F6000 X96.078 Y93.108
G1 F1200 X101.899 Y98.929 E35.72964
G0 F6000 X101.899 Y98.335
G1 F1200 X96.672 Y93.108 E35.9878
G0 F6000 X97.266 Y93.108
G1 F1200 X101.899 Y97.741 E36.21662
G0 F6000 X101.899 Y97.147
G1 F1200 X97.86 Y93.108 E36.4161
G0 F6000 X98.454 Y93.108
G1 F1200 X101.899 Y96.553 E36.58624
G0 F6000 X101.899 Y95.959
G1 F1200 X99.048 Y93.108 E36.72705
G0 F6000 X99.642 Y93.108
G1 F1200 X101.899 Y95.365 E36.83852
G0 F6000 X101.899 Y94.771
G1 F1200 X100.236 Y93.108 E36.92065
G0 F6000 X100.83 Y93.108
G1 F1200 X101.899 Y94.177 E36.97345
G0 F6000 X101.899 Y93.583
G1 F1200 X101.424 Y93.108 E36.99691
G1 F2400 E32.99691
G0 F6000 X101.424 Y90.806
G0 X92.505 Y89.218
G0 X92.505 Y87.503
;TYPE:WALL-INNER
G1 F2400 E36.99691
G1 F1200 X102.487 Y87.503 E37.35248
G1 X102.487 Y77.521 E37.70806
G1 X92.505 Y77.521 E38.06363
G1 X92.505 Y87.503 E38.41921
G0 F6000 X92.085 Y87.923
G1 F1200 X102.907 Y87.923 E38.80471
G1 X102.907 Y77.101 E39.1902
G1 X92.085 Y77.101 E39.5757
G1 X92.085 Y87.923 E39.9612
G0 F6000 X91.665 Y88.343
;TYPE:WALL-OUTER
G1 F1200 X103.327 Y88.343 E40.36847
G1 X103.327 Y76.681 E40.77574
G1 X91.665 Y76.681 E41.18302
G1 X91.665 Y88.343 E41.59029
G1 F2400 E37.59029
G0 F6000 X92.883 Y87.125
;TYPE:SKIN
G1 F2400 E41.59029
G1 F1200 X92.883 Y77.899 E41.91249
G1 X102.109 Y77.899 E42.23469
G1 X102.109 Y87.125 E42.55689
G1 X92.883 Y87.125 E42.87909
G0 F6000 X93.448 Y86.914
G1 F1200 X93.092 Y86.558 E42.89668
G0 F6000 X93.092 Y85.964
G1 F1200 X94.042 Y86.914 E42.9436
G0 F6000 X94.636 Y86.914
G1 F1200 X93.092 Y85.37 E43.01985
G0 F6000 X93.092 Y84.776
G1 F1200 X95.23 Y86.914 E43.12545
G0 F6000 X95.824 Y86.914
G1 F1200 X93.092 Y84.182 E43.26038
G0 F6000 X93.092 Y83.588
G1 F1200 X96.418 Y86.914 E43.42464
G0 F6000 X97.012 Y86.914
G1 F1200 X93.092 Y82.994 E43.61825
G0 F6000 X93.092 Y82.4
G1 F1200 X97.606 Y86.914 E43.84119
G0 F6000 X98.2 Y86.914
G1 F1200 X93.092 Y81.806 E44.09347
G0 F6000 X93.092 Y81.212
G1 F1200 X98.794 Y86.914 E44.37508
G0 F6000 X99.388 Y86.914
G1 F1200 X93.092 Y80.618 E44.68603
G0 F6000 X93.092 Y80.024
G1 F1200 X99.982 Y86.914 E45.02632
G0 F6000 X100.576 Y86.914
G1 F1200 X93.092 Y79.43 E45.39595
G0 F6000 X93.092 Y78.836
G1 F1200 X101.17 Y86.914 E45.79491
G0 F6000 X101.763 Y86.914
G1 F1200 X93.092 Y78.242 E46.22318
G0 F6000 X93.552 Y78.109
G1 F1200 X101.898 Y86.455 E46.63538
G0 F6000 X101.898 Y85.861
G1 F1200 X94.146 Y78.109 E47.01825
G0 F6000 X94.74 Y78.109
G1 F1200 X101.898 Y85.267 E47.37177
G0 F6000 X101.898 Y84.673
G1 F1200 X95.334 Y78.109 E47.69596
G0 F6000 X95.928 Y78.109
G1 F1200 X101.898 Y84.079 E47.99081
G0 F6000 X101.898 Y83.485
G1 F1200 X96.522 Y78.109 E48.25632
G0 F6000 X97.116 Y78.109
G1 F1200 X101.898 Y82.891 E48.4925
G0 F6000 X101.898 Y82.297
G1 F1200 X97.71 Y78.109 E48.69934
G0 F6000 X98.304 Y78.109
G1 F1200 X101.898 Y81.703 E48.87684
G0 F6000 X101.898 Y81.109
G1 F1200 X98.898 Y78.109 E49.02501
G0 F6000 X99.492 Y78.109
G1 F1200 X101.898 Y80.515 E49.14384
G0 F6000 X101.898 Y79.921
G1 F1200 X100.086 Y78.109 E49.23333
G0 F6000 X100.679 Y78.109
G1 F1200 X101.898 Y79.327 E49.29351
G0 F6000 X101.898 Y78.733
G1 F1200 X101.273 Y78.109 E49.32436
G1 F2400 E45.32436
;MESH:NONMESH
G0 F240 X101.273 Y78.109 Z0.4
G0 F6000 X101.273 Y75.806
G0 X90.802 Y75.818
G0 X89.202 Y87.626
G0 X87.61 Y87.626
;TIME_ELAPSED:91.554599
;LAYER:1
M106 S85
;TYPE:WALL-INNER
;MESH:Small_Tetromino_O.3mf
G1 F2400 E49.32436
G1 F1500 X87.61 Y77.398 E49.68869
G1 X77.382 Y77.398 E50.05303
G1 X77.382 Y87.626 E50.41737
G1 X87.61 Y87.626 E50.78171
G0 F7500 X88.03 Y88.046
G1 F1500 X88.03 Y76.978 E51.17597
G1 X76.962 Y76.978 E51.57023
G1 X76.962 Y88.046 E51.96449
G1 X88.03 Y88.046 E52.35875
G0 F7500 X88.45 Y88.466
;TYPE:WALL-OUTER
G1 F1500 X88.45 Y76.558 E52.77461
G1 X76.542 Y76.558 E53.19048
G1 X76.542 Y88.466 E53.60634
G1 X88.45 Y88.466 E54.02221
G1 F2400 E50.02221
G0 F7500 X87.232 Y87.248
;TYPE:SKIN
G1 F2400 E54.02221
G1 F1350 X77.76 Y87.248 E54.353
G1 X77.76 Y77.776 E54.68379
G1 X87.232 Y77.776 E55.01458
G1 X87.232 Y87.248 E55.34537
G0 F7500 X86.401 Y87.037
G1 F1350 X87.021 Y86.417 E55.37599
G0 F7500 X87.021 Y85.823
G1 F1350 X85.807 Y87.037 E55.43595
G0 F7500 X85.213 Y87.037
G1 F1350 X87.021 Y85.229 E55.52525
G0 F7500 X87.021 Y84.635
G1 F1350 X84.619 Y87.037 E55.64388
G0 F7500 X84.025 Y87.037
G1 F1350 X87.021 Y84.041 E55.79185
G0 F7500 X87.021 Y83.447
G1 F1350 X83.431 Y87.037 E55.96915
G0 F7500 X82.837 Y87.037
G1 F1350 X87.021 Y82.853 E56.1758
G0 F7500 X87.021 Y82.259
G1 F1350 X82.243 Y87.037 E56.41178
G0 F7500 X81.649 Y87.037
G1 F1350 X87.021 Y81.665 E56.67709
G0 F7500 X87.021 Y81.071
G1 F1350 X81.055 Y87.037 E56.97175
G0 F7500 X80.461 Y87.037
G1 F1350 X87.021 Y80.477 E57.29574
G0 F7500 X87.021 Y79.883
G1 F1350 X79.867 Y87.037 E57.64906
G0 F7500 X79.273 Y87.037
G1 F1350 X87.021 Y79.29 E58.0317
G0 F7500 X87.021 Y78.696
G1 F1350 X78.679 Y87.037 E58.44368
G0 F7500 X78.085 Y87.037
G1 F1350 X87.021 Y78.102 E58.88499
G0 F7500 X86.544 Y77.985
G1 F1350 X77.969 Y86.559 E59.30848
G0 F7500 X77.969 Y85.965
G1 F1350 X85.95 Y77.985 E59.70262
G0 F7500 X85.356 Y77.985
G1 F1350 X77.969 Y85.371 E60.06743
G0 F7500 X77.969 Y84.777
G1 F1350 X84.762 Y77.985 E60.40291
G0 F7500 X84.168 Y77.985
G1 F1350 X77.969 Y84.183 E60.70904
G0 F7500 X77.969 Y83.589
G1 F1350 X83.574 Y77.985 E60.98584
G0 F7500 X82.98 Y77.985
G1 F1350 X77.969 Y82.995 E61.23331
G0 F7500 X77.969 Y82.401
G1 F1350 X82.386 Y77.985 E61.45143
G0 F7500 X81.792 Y77.985
G1 F1350 X77.969 Y81.808 E61.64025
G0 F7500 X77.969 Y81.214
G1 F1350 X81.198 Y77.985 E61.79972
G0 F7500 X80.604 Y77.985
G1 F1350 X77.969 Y80.62 E61.92986
G0 F7500 X77.969 Y80.026
G1 F1350 X80.01 Y77.985 E62.03066
G0 F7500 X79.416 Y77.985
G1 F1350 X77.969 Y79.432 E62.10213
G0 F7500 X77.969 Y78.838
G1 F1350 X78.822 Y77.985 E62.14426
G0 F7500 X78.228 Y77.985
G1 F1350 X77.969 Y78.244 E62.15705
G1 F2400 E58.15705
G0 F7500 X75.667 Y78.244
G0 X75.679 Y89.329
G0 X89.313 Y90.695
G0 X89.325 Y102.626
G0 X87.61 Y102.626
;TYPE:WALL-INNER
G1 F2400 E62.15705
G1 F1500 X87.61 Y92.398 E62.52139
G1 X77.382 Y92.398 E62.88572
G1 X77.382 Y102.626 E63.25006
G1 X87.61 Y102.626 E63.6144
G0 F7500 X88.03 Y103.046
G1 F1500 X88.03 Y91.978 E64.00866
G1 X76.962 Y91.978 E64.40292
G1 X76.962 Y103.046 E64.79718
G1 X88.03 Y103.046 E65.19144
G0 F7500 X88.45 Y103.466
;TYPE:WALL-OUTER
G1 F1500 X88.45 Y91.558 E65.6073
G1 X76.542 Y91.558 E66.02317
G1 X76.542 Y103.466 E66.43903
G1 X88.45 Y103.466 E66.8549
G1 F2400 E62.8549
G0 F7500 X87.232 Y102.248
;TYPE:SKIN
G1 F2400 E66.8549
G1 F1350 X77.76 Y102.248 E67.18569
G1 X77.76 Y92.776 E67.51648
G1 X87.232 Y92.776 E67.84728
G1 X87.232 Y102.248 E68.17807
G0 F7500 X86.845 Y102.036
G1 F1350 X87.021 Y101.86 E68.18676
G0 F7500 X87.021 Y101.266
G1 F1350 X86.251 Y102.036 E68.22479
G0 F7500 X85.657 Y102.036
G1 F1350 X87.021 Y100.672 E68.29216
G0 F7500 X87.021 Y100.078
G1 F1350 X85.063 Y102.036 E68.38886
G0 F7500 X84.469 Y102.036
G1 F1350 X87.021 Y99.484 E68.5149
G0 F7500 X87.021 Y98.891
G1 F1350 X83.875 Y102.036 E68.67025
G0 F7500 X83.281 Y102.036
G1 F1350 X87.021 Y98.297 E68.85494
G0 F7500 X87.021 Y97.703
G1 F1350 X82.687 Y102.036 E69.06897
G0 F7500 X82.093 Y102.036
G1 F1350 X87.021 Y97.109 E69.31233
G0 F7500 X87.021 Y96.515
G1 F1350 X81.499 Y102.036 E69.58503
G0 F7500 X80.905 Y102.036
G1 F1350 X87.021 Y95.921 E69.88707
G0 F7500 X87.021 Y95.327
G1 F1350 X80.311 Y102.036 E70.21844
G0 F7500 X79.717 Y102.036
G1 F1350 X87.021 Y94.733 E70.57915
G0 F7500 X87.021 Y94.139
G1 F1350 X79.123 Y102.036 E70.9692
G0 F7500 X78.529 Y102.036
G1 F1350 X87.021 Y93.545 E71.38858
G0 F7500 X86.987 Y92.985
G1 F1350 X77.97 Y102.002 E71.83392
G0 F7500 X77.97 Y101.408
G1 F1350 X86.393 Y92.985 E72.24993
G0 F7500 X85.799 Y92.985
G1 F1350 X77.97 Y100.814 E72.63659
G0 F7500 X77.97 Y100.22
G1 F1350 X85.205 Y92.985 E72.99392
G0 F7500 X84.611 Y92.985
G1 F1350 X77.97 Y99.626 E73.32191
G0 F7500 X77.97 Y99.032
G1 F1350 X84.017 Y92.985 E73.62056
G0 F7500 X83.423 Y92.985
G1 F1350 X77.97 Y98.438 E73.88988
G0 F7500 X77.97 Y97.844
G1 F1350 X82.829 Y92.985 E74.12986
G0 F7500 X82.235 Y92.985
G1 F1350 X77.97 Y97.25 E74.3405
G0 F7500 X77.97 Y96.656
G1 F1350 X81.641 Y92.985 E74.52181
G0 F7500 X81.047 Y92.985
G1 F1350 X77.97 Y96.062 E74.67378
