;FLAVOR:Marlin
;TIME:2010
;Filament used: 1.57086m
;Layer height: 0.2
;MINX:67.185
;MINY:74.685
;MINZ:0.2
;MAXX:112.815
;MAXY:105.315
;MAXZ:13
;TARGET_MACHINE.NAME:Kingroon KP3S
;Generated with Cura_SteamEngine 5.6.0
M140 S60
M104 S220
M190 S60
M109 S220
M82 ;absolute extrusion mode
G28 ; home all axes
 M117 Purge extruder
 G92 E0 ; reset extruder
 G1 Z1.0 F3000 ; move z up little to prevent scratching of surface
 G1 X10 Y20 Z0.3 F5000.0 ; move to start-line position
 G1 X10 Y175.0 Z0.3 F1500.0 E15 ; draw 1st line
 G1 X10 Y175.0 Z0.4 F5000.0 ; move to side a little
 G1 X10 Y20 Z0.4 F1500.0 E30 ; draw 2nd line
 G92 E0 ; reset extruder
 G1 Z1.0 F3000 ; move z up little to prevent scratching of surface
G92 E0
G92 E0
G1 F2400 E-4
;LAYER_COUNT:65
;LAYER:0
M107
;MESH:Small_Tetromino_L.3mf
G0 F6000 X79.991 Y87.491 Z0.2
;TYPE:WALL-INNER
G1 F2400 E0
G1 F1200 X79.991 Y77.509 E0.35557
G1 X70.009 Y77.509 E0.71115
G1 X70.009 Y87.491 E1.06672
G1 X79.991 Y87.491 E1.4223
G0 F6000 X80.411 Y87.911
G1 F1200 X80.411 Y77.089 E1.8078
G1 X69.589 Y77.089 E2.19329
G1 X69.589 Y87.911 E2.57879
G1 X80.411 Y87.911 E2.96429
G0 F6000 X80.831 Y88.331
;TYPE:WALL-OUTER
G1 F1200 X80.831 Y76.669 E3.37156
G1 X69.169 Y76.669 E3.77883
G1 X69.169 Y88.331 E4.18611
G1 X80.831 Y88.331 E4.59338
G1 F2400 E0.59338
G0 F6000 X79.613 Y87.113
;TYPE:SKIN
G1 F2400 E4.59338
G1 F1200 X70.387 Y87.113 E4.91558
G1 X70.387 Y77.887 E5.23778
G1 X79.613 Y77.887 E5.55998
G1 X79.613 Y87.113 E5.88219
G1 F2400 E1.88219
G0 F6000 X81.706 Y87.113
G0 X81.706 Y78.097
G0 X79.285 Y78.097
G1 F2400 E5.88219
G1 F1200 X79.403 Y78.215 E5.88801
G0 F6000 X79.403 Y78.809
G1 F1200 X78.691 Y78.097 E5.92318
G0 F6000 X78.097 Y78.097
G1 F1200 X79.403 Y79.403 E5.98768
G0 F6000 X79.403 Y79.997
G1 F1200 X77.503 Y78.097 E6.08152
G0 F6000 X76.909 Y78.097
G1 F1200 X79.403 Y80.591 E6.20469
G0 F6000 X79.403 Y81.185
G1 F1200 X76.315 Y78.097 E6.35721
G0 F6000 X75.721 Y78.097
G1 F1200 X79.403 Y81.779 E6.53906
G0 F6000 X79.403 Y82.372
G1 F1200 X75.127 Y78.097 E6.75022
G0 F6000 X74.533 Y78.097
G1 F1200 X79.403 Y82.966 E6.99072
G0 F6000 X79.403 Y83.56
G1 F1200 X73.939 Y78.097 E7.26055
G0 F6000 X73.345 Y78.097
G1 F1200 X79.403 Y84.154 E7.55973
G0 F6000 X79.403 Y84.748
G1 F1200 X72.751 Y78.097 E7.88823
G0 F6000 X72.157 Y78.097
G1 F1200 X79.403 Y85.342 E8.24608
G0 F6000 X79.403 Y85.936
G1 F1200 X71.563 Y78.097 E8.63326
G0 F6000 X70.969 Y78.097
G1 F1200 X79.403 Y86.53 E9.04978
G0 F6000 X79.181 Y86.902
G1 F1200 X70.596 Y78.318 E9.47376
G0 F6000 X70.596 Y78.912
G1 F1200 X78.587 Y86.902 E9.8684
G0 F6000 X77.993 Y86.902
G1 F1200 X70.596 Y79.506 E10.23371
G0 F6000 X70.596 Y80.1
G1 F1200 X77.399 Y86.902 E10.56967
G0 F6000 X76.805 Y86.902
G1 F1200 X70.596 Y80.694 E10.87631
G0 F6000 X70.596 Y81.288
G1 F1200 X76.211 Y86.902 E11.1536
G0 F6000 X75.617 Y86.902
G1 F1200 X70.596 Y81.882 E11.40155
G0 F6000 X70.596 Y82.476
G1 F1200 X75.023 Y86.902 E11.62017
G0 F6000 X74.429 Y86.902
G1 F1200 X70.596 Y83.07 E11.80946
G0 F6000 X70.596 Y83.664
G1 F1200 X73.835 Y86.902 E11.9694
G0 F6000 X73.241 Y86.902
G1 F1200 X70.596 Y84.258 E12.10001
G0 F6000 X70.596 Y84.852
G1 F1200 X72.647 Y86.902 E12.20128
G0 F6000 X72.053 Y86.902
G1 F1200 X70.596 Y85.446 E12.27322
G0 F6000 X70.596 Y86.04
G1 F1200 X71.459 Y86.902 E12.31582
G0 F6000 X70.865 Y86.902
G1 F1200 X70.596 Y86.634 E12.32908
G1 F2400 E8.32908
G0 F6000 X70.596 Y89.206
G0 X81.694 Y90.806
G0 X81.706 Y102.491
G0 X79.991 Y102.491
;TYPE:WALL-INNER
G1 F2400 E12.32908
G1 F1200 X79.991 Y92.509 E12.68465
G1 X70.009 Y92.509 E13.04023
G1 X70.009 Y102.491 E13.3958
G1 X79.991 Y102.491 E13.75138
G0 F6000 X80.411 Y102.911
G1 F1200 X80.411 Y92.089 E14.13687
G1 X69.589 Y92.089 E14.52237
G1 X69.589 Y102.911 E14.90787
G1 X80.411 Y102.911 E15.29336
G0 F6000 X80.831 Y103.331
;TYPE:WALL-OUTER
G1 F1200 X80.831 Y91.669 E15.70064
G1 X69.169 Y91.669 E16.10791
G1 X69.169 Y103.331 E16.51518
G1 X80.831 Y103.331 E16.92246
G1 F2400 E12.92246
G0 F6000 X79.613 Y102.113
;TYPE:SKIN
G1 F2400 E16.92246
G1 F1200 X70.387 Y102.113 E17.24466
G1 X70.387 Y92.887 E17.56686
G1 X79.613 Y92.887 E17.88906
G1 X79.613 Y102.113 E18.21126
G1 F2400 E14.21126
G0 F6000 X81.706 Y102.113
G0 X81.706 Y93.658
G0 X79.403 Y93.658
G1 F2400 E18.21126
G1 F1200 X78.84 Y93.096 E18.23904
G0 F6000 X78.247 Y93.096
G1 F1200 X79.403 Y94.252 E18.29614
G0 F6000 X79.403 Y94.846
G1 F1200 X77.653 Y93.096 E18.38257
G0 F6000 X77.059 Y93.096
G1 F1200 X79.403 Y95.44 E18.49833
G0 F6000 X79.403 Y96.034
G1 F1200 X76.465 Y93.096 E18.64344
G0 F6000 X75.871 Y93.096
G1 F1200 X79.403 Y96.628 E18.81788
G0 F6000 X79.403 Y97.222
G1 F1200 X75.277 Y93.096 E19.02166
G0 F6000 X74.683 Y93.096
G1 F1200 X79.403 Y97.816 E19.25477
G0 F6000 X79.403 Y98.41
G1 F1200 X74.089 Y93.096 E19.51722
G0 F6000 X73.495 Y93.096
G1 F1200 X79.403 Y99.004 E19.80901
G0 F6000 X79.403 Y99.598
G1 F1200 X72.901 Y93.096 E20.13014
G0 F6000 X72.307 Y93.096
G1 F1200 X79.403 Y100.192 E20.4806
G0 F6000 X79.403 Y100.786
G1 F1200 X71.713 Y93.096 E20.8604
G0 F6000 X71.119 Y93.096
G1 F1200 X79.403 Y101.38 E21.26954
G0 F6000 X79.331 Y101.901
G1 F1200 X70.596 Y93.167 E21.70093
G0 F6000 X70.596 Y93.761
G1 F1200 X78.737 Y101.901 E22.10297
G0 F6000 X78.143 Y101.901
G1 F1200 X70.596 Y94.355 E22.47569
G0 F6000 X70.596 Y94.949
G1 F1200 X77.549 Y101.901 E22.81906
G0 F6000 X76.955 Y101.901
G1 F1200 X70.596 Y95.543 E23.1331
G0 F6000 X70.596 Y96.137
G1 F1200 X76.361 Y101.901 E23.4178
G0 F6000 X75.767 Y101.901
G1 F1200 X70.596 Y96.731 E23.67317
G0 F6000 X70.596 Y97.325
G1 F1200 X75.173 Y101.901 E23.8992
G0 F6000 X74.579 Y101.901
G1 F1200 X70.596 Y97.919 E24.09589
G0 F6000 X70.596 Y98.513
G1 F1200 X73.985 Y101.901 E24.26324
G0 F6000 X73.391 Y101.901
G1 F1200 X70.596 Y99.107 E24.40126
G0 F6000 X70.596 Y99.701
G1 F1200 X72.797 Y101.901 E24.50994
G0 F6000 X72.203 Y101.901
G1 F1200 X70.596 Y100.295 E24.58928
G0 F6000 X70.596 Y100.889
G1 F1200 X71.609 Y101.901 E24.63929
G0 F6000 X71.015 Y101.901
G1 F1200 X70.596 Y101.483 E24.65996
G1 F2400 E20.65996
G0 F6000 X68.294 Y101.483
G0 X68.306 Y104.194
G0 X81.694 Y104.194
G0 X94.991 Y89.206
G0 X94.991 Y87.491
;TYPE:WALL-INNER
G1 F2400 E24.65996
G1 F1200 X94.991 Y77.509 E25.01553
G1 X85.009 Y77.509 E25.3711
G1 X85.009 Y87.491 E25.72668
G1 X94.991 Y87.491 E26.08225
G0 F6000 X95.411 Y87.911
G1 F1200 X95.411 Y77.089 E26.46775
G1 X84.589 Y77.089 E26.85325
G1 X84.589 Y87.911 E27.23875
G1 X95.411 Y87.911 E27.62424
G0 F6000 X95.831 Y88.331
;TYPE:WALL-OUTER
G1 F1200 X95.831 Y76.669 E28.03152
G1 X84.169 Y76.669 E28.43879
G1 X84.169 Y88.331 E28.84606
G1 X95.831 Y88.331 E29.25334
G1 F2400 E25.25334
G0 F6000 X94.613 Y87.113
;TYPE:SKIN
G1 F2400 E29.25334
G1 F1200 X85.387 Y87.113 E29.57554
G1 X85.387 Y77.887 E29.89774
G1 X94.613 Y77.887 E30.21994
G1 X94.613 Y87.113 E30.54214
G1 F2400 E26.54214
G0 F6000 X96.706 Y87.113
G0 X96.706 Y78.365
G0 X94.402 Y78.365
G1 F2400 E30.54214
G1 F1200 X94.134 Y78.097 E30.55538
G0 F6000 X93.54 Y78.097
G1 F1200 X94.402 Y78.959 E30.59795
G0 F6000 X94.402 Y79.553
G1 F1200 X92.946 Y78.097 E30.66986
G0 F6000 X92.352 Y78.097
G1 F1200 X94.402 Y80.147 E30.77111
G0 F6000 X94.402 Y80.74
G1 F1200 X91.758 Y78.097 E30.90167
G0 F6000 X91.164 Y78.097
G1 F1200 X94.402 Y81.334 E31.06156
G0 F6000 X94.402 Y81.928
G1 F1200 X90.57 Y78.097 E31.2508
G0 F6000 X89.976 Y78.097
G1 F1200 X94.402 Y82.522 E31.46937
G0 F6000 X94.402 Y83.116
G1 F1200 X89.382 Y78.097 E31.71727
G0 F6000 X88.788 Y78.097
G1 F1200 X94.402 Y83.71 E31.99452
G0 F6000 X94.402 Y84.304
G1 F1200 X88.194 Y78.097 E32.3011
G0 F6000 X87.6 Y78.097
G1 F1200 X94.402 Y84.898 E32.63702
G0 F6000 X94.402 Y85.492
G1 F1200 X87.006 Y78.097 E33.00227
G0 F6000 X86.412 Y78.097
G1 F1200 X94.402 Y86.086 E33.39686
G0 F6000 X94.402 Y86.68
G1 F1200 X85.818 Y78.097 E33.82079
G0 F6000 X85.596 Y78.469
G1 F1200 X94.029 Y86.902 E34.23729
G0 F6000 X93.435 Y86.902
G1 F1200 X85.596 Y79.063 E34.62444
G0 F6000 X85.596 Y79.656
G1 F1200 X92.841 Y86.902 E34.98229
G0 F6000 X92.247 Y86.902
G1 F1200 X85.596 Y80.25 E35.3108
G0 F6000 X85.596 Y80.844
G1 F1200 X91.653 Y86.902 E35.60997
G0 F6000 X91.059 Y86.902
G1 F1200 X85.596 Y81.438 E35.87981
G0 F6000 X85.596 Y82.032
G1 F1200 X90.465 Y86.902 E36.12031
G0 F6000 X89.871 Y86.902
G1 F1200 X85.596 Y82.626 E36.33147
G0 F6000 X85.596 Y83.22
G1 F1200 X89.277 Y86.902 E36.51329
G0 F6000 X88.683 Y86.902
G1 F1200 X85.596 Y83.814 E36.66578
G0 F6000 X85.596 Y84.408
G1 F1200 X88.089 Y86.902 E36.78893
G0 F6000 X87.495 Y86.902
G1 F1200 X85.596 Y85.002 E36.88275
G0 F6000 X85.596 Y85.596
G1 F1200 X86.902 Y86.902 E36.94725
G0 F6000 X86.308 Y86.902
G1 F1200 X85.596 Y86.19 E36.98241
G0 F6000 X85.596 Y86.784
G1 F1200 X85.714 Y86.902 E36.98824
G1 F2400 E32.98824
G0 F6000 X85.714 Y89.206
G0 X96.694 Y89.194
G0 X98.294 Y87.491
G0 X100.009 Y87.491
;TYPE:WALL-INNER
G1 F2400 E36.98824
G1 F1200 X109.991 Y87.491 E37.34382
G1 X109.991 Y77.509 E37.69939
G1 X100.009 Y77.509 E38.05497
G1 X100.009 Y87.491 E38.41054
G0 F6000 X99.589 Y87.911
G1 F1200 X110.411 Y87.911 E38.79604
G1 X110.411 Y77.089 E39.18153
G1 X99.589 Y77.089 E39.56703
G1 X99.589 Y87.911 E39.95253
G0 F6000 X99.169 Y88.331
;TYPE:WALL-OUTER
G1 F1200 X110.831 Y88.331 E40.3598
G1 X110.831 Y76.669 E40.76708
G1 X99.169 Y76.669 E41.17435
G1 X99.169 Y88.331 E41.58162
G1 F2400 E37.58162
G0 F6000 X100.387 Y87.113
;TYPE:SKIN
G1 F2400 E41.58162
G1 F1200 X100.387 Y77.887 E41.90382
G1 X109.613 Y77.887 E42.22603
G1 X109.613 Y87.113 E42.54823
G1 X100.387 Y87.113 E42.87043
G0 F6000 X101.157 Y86.902
G1 F1200 X100.595 Y86.34 E42.89818
G0 F6000 X100.595 Y85.746
G1 F1200 X101.751 Y86.902 E42.95528
G0 F6000 X102.345 Y86.902
G1 F1200 X100.595 Y85.152 E43.04171
G0 F6000 X100.595 Y84.558
G1 F1200 X102.939 Y86.902 E43.15747
G0 F6000 X103.533 Y86.902
G1 F1200 X100.595 Y83.964 E43.30258
G0 F6000 X100.595 Y83.37
G1 F1200 X104.127 Y86.902 E43.47702
G0 F6000 X104.721 Y86.902
G1 F1200 X100.595 Y82.776 E43.6808
G0 F6000 X100.595 Y82.182
G1 F1200 X105.315 Y86.902 E43.91391
G0 F6000 X105.909 Y86.902
G1 F1200 X100.595 Y81.588 E44.17637
G0 F6000 X100.595 Y80.994
G1 F1200 X106.503 Y86.902 E44.46815
G0 F6000 X107.097 Y86.902
G1 F1200 X100.595 Y80.4 E44.78928
G0 F6000 X100.595 Y79.806
G1 F1200 X107.691 Y86.902 E45.13974
G0 F6000 X108.285 Y86.902
G1 F1200 X100.595 Y79.212 E45.51954
G0 F6000 X100.595 Y78.618
G1 F1200 X108.879 Y86.902 E45.92868
G0 F6000 X109.402 Y86.831
G1 F1200 X100.667 Y78.097 E46.36007
G0 F6000 X101.261 Y78.097
G1 F1200 X109.402 Y86.237 E46.76211
G0 F6000 X109.402 Y85.643
G1 F1200 X101.855 Y78.097 E47.13483
G0 F6000 X102.449 Y78.097
G1 F1200 X109.402 Y85.049 E47.4782
G0 F6000 X109.402 Y84.455
G1 F1200 X103.043 Y78.097 E47.79224
G0 F6000 X103.637 Y78.097
G1 F1200 X109.402 Y83.861 E48.07694
G0 F6000 X109.402 Y83.267
G1 F1200 X104.231 Y78.097 E48.33231
G0 F6000 X104.825 Y78.097
G1 F1200 X109.402 Y82.673 E48.55834
G0 F6000 X109.402 Y82.079
G1 F1200 X105.419 Y78.097 E48.75503
G0 F6000 X106.013 Y78.097
G1 F1200 X109.402 Y81.485 E48.92238
G0 F6000 X109.402 Y80.891
G1 F1200 X106.607 Y78.097 E49.0604
G0 F6000 X107.201 Y78.097
G1 F1200 X109.402 Y80.297 E49.16908
G0 F6000 X109.402 Y79.703
G1 F1200 X107.795 Y78.097 E49.24842
G0 F6000 X108.389 Y78.097
G1 F1200 X109.402 Y79.109 E49.29843
G0 F6000 X109.402 Y78.515
G1 F1200 X108.983 Y78.097 E49.3191
G1 F2400 E45.3191
;MESH:NONMESH
G0 F240 X108.983 Y78.097 Z0.4
G0 F6000 X108.983 Y75.794
G0 X98.306 Y75.806
G0 X96.694 Y89.194
G0 X83.306 Y89.194
G0 X81.706 Y87.614
G0 X80.114 Y87.614
;TIME_ELAPSED:92.688696
;LAYER:1
M106 S85
;TYPE:WALL-INNER
;MESH:Small_Tetromino_L.3mf
G1 F2400 E49.3191
G1 F1500 X80.114 Y77.386 E49.68343
G1 X69.886 Y77.386 E50.04777
G1 X69.886 Y87.614 E50.41211
G1 X80.114 Y87.614 E50.77645
G0 F7500 X80.534 Y88.034
G1 F1500 X80.534 Y76.966 E51.17071
G1 X69.466 Y76.966 E51.56497
G1 X69.466 Y88.034 E51.95923
G1 X80.534 Y88.034 E52.35349
G0 F7500 X80.954 Y88.454
;TYPE:WALL-OUTER
G1 F1500 X80.954 Y76.546 E52.76935
G1 X69.046 Y76.546 E53.18522
G1 X69.046 Y88.454 E53.60108
G1 X80.954 Y88.454 E54.01695
G1 F2400 E50.01695
G0 F7500 X79.736 Y87.236
;TYPE:SKIN
G1 F2400 E54.01695
G1 F1350 X70.264 Y87.236 E54.34774
G1 X70.264 Y77.764 E54.67853
G1 X79.736 Y77.764 E55.00932
G1 X79.736 Y87.236 E55.34011
G0 F7500 X79.525 Y86.786
G1 F1350 X79.285 Y87.025 E55.35194
G0 F7500 X78.691 Y87.025
G1 F1350 X79.525 Y86.192 E55.39311
G0 F7500 X79.525 Y85.598
G1 F1350 X78.097 Y87.025 E55.46361
G0 F7500 X77.503 Y87.025
G1 F1350 X79.525 Y85.004 E55.56345
G0 F7500 X79.525 Y84.41
G1 F1350 X76.909 Y87.025 E55.69263
G0 F7500 X76.315 Y87.025
G1 F1350 X79.525 Y83.816 E55.85114
G0 F7500 X79.525 Y83.222
G1 F1350 X75.721 Y87.025 E56.03899
G0 F7500 X75.127 Y87.025
G1 F1350 X79.525 Y82.628 E56.25618
G0 F7500 X79.525 Y82.034
G1 F1350 X74.534 Y87.025 E56.50268
G0 F7500 X73.94 Y87.025
G1 F1350 X79.525 Y81.44 E56.77851
G0 F7500 X79.525 Y80.846
G1 F1350 X73.346 Y87.025 E57.08369
G0 F7500 X72.752 Y87.025
G1 F1350 X79.525 Y80.252 E57.4182
G0 F7500 X79.525 Y79.658
G1 F1350 X72.158 Y87.025 E57.78204
G0 F7500 X71.564 Y87.025
G1 F1350 X79.525 Y79.064 E58.17523
G0 F7500 X79.525 Y78.47
G1 F1350 X70.97 Y87.025 E58.59775
G0 F7500 X70.473 Y86.928
G1 F1350 X79.428 Y77.973 E59.04002
G0 F7500 X78.834 Y77.973
G1 F1350 X70.473 Y86.334 E59.45296
G0 F7500 X70.473 Y85.74
G1 F1350 X78.24 Y77.973 E59.83657
G0 F7500 X77.646 Y77.973
G1 F1350 X70.473 Y85.146 E60.19083
G0 F7500 X70.473 Y84.552
G1 F1350 X77.052 Y77.973 E60.51576
G0 F7500 X76.458 Y77.973
G1 F1350 X70.473 Y83.958 E60.81135
G0 F7500 X70.473 Y83.364
G1 F1350 X75.864 Y77.973 E61.07761
G0 F7500 X75.27 Y77.973
G1 F1350 X70.473 Y82.77 E61.31453
G0 F7500 X70.473 Y82.176
G1 F1350 X74.676 Y77.973 E61.52211
G0 F7500 X74.082 Y77.973
G1 F1350 X70.473 Y81.582 E61.70035
G0 F7500 X70.473 Y80.988
G1 F1350 X73.488 Y77.973 E61.84926
G0 F7500 X72.894 Y77.973
G1 F1350 X70.473 Y80.394 E61.96883
G0 F7500 X70.473 Y79.8
G1 F1350 X72.3 Y77.973 E62.05906
G0 F7500 X71.706 Y77.973
G1 F1350 X70.473 Y79.206 E62.11996
G0 F7500 X70.473 Y78.612
G1 F1350 X71.113 Y77.973 E62.15154
G1 F2400 E58.15154
G0 F7500 X71.113 Y75.671
G0 X68.183 Y75.683
G0 X68.183 Y89.317
G0 X81.817 Y90.683
G0 X81.829 Y102.614
G0 X80.114 Y102.614
;TYPE:WALL-INNER
G1 F2400 E62.15154
G1 F1500 X80.114 Y92.386 E62.51588
G1 X69.886 Y92.386 E62.88022
G1 X69.886 Y102.614 E63.24456
G1 X80.114 Y102.614 E63.60889
G0 F7500 X80.534 Y103.034
G1 F1500 X80.534 Y91.966 E64.00315
G1 X69.466 Y91.966 E64.39741
G1 X69.466 Y103.034 E64.79167
G1 X80.534 Y103.034 E65.18593
G0 F7500 X80.954 Y103.454
;TYPE:WALL-OUTER
G1 F1500 X80.954 Y91.546 E65.6018
G1 X69.046 Y91.546 E66.01766
G1 X69.046 Y103.454 E66.43353
G1 X80.954 Y103.454 E66.84939
G1 F2400 E62.84939
G0 F7500 X79.736 Y102.236
;TYPE:SKIN
G1 F2400 E66.84939
G1 F1350 X70.264 Y102.236 E67.18018
G1 X70.264 Y92.764 E67.51098
G1 X79.736 Y92.764 E67.84177
G1 X79.736 Y102.236 E68.17256
G0 F7500 X79.525 Y101.635
G1 F1350 X79.135 Y102.024 E68.1918
G0 F7500 X78.541 Y102.024
G1 F1350 X79.525 Y101.041 E68.24037
G0 F7500 X79.525 Y100.447
G1 F1350 X77.947 Y102.024 E68.31828
G0 F7500 X77.353 Y102.024
G1 F1350 X79.525 Y99.853 E68.42553
G0 F7500 X79.525 Y99.259
G1 F1350 X76.759 Y102.024 E68.56211
G0 F7500 X76.166 Y102.024
G1 F1350 X79.525 Y98.665 E68.72801
G0 F7500 X79.525 Y98.071
G1 F1350 X75.572 Y102.024 E68.92325
G0 F7500 X74.978 Y102.024
G1 F1350 X79.525 Y97.477 E69.14782
G0 F7500 X79.525 Y96.883
G1 F1350 X74.384 Y102.024 E69.40172
G0 F7500 X73.79 Y102.024
G1 F1350 X79.525 Y96.289 E69.68497
G0 F7500 X79.525 Y95.695
G1 F1350 X73.196 Y102.024 E69.99755
G0 F7500 X72.602 Y102.024
G1 F1350 X79.525 Y95.101 E70.33947
G0 F7500 X79.525 Y94.507
G1 F1350 X72.008 Y102.024 E70.71072
G0 F7500 X71.414 Y102.024
G1 F1350 X79.525 Y93.913 E71.11132
G0 F7500 X79.525 Y93.319
G1 F1350 X70.82 Y102.024 E71.54125
G0 F7500 X70.474 Y101.776
G1 F1350 X79.277 Y92.973 E71.97601
G0 F7500 X78.684 Y92.973
G1 F1350 X70.474 Y101.182 E72.38147
G0 F7500 X70.474 Y100.588
G1 F1350 X78.09 Y92.973 E72.75759
G0 F7500 X77.496 Y92.973
G1 F1350 X70.474 Y99.994 E73.10438
G0 F7500 X70.474 Y99.4
G1 F1350 X76.902 Y92.973 E73.42182
G0 F7500 X76.308 Y92.973
G1 F1350 X70.474 Y98.806 E73.70993
G0 F7500 X70.474 Y98.212
G1 F1350 X75.714 Y92.973 E73.9687
