;FLAVOR:Marlin
;TIME:6666
;Filament used: 0m
;Layer height: 0.1
;MINX:2.14748e+06
;MINY:2.14748e+06
;MINZ:2.14748e+06
;MAXX:-2.14748e+06
;MAXY:-2.14748e+06
;MAXZ:-2.14748e+06
;TARGET_MACHINE.NAME:Kingroon KP3S

;Generated with Cura_SteamEngine 5.7.1
M140 S60
M104 S220
M190 S60
M109 S220
M82 ;absolute extrusion mode
G28 ; home all axes
 M117 Purge extruder
 G92 E0 ; reset extruder
 G1 Z1.0 F3000 ; move z up little to prevent scratching of surface
 G1 X2 Y20 Z0.3 F5000.0 ; move to start-line position
 G1 X2 Y175.0 Z0.3 F1500.0 E15 ; draw 1st line
 G1 X2 Y175.0 Z0.4 F5000.0 ; move to side a little
 G1 X2 Y20 Z0.4 F1500.0 E30 ; draw 2nd line
 G92 E0 ; reset extruder
 G1 Z1.0 F3000 ; move z up little to prevent scratching of surface
G92 E0
G92 E0
G1 F1500 E-4
;LAYER_COUNT:128
;LAYER:0
M107
;MESH:C:\Users\ee970\Documents\GitHub\BanteringPrinter\M_S\output_0.stl
G0 F3600 X72.556 Y80.056 Z0.3
;TYPE:WALL-INNER
G1 F1500 E0
G1 F1800 X72.556 Y69.94 E0.51478
G1 X62.44 Y69.94 E1.02957
G1 X62.44 Y80.056 E1.54435
G1 X72.556 Y80.056 E2.05913
G0 F3600 X72.956 Y80.456
G1 F1800 X72.956 Y69.54 E2.61463
G1 X62.04 Y69.54 E3.17012
G1 X62.04 Y80.456 E3.72561
G1 X72.956 Y80.456 E4.28111
G0 F3600 X73.356 Y80.856
;TYPE:WALL-OUTER
G1 F1800 X73.356 Y69.14 E4.86562
G1 X61.64 Y69.14 E5.45013
G1 X61.64 Y80.856 E6.03465
G1 X73.356 Y80.856 E6.61916
G0 F3600 X73.356 Y80.656
G0 X72.689 Y80.189
G0 X72.176 Y79.676
;TYPE:SKIN
G1 F1800 X62.82 Y79.676 E7.08593
G1 X62.82 Y70.32 E7.55271
G1 X72.176 Y70.32 E8.01948
G1 X72.176 Y79.676 E8.48625
G0 F3600 X71.651 Y70.52
G1 F1800 X71.976 Y70.845 E8.50918
G0 F3600 X71.976 Y71.411
G1 F1800 X71.085 Y70.52 E8.57205
G0 F3600 X70.52 Y70.52
G1 F1800 X71.976 Y71.976 E8.67478
G0 F3600 X71.976 Y72.542
G1 F1800 X69.954 Y70.52 E8.81744
G0 F3600 X69.388 Y70.52
G1 F1800 X71.976 Y73.108 E9.00004
G0 F3600 X71.976 Y73.673
G1 F1800 X68.823 Y70.52 E9.2225
G0 F3600 X68.257 Y70.52
G1 F1800 X71.976 Y74.239 E9.48489
G0 F3600 X71.976 Y74.805
G1 F1800 X67.691 Y70.52 E9.78722
G0 F3600 X67.126 Y70.52
G1 F1800 X71.976 Y75.371 E10.12945
G0 F3600 X71.976 Y75.936
G1 F1800 X66.56 Y70.52 E10.51158
G0 F3600 X65.994 Y70.52
G1 F1800 X71.976 Y76.502 E10.93364
G0 F3600 X71.976 Y77.068
G1 F1800 X65.429 Y70.52 E11.3956
G0 F3600 X64.863 Y70.52
G1 F1800 X71.976 Y77.633 E11.89746
G0 F3600 X71.976 Y78.199
G1 F1800 X64.297 Y70.52 E12.43926
G0 F3600 X63.732 Y70.52
G1 F1800 X71.976 Y78.765 E13.02095
G0 F3600 X71.976 Y79.33
G1 F1800 X63.166 Y70.52 E13.64255
G0 F3600 X63.02 Y70.94
G1 F1800 X71.556 Y79.476 E14.24481
G0 F3600 X70.991 Y79.476
G1 F1800 X63.02 Y71.505 E14.8072
G0 F3600 X63.02 Y72.071
G1 F1800 X70.425 Y79.476 E15.32967
G0 F3600 X69.859 Y79.476
G1 F1800 X63.02 Y72.637 E15.8122
G0 F3600 X63.02 Y73.203
G1 F1800 X69.294 Y79.476 E16.25482
G0 F3600 X68.728 Y79.476
G1 F1800 X63.02 Y73.768 E16.65755
G0 F3600 X63.02 Y74.334
G1 F1800 X68.162 Y79.476 E17.02035
G0 F3600 X67.597 Y79.476
G1 F1800 X63.02 Y74.9 E17.34325
G0 F3600 X63.02 Y75.465
G1 F1800 X67.031 Y79.476 E17.62625
G0 F3600 X66.465 Y79.476
G1 F1800 X63.02 Y76.031 E17.86931
G0 F3600 X63.02 Y76.597
G1 F1800 X65.9 Y79.476 E18.07247
G0 F3600 X65.334 Y79.476
G1 F1800 X63.02 Y77.162 E18.23574
G0 F3600 X63.02 Y77.728
G1 F1800 X64.768 Y79.476 E18.35907
G0 F3600 X64.202 Y79.476
G1 F1800 X63.02 Y78.294 E18.44247
G0 F3600 X63.02 Y78.859
G1 F1800 X63.637 Y79.476 E18.486
G1 X63.665 Y79.504
G1 F1500 E14.486
G0 F3600 X73.139 Y80.056
G0 X74.224 Y80.056
G0 X75.776 Y80.056
G0 X76.861 Y80.056
G0 X87.556 Y80.056
;TYPE:WALL-INNER
G1 F1500 E18.486
G1 F1800 X87.556 Y69.94 E19.00078
G1 X77.44 Y69.94 E19.51556
G1 X77.44 Y80.056 E20.03035
G1 X87.556 Y80.056 E20.54513
G0 F3600 X87.956 Y80.456
G1 F1800 X87.956 Y69.54 E21.10062
G1 X77.04 Y69.54 E21.65612
G1 X77.04 Y80.456 E22.21161
G1 X87.956 Y80.456 E22.7671
G0 F3600 X88.356 Y80.856
;TYPE:WALL-OUTER
G1 F1800 X88.356 Y69.14 E23.35162
G1 X76.64 Y69.14 E23.93613
G1 X76.64 Y80.856 E24.52065
G1 X88.356 Y80.856 E25.10516
G0 F3600 X88.356 Y80.656
G0 X87.689 Y80.189
G0 X87.176 Y79.676
;TYPE:SKIN
G1 F1800 X77.82 Y79.676 E25.57193
G1 X77.82 Y70.32 E26.0387
G1 X87.176 Y70.32 E26.50548
G1 X87.176 Y79.676 E26.97225
G0 F3600 X86.36 Y70.52
G1 F1800 X86.976 Y71.136 E27.01571
G0 F3600 X86.976 Y71.702
G1 F1800 X85.794 Y70.52 E27.09911
G0 F3600 X85.228 Y70.52
G1 F1800 X86.976 Y72.268 E27.22244
G0 F3600 X86.976 Y72.833
G1 F1800 X84.663 Y70.52 E27.38563
G0 F3600 X84.097 Y70.52
G1 F1800 X86.976 Y73.399 E27.58876
G0 F3600 X86.976 Y73.965
G1 F1800 X83.531 Y70.52 E27.83183
G0 F3600 X82.966 Y70.52
G1 F1800 X86.976 Y74.53 E28.11475
G0 F3600 X86.976 Y75.096
G1 F1800 X82.4 Y70.52 E28.43761
G0 F3600 X81.834 Y70.52
G1 F1800 X86.976 Y75.662 E28.80041
G0 F3600 X86.976 Y76.228
G1 F1800 X81.268 Y70.52 E29.20314
G0 F3600 X80.703 Y70.52
G1 F1800 X86.976 Y76.793 E29.64573
G0 F3600 X86.976 Y77.359
G1 F1800 X80.137 Y70.52 E30.12826
G0 F3600 X79.571 Y70.52
G1 F1800 X86.976 Y77.925 E30.65073
G0 F3600 X86.976 Y78.49
G1 F1800 X79.006 Y70.52 E31.21305
G0 F3600 X78.44 Y70.52
G1 F1800 X86.976 Y79.056 E31.81531
G0 F3600 X86.83 Y79.476
G1 F1800 X78.019 Y70.665 E32.43698
G0 F3600 X78.019 Y71.231
G1 F1800 X86.264 Y79.476 E33.01871
G0 F3600 X85.699 Y79.476
G1 F1800 X78.019 Y71.797 E33.56054
G0 F3600 X78.019 Y72.362
G1 F1800 X85.133 Y79.476 E34.06247
G0 F3600 X84.567 Y79.476
G1 F1800 X78.019 Y72.928 E34.52446
G0 F3600 X78.019 Y73.494
G1 F1800 X84.001 Y79.476 E34.94653
G0 F3600 X83.436 Y79.476
G1 F1800 X78.019 Y74.06 E35.32869
G0 F3600 X78.019 Y74.625
G1 F1800 X82.87 Y79.476 E35.67095
G0 F3600 X82.304 Y79.476
G1 F1800 X78.019 Y75.191 E35.97328
G0 F3600 X78.019 Y75.757
G1 F1800 X81.739 Y79.476 E36.23572
G0 F3600 X81.173 Y79.476
G1 F1800 X78.019 Y76.322 E36.45825
G0 F3600 X78.019 Y76.888
G1 F1800 X80.607 Y79.476 E36.64084
G0 F3600 X80.042 Y79.476
G1 F1800 X78.019 Y77.454 E36.78354
G0 F3600 X78.019 Y78.019
G1 F1800 X79.476 Y79.476 E36.88634
G0 F3600 X78.91 Y79.476
G1 F1800 X78.019 Y78.585 E36.94921
G0 F3600 X78.019 Y79.151
G1 F1800 X78.345 Y79.476 E36.97217
G1 F1500 E32.97217
G0 F3600 X76.855 Y80.645
G0 X75.776 Y80.645
G0 X73.145 Y83.275
G0 X73.145 Y84.354
G0 X72.556 Y95.06
;TYPE:WALL-INNER
G1 F1500 E36.97217
G1 F1800 X72.556 Y84.941 E37.48711
G1 X62.44 Y84.941 E38.00189
G1 X62.44 Y95.06 E38.51683
G1 X72.556 Y95.06 E39.03161
G0 F3600 X72.956 Y95.46
G1 F1800 X72.956 Y84.541 E39.58726
G1 X62.04 Y84.541 E40.14275
G1 X62.04 Y95.46 E40.6984
G1 X72.956 Y95.46 E41.25389
G0 F3600 X73.356 Y95.86
;TYPE:WALL-OUTER
G1 F1800 X73.356 Y84.141 E41.83855
G1 X61.64 Y84.141 E42.42307
G1 X61.64 Y95.86 E43.00773
G1 X73.356 Y95.86 E43.59224
G0 F3600 X73.356 Y95.66
G0 X72.689 Y95.19
G0 X72.176 Y94.68
;TYPE:SKIN
G1 F1800 X62.82 Y94.68 E44.05902
G1 X62.82 Y85.321 E44.52594
G1 X72.176 Y85.321 E44.99271
G1 X72.176 Y94.68 E45.45963
G0 F3600 X63.367 Y94.48
G1 F1800 X63.019 Y94.132 E45.48419
G0 F3600 X63.019 Y93.566
G1 F1800 X63.933 Y94.48 E45.54867
G0 F3600 X64.499 Y94.48
G1 F1800 X63.019 Y93.001 E45.65306
G0 F3600 X63.019 Y92.435
G1 F1800 X65.064 Y94.48 E45.79735
G0 F3600 X65.63 Y94.48
G1 F1800 X63.019 Y91.869 E45.98157
G0 F3600 X63.019 Y91.304
G1 F1800 X66.196 Y94.48 E46.20569
G0 F3600 X66.761 Y94.48
G1 F1800 X63.019 Y90.738 E46.4697
G0 F3600 X63.019 Y90.172
G1 F1800 X67.327 Y94.48 E46.77366
G0 F3600 X67.893 Y94.48
G1 F1800 X63.019 Y89.607 E47.11751
G0 F3600 X63.019 Y89.041
G1 F1800 X68.459 Y94.48 E47.5013
G0 F3600 X69.024 Y94.48
G1 F1800 X63.019 Y88.475 E47.92498
G0 F3600 X63.019 Y87.91
G1 F1800 X69.59 Y94.48 E48.38856
G0 F3600 X70.156 Y94.48
G1 F1800 X63.019 Y87.344 E48.89208
G0 F3600 X63.019 Y86.778
G1 F1800 X70.721 Y94.48 E49.4355
G0 F3600 X71.287 Y94.48
G1 F1800 X63.019 Y86.213 E50.01882
G0 F3600 X63.019 Y85.647
G1 F1800 X71.853 Y94.48 E50.64207
G0 F3600 X71.976 Y94.037
G1 F1800 X63.459 Y85.521 E51.24295
G0 F3600 X64.025 Y85.521
G1 F1800 X71.976 Y93.472 E51.80394
G0 F3600 X71.976 Y92.906
G1 F1800 X64.591 Y85.521 E52.32499
G0 F3600 X65.156 Y85.521
G1 F1800 X71.976 Y92.34 E52.80614
G0 F3600 X71.976 Y91.775
G1 F1800 X65.722 Y85.521 E53.2474
G0 F3600 X66.288 Y85.521
G1 F1800 X71.976 Y91.209 E53.64872
G0 F3600 X71.976 Y90.643
G1 F1800 X66.853 Y85.521 E54.01014
G0 F3600 X67.419 Y85.521
G1 F1800 X71.976 Y90.078 E54.33166
G0 F3600 X71.976 Y89.512
G1 F1800 X67.985 Y85.521 E54.61324
G0 F3600 X68.55 Y85.521
G1 F1800 X71.976 Y88.946 E54.85493
G0 F3600 X71.976 Y88.381
G1 F1800 X69.116 Y85.521 E55.05672
G0 F3600 X69.682 Y85.521
G1 F1800 X71.976 Y87.815 E55.21857
G0 F3600 X71.976 Y87.249
G1 F1800 X70.248 Y85.521 E55.34049
G0 F3600 X70.813 Y85.521
G1 F1800 X71.976 Y86.684 E55.42255
G0 F3600 X71.976 Y86.118
G1 F1800 X71.379 Y85.521 E55.46467
G1 X71.351 Y85.493
G1 F1500 E51.46467
G0 F3600 X72.556 Y95.64
G0 X72.556 Y96.725
G0 X72.556 Y98.276
G0 X72.556 Y99.361
G0 X72.556 Y110.06
;TYPE:WALL-INNER
G1 F1500 E55.46467
G1 F1800 X72.556 Y99.941 E55.97961
G1 X62.44 Y99.941 E56.49439
G1 X62.44 Y110.06 E57.00933
G1 X72.556 Y110.06 E57.52411
G0 F3600 X72.956 Y110.46
G1 F1800 X72.956 Y99.541 E58.07976
G1 X62.04 Y99.541 E58.63525
G1 X62.04 Y110.46 E59.1909
G1 X72.956 Y110.46 E59.74639
G0 F3600 X73.356 Y110.86
;TYPE:WALL-OUTER
G1 F1800 X73.356 Y99.141 E60.33105
G1 X61.64 Y99.141 E60.91557
G1 X61.64 Y110.86 E61.50023
G1 X73.356 Y110.86 E62.08474
G0 F3600 X73.356 Y110.66
G0 X72.689 Y110.19
G0 X72.176 Y109.68
;TYPE:SKIN
G1 F1800 X62.82 Y109.68 E62.55152
G1 X62.82 Y100.321 E63.01844
G1 X72.176 Y100.321 E63.48521
G1 X72.176 Y109.68 E63.95213
G0 F3600 X63.02 Y109.406
G1 F1800 X63.094 Y109.48 E63.95735
G0 F3600 X63.659 Y109.48
G1 F1800 X63.02 Y108.841 E64.00244
G0 F3600 X63.02 Y108.275
G1 F1800 X64.225 Y109.48 E64.08746
G0 F3600 X64.791 Y109.48
G1 F1800 X63.02 Y107.709 E64.21241
G0 F3600 X63.02 Y107.144
G1 F1800 X65.356 Y109.48 E64.37723
G0 F3600 X65.922 Y109.48
G1 F1800 X63.02 Y106.578 E64.58198
G0 F3600 X63.02 Y106.012
G1 F1800 X66.488 Y109.48 E64.82667
G0 F3600 X67.054 Y109.48
G1 F1800 X63.02 Y105.447 E65.11125
G0 F3600 X63.02 Y104.881
G1 F1800 X67.619 Y109.48 E65.43574
G0 F3600 X68.185 Y109.48
G1 F1800 X63.02 Y104.315 E65.80015
G0 F3600 X63.02 Y103.75
G1 F1800 X68.751 Y109.48 E66.20447
G0 F3600 X69.316 Y109.48
G1 F1800 X63.02 Y103.184 E66.64869
G0 F3600 X63.02 Y102.618
G1 F1800 X69.882 Y109.48 E67.13284
G0 F3600 X70.448 Y109.48
G1 F1800 X63.02 Y102.052 E67.65693
G0 F3600 X63.02 Y101.487
G1 F1800 X71.013 Y109.48 E68.22088
G0 F3600 X71.579 Y109.48
G1 F1800 X63.02 Y100.921 E68.82476
G0 F3600 X63.186 Y100.521
G1 F1800 X71.976 Y109.312 E69.44498
G0 F3600 X71.976 Y108.746
G1 F1800 X63.751 Y100.521 E70.02529
G0 F3600 X64.317 Y100.521
G1 F1800 X71.976 Y108.18 E70.56568
G0 F3600 X71.976 Y107.615
G1 F1800 X64.883 Y100.521 E71.06616
G0 F3600 X65.448 Y100.521
G1 F1800 X71.976 Y107.049 E71.52675
G0 F3600 X71.976 Y106.483
G1 F1800 X66.014 Y100.521 E71.9474
G0 F3600 X66.58 Y100.521
G1 F1800 X71.976 Y105.918 E72.32815
G0 F3600 X71.976 Y105.352
G1 F1800 X67.145 Y100.521 E72.66901
G0 F3600 X67.711 Y100.521
G1 F1800 X71.976 Y104.786 E72.96992
G0 F3600 X71.976 Y104.22
G1 F1800 X68.277 Y100.521 E73.23091
G0 F3600 X68.843 Y100.521
G1 F1800 X71.976 Y103.655 E73.45199
G0 F3600 X71.976 Y103.089
G1 F1800 X69.408 Y100.521 E73.63318
G0 F3600 X69.974 Y100.521
G1 F1800 X71.976 Y102.523 E73.77443
G0 F3600 X71.976 Y101.958
G1 F1800 X70.54 Y100.521 E73.87579
G0 F3600 X71.105 Y100.521
G1 F1800 X71.976 Y101.392 E73.93724
G0 F3600 X71.976 Y100.826
G1 F1800 X71.671 Y100.521 E73.95876
G1 F1500 E69.95876
G0 F3600 X73.139 Y110.06
G0 X74.224 Y110.06
G0 X75.776 Y110.06
G0 X76.861 Y110.06
G0 X87.556 Y110.06
;TYPE:WALL-INNER
G1 F1500 E73.95876
G1 F1800 X87.556 Y99.941 E74.47369
G1 X77.44 Y99.941 E74.98848
G1 X77.44 Y110.06 E75.50341
G1 X87.556 Y110.06 E76.0182
G0 F3600 X87.956 Y110.46
G1 F1800 X87.956 Y99.541 E76.57384
G1 X77.04 Y99.541 E77.12934
G1 X77.04 Y110.46 E77.68498
G1 X87.956 Y110.46 E78.24048
G0 F3600 X88.356 Y110.86
;TYPE:WALL-OUTER
G1 F1800 X88.356 Y99.141 E78.82514
G1 X76.64 Y99.141 E79.40965
G1 X76.64 Y110.86 E79.99432
G1 X88.356 Y110.86 E80.57883
G0 F3600 X88.356 Y110.66
G0 X87.689 Y110.19
G0 X87.176 Y109.68
;TYPE:SKIN
G1 F1800 X77.82 Y109.68 E81.0456
G1 X77.82 Y100.321 E81.51252
G1 X87.176 Y100.321 E81.9793
G1 X87.176 Y109.68 E82.44622
G0 F3600 X78.02 Y109.133
G1 F1800 X78.367 Y109.48 E82.4707
G0 F3600 X78.933 Y109.48
G1 F1800 X78.02 Y108.567 E82.53512
G0 F3600 X78.02 Y108.001
G1 F1800 X79.499 Y109.48 E82.63947
G0 F3600 X80.064 Y109.48
G1 F1800 X78.02 Y107.436 E82.78369
G0 F3600 X78.02 Y106.87
G1 F1800 X80.63 Y109.48 E82.96784
G0 F3600 X81.196 Y109.48
G1 F1800 X78.02 Y106.304 E83.19192
G0 F3600 X78.02 Y105.739
G1 F1800 X81.761 Y109.48 E83.45587
G0 F3600 X82.327 Y109.48
G1 F1800 X78.02 Y105.173 E83.75975
G0 F3600 X78.02 Y104.607
G1 F1800 X82.893 Y109.48 E84.10357
G0 F3600 X83.458 Y109.48
G1 F1800 X78.02 Y104.042 E84.48725
G0 F3600 X78.02 Y103.476
G1 F1800 X84.024 Y109.48 E84.91086
G0 F3600 X84.59 Y109.48
G1 F1800 X78.02 Y102.91 E85.37441
G0 F3600 X78.02 Y102.345
G1 F1800 X85.155 Y109.48 E85.87782
G0 F3600 X85.721 Y109.48
G1 F1800 X78.02 Y101.779 E86.42117
G0 F3600 X78.02 Y101.213
G1 F1800 X86.287 Y109.48 E87.00445
G0 F3600 X86.853 Y109.48
G1 F1800 X78.02 Y100.647 E87.62767
G0 F3600 X78.46 Y100.522
G1 F1800 X86.976 Y109.037 E88.22848
G0 F3600 X86.976 Y108.472
G1 F1800 X79.026 Y100.522 E88.7894
G0 F3600 X79.591 Y100.522
G1 F1800 X86.976 Y107.906 E89.31041
G0 F3600 X86.976 Y107.34
G1 F1800 X80.157 Y100.522 E89.7915
G0 F3600 X80.723 Y100.522
G1 F1800 X86.976 Y106.775 E90.23268
G0 F3600 X86.976 Y106.209
G1 F1800 X81.288 Y100.522 E90.63396
G0 F3600 X81.854 Y100.522
G1 F1800 X86.976 Y105.643 E90.99531
G0 F3600 X86.976 Y105.077
G1 F1800 X82.42 Y100.522 E91.31673
G0 F3600 X82.985 Y100.522
G1 F1800 X86.976 Y104.512 E91.59828
G0 F3600 X86.976 Y103.946
G1 F1800 X83.551 Y100.522 E91.83989
G0 F3600 X84.117 Y100.522
G1 F1800 X86.976 Y103.38 E92.04158
G0 F3600 X86.976 Y102.815
G1 F1800 X84.682 Y100.522 E92.2034
G0 F3600 X85.248 Y100.522
G1 F1800 X86.976 Y102.249 E92.32528
G0 F3600 X86.976 Y101.683
G1 F1800 X85.814 Y100.522 E92.40723
G0 F3600 X86.379 Y100.522
G1 F1800 X86.976 Y101.118 E92.44932
G1 X87.004 Y101.146
G1 F1500 E88.44932
G0 F3600 X88.139 Y110.06
G0 X89.224 Y110.06
G0 X90.776 Y110.06
G0 X91.861 Y110.06
G0 X102.556 Y110.06
;TYPE:WALL-INNER
G1 F1500 E92.44932
G1 F1800 X102.556 Y99.941 E92.96425
G1 X92.44 Y99.941 E93.47904
G1 X92.44 Y110.06 E93.99397
G1 X102.556 Y110.06 E94.50875
G0 F3600 X102.956 Y110.46
G1 F1800 X102.956 Y99.541 E95.0644
G1 X92.04 Y99.541 E95.61989
G1 X92.04 Y110.46 E96.17554
G1 X102.956 Y110.46 E96.73103
G0 F3600 X103.356 Y110.86
;TYPE:WALL-OUTER
G1 F1800 X103.356 Y99.141 E97.3157
G1 X91.64 Y99.141 E97.90021
G1 X91.64 Y110.86 E98.48487
G1 X103.356 Y110.86 E99.06939
G0 F3600 X103.356 Y110.66
G0 X102.689 Y110.19
G0 X102.176 Y109.68
;TYPE:SKIN
G1 F1800 X92.82 Y109.68 E99.53616
G1 X92.82 Y100.321 E100.00308
G1 X102.176 Y100.321 E100.46986
G1 X102.176 Y109.68 E100.93678
G0 F3600 X93.02 Y108.859
G1 F1800 X93.641 Y109.48 E100.98059
G0 F3600 X94.206 Y109.48
G1 F1800 X93.02 Y108.293 E101.06431
G0 F3600 X93.02 Y107.728
G1 F1800 X94.772 Y109.48 E101.18792
G0 F3600 X95.338 Y109.48
G1 F1800 X93.02 Y107.162 E101.35147
G0 F3600 X93.02 Y106.596
G1 F1800 X95.903 Y109.48 E101.55491
G0 F3600 X96.469 Y109.48
G1 F1800 X93.02 Y106.031 E101.79826
G0 F3600 X93.02 Y105.465
G1 F1800 X97.035 Y109.48 E102.08154
G0 F3600 X97.601 Y109.48
G1 F1800 X93.02 Y104.899 E102.40475
G0 F3600 X93.02 Y104.334
G1 F1800 X98.166 Y109.48 E102.76783
G0 F3600 X98.732 Y109.48
G1 F1800 X93.02 Y103.768 E103.17084
G0 F3600 X93.02 Y103.202
G1 F1800 X99.298 Y109.48 E103.61379
