;FLAVOR:Marlin
;TIME:6666
;Filament used: 0m
;Layer height: 0.1
;MINX:2.14748e+06
;MINY:2.14748e+06
;MINZ:2.14748e+06
;MAXX:-2.14748e+06
;MAXY:-2.14748e+06
;MAXZ:-2.14748e+06
;TARGET_MACHINE.NAME:Kingroon KP3S

;Generated with Cura_SteamEngine 5.7.1
M140 S60
M105
M190 S60
M104 S215
M105
M109 S215
M82 ;absolute extrusion mode
G28 ; home all axes
 M117 Purge extruder
 G92 E0 ; reset extruder
 G1 Z1.0 F3000 ; move z up little to prevent scratching of surface
 G1 X2 Y20 Z0.3 F5000.0 ; move to start-line position
 G1 X2 Y175.0 Z0.3 F1500.0 E15 ; draw 1st line
 G1 X2 Y175.0 Z0.4 F5000.0 ; move to side a little
 G1 X2 Y20 Z0.4 F1500.0 E30 ; draw 2nd line
 G92 E0 ; reset extruder
 G1 Z1.0 F3000 ; move z up little to prevent scratching of surface
G92 E0
G92 E0
G1 F1500 E-4
;LAYER_COUNT:63
;LAYER:0
M107
;MESH:C:\Users\Haruki\Documents\GitHub\BanteringPrinter\M_S\output_0.stl
G0 F3600 X77.345 Y107.65 Z0.3
;TYPE:WALL-INNER
G1 F1500 E0
G1 F1800 X77.672 Y107.319 E0.02368
G1 X77.809 Y107.053 E0.0389
G1 X77.9 Y106.541 E0.06537
G1 X77.9 Y103.29 E0.2308
G1 X77.65 Y102.656 E0.26548
G1 X77.323 Y102.327 E0.28909
G1 X77.056 Y102.19 E0.30436
G1 X76.746 Y102.1 E0.32079
G1 X73.279 Y102.1 E0.49722
G1 X72.656 Y102.346 E0.5313
G1 X72.326 Y102.677 E0.55509
G1 X72.186 Y102.946 E0.57052
G1 X72.1 Y103.245 E0.58635
G1 X72.1 Y106.755 E0.76497
G1 X72.186 Y107.052 E0.7807
G1 X72.324 Y107.319 E0.796
G1 X72.655 Y107.653 E0.81993
G1 X73.287 Y107.9 E0.85446
G1 X76.708 Y107.9 E1.02854
G1 X77.345 Y107.65 E1.06337
G0 F3600 X77.549 Y107.999
G1 F1800 X77.798 Y107.797 E1.07968
G1 X78.008 Y107.54 E1.09657
G1 X78.183 Y107.201 E1.11599
G1 X78.267 Y106.905 E1.13164
G1 X78.3 Y106.56 E1.14928
G1 X78.3 Y103.43 E1.30856
G1 X78.271 Y103.139 E1.32344
G1 X78 Y102.451 E1.36107
G1 X77.782 Y102.184 E1.37861
G1 X77.542 Y101.99 E1.39432
G1 X77.205 Y101.817 E1.41359
G1 X76.905 Y101.729 E1.4295
G1 X76.562 Y101.7 E1.44702
G1 X73.203 Y101.7 E1.61795
G1 X72.451 Y101.997 E1.6591
G1 X72.185 Y102.213 E1.67653
G1 X71.989 Y102.458 E1.6925
G1 X71.813 Y102.796 E1.71189
G1 X71.73 Y103.085 E1.72719
G1 X71.7 Y103.433 E1.74497
G1 X71.7 Y106.57 E1.9046
G1 X71.729 Y106.91 E1.92197
G1 X71.813 Y107.201 E1.93738
G1 X71.988 Y107.54 E1.95679
G1 X72.199 Y107.797 E1.97372
G1 X72.451 Y108.003 E1.99028
G1 X73.137 Y108.27 E2.02774
G1 X73.437 Y108.3 E2.04308
G1 X76.558 Y108.3 E2.2019
G1 X76.858 Y108.271 E2.21724
G1 X77.549 Y107.999 E2.25503
G0 F3600 X77.753 Y108.349
;TYPE:WALL-OUTER
G1 F1800 X78.082 Y108.081 E2.2762
G1 X78.344 Y107.761 E2.29683
G1 X78.557 Y107.349 E2.31997
G1 X78.662 Y106.979 E2.33916
G1 X78.7 Y106.578 E2.35926
G1 X78.7 Y103.41 E2.51731
G1 X78.663 Y103.044 E2.53566
G1 X78.349 Y102.247 E2.5784
G1 X78.066 Y101.899 E2.60078
G1 X77.762 Y101.653 E2.62029
G1 X77.353 Y101.443 E2.64323
G1 X76.979 Y101.334 E2.66266
G1 X76.579 Y101.3 E2.68269
G1 X73.417 Y101.3 E2.84044
G1 X73.043 Y101.333 E2.85917
G1 X72.247 Y101.647 E2.90186
G1 X71.899 Y101.93 E2.92424
G1 X71.653 Y102.238 E2.94391
G1 X71.439 Y102.647 E2.96694
G1 X71.334 Y103.013 E2.98593
G1 X71.3 Y103.417 E3.00616
G1 X71.3 Y106.587 E3.16431
G1 X71.334 Y106.983 E3.18414
G1 X71.439 Y107.349 E3.20314
G1 X71.652 Y107.761 E3.22628
G1 X71.915 Y108.081 E3.24694
G1 X72.247 Y108.353 E3.26835
G1 X73.043 Y108.663 E3.31097
G1 X73.418 Y108.7 E3.32977
G1 X76.578 Y108.7 E3.48743
G1 X76.952 Y108.663 E3.50618
G1 X77.753 Y108.349 E3.5491
G0 F3600 X77.908 Y108.223
G0 X77.467 Y107.683
G0 X72.858 Y107.325
;TYPE:SKIN
G1 F1800 X72.648 Y107.109 E3.56413
G1 X72.481 Y106.689 E3.58668
G1 X72.48 Y103.465 E3.74752
G1 X72.545 Y103.08 E3.767
G1 X72.64 Y102.892 E3.77751
G1 X72.857 Y102.675 E3.79282
G1 X73.35 Y102.48 E3.81927
G1 X76.704 Y102.48 E3.9866
G1 X77.106 Y102.646 E4.0083
G1 X77.321 Y102.861 E4.02347
G1 X77.52 Y103.359 E4.05023
G1 X77.519 Y106.522 E4.20803
G1 X77.448 Y106.914 E4.22791
G1 X77.351 Y107.101 E4.23842
G1 X77.142 Y107.317 E4.25341
G1 X76.633 Y107.519 E4.28073
G1 X73.358 Y107.52 E4.44412
G1 X72.858 Y107.325 E4.4709
G0 F3600 X73.369 Y107.31
G1 F1800 X72.681 Y106.622 E4.51944
G0 F3600 X72.681 Y106.056
G1 F1800 X73.944 Y107.32 E4.60859
G0 F3600 X74.51 Y107.32
G1 F1800 X72.681 Y105.49 E4.73767
G0 F3600 X72.68 Y104.924
G1 F1800 X75.075 Y107.319 E4.90665
G0 F3600 X75.641 Y107.319
G1 F1800 X72.68 Y104.358 E5.11556
G0 F3600 X72.68 Y103.793
G1 F1800 X76.206 Y107.319 E5.36434
G0 F3600 X76.721 Y107.268
G1 F1800 X72.717 Y103.264 E5.64684
G0 F3600 X72.917 Y102.898
G1 F1800 X77.096 Y107.077 E5.94169
G0 F3600 X77.284 Y106.7
G1 F1800 X73.3 Y102.716 E6.22279
G0 F3600 X73.83 Y102.68
G1 F1800 X77.319 Y106.169 E6.46896
G0 F3600 X77.319 Y105.604
G1 F1800 X74.396 Y102.68 E6.67522
G0 F3600 X74.962 Y102.68
G1 F1800 X77.319 Y105.038 E6.84156
G0 F3600 X77.32 Y104.473
G1 F1800 X75.527 Y102.68 E6.96806
G0 F3600 X76.093 Y102.68
G1 F1800 X77.32 Y103.907 E7.05464
G0 F3600 X77.284 Y103.305
G1 F1800 X76.659 Y102.68 E7.09873
G1 X76.631 Y102.652
G1 F1500 E3.09873
G0 F3600 X78.481 Y106.581
G0 X79.565 Y106.581
G0 X85.435 Y106.579
G0 X86.519 Y106.579
G0 X92.345 Y107.65
;TYPE:WALL-INNER
G1 F1500 E7.09873
G1 F1800 X92.672 Y107.319 E7.12241
G1 X92.809 Y107.053 E7.13764
G1 X92.9 Y106.541 E7.1641
G1 X92.9 Y103.29 E7.32954
G1 X92.65 Y102.656 E7.36422
G1 X92.323 Y102.327 E7.38782
G1 X92.056 Y102.19 E7.40309
G1 X91.746 Y102.1 E7.41952
G1 X88.279 Y102.1 E7.59595
G1 X87.656 Y102.346 E7.63003
G1 X87.326 Y102.677 E7.65382
G1 X87.186 Y102.946 E7.66925
G1 X87.1 Y103.245 E7.68508
G1 X87.1 Y106.755 E7.8637
G1 X87.186 Y107.052 E7.87943
G1 X87.324 Y107.319 E7.89473
G1 X87.655 Y107.653 E7.91866
G1 X88.287 Y107.9 E7.95319
G1 X91.708 Y107.9 E8.12728
G1 X92.345 Y107.65 E8.1621
G0 F3600 X92.549 Y107.999
G1 F1800 X92.798 Y107.797 E8.17842
G1 X93.008 Y107.54 E8.1953
G1 X93.183 Y107.201 E8.21472
G1 X93.267 Y106.905 E8.23038
G1 X93.3 Y106.56 E8.24801
G1 X93.3 Y103.43 E8.40729
G1 X93.271 Y103.139 E8.42217
G1 X93 Y102.451 E8.4598
G1 X92.782 Y102.184 E8.47734
G1 X92.542 Y101.99 E8.49305
G1 X92.205 Y101.817 E8.51232
G1 X91.905 Y101.729 E8.52823
G1 X91.562 Y101.7 E8.54575
G1 X88.203 Y101.7 E8.71668
G1 X87.451 Y101.997 E8.75783
G1 X87.185 Y102.213 E8.77527
G1 X86.989 Y102.458 E8.79123
G1 X86.813 Y102.796 E8.81062
G1 X86.73 Y103.085 E8.82593
G1 X86.7 Y103.433 E8.8437
G1 X86.7 Y106.57 E9.00334
G1 X86.729 Y106.91 E9.0207
G1 X86.813 Y107.201 E9.03611
G1 X86.988 Y107.54 E9.05553
G1 X87.199 Y107.797 E9.07245
G1 X87.451 Y108.003 E9.08901
G1 X88.137 Y108.27 E9.12647
G1 X88.437 Y108.3 E9.14181
G1 X91.558 Y108.3 E9.30064
G1 X91.858 Y108.271 E9.31597
G1 X92.549 Y107.999 E9.35376
G0 F3600 X92.753 Y108.349
;TYPE:WALL-OUTER
G1 F1800 X93.082 Y108.081 E9.37493
G1 X93.344 Y107.761 E9.39557
G1 X93.557 Y107.349 E9.41871
G1 X93.662 Y106.979 E9.43789
G1 X93.7 Y106.578 E9.45799
G1 X93.7 Y103.41 E9.61604
G1 X93.663 Y103.044 E9.6344
G1 X93.349 Y102.247 E9.67713
G1 X93.066 Y101.899 E9.69951
G1 X92.762 Y101.653 E9.71902
G1 X92.353 Y101.443 E9.74196
G1 X91.979 Y101.334 E9.76139
G1 X91.579 Y101.3 E9.78142
G1 X88.417 Y101.3 E9.93917
G1 X88.043 Y101.333 E9.95791
G1 X87.247 Y101.647 E10.0006
G1 X86.899 Y101.93 E10.02297
G1 X86.653 Y102.238 E10.04264
G1 X86.439 Y102.647 E10.06567
G1 X86.334 Y103.013 E10.08467
G1 X86.3 Y103.417 E10.10489
G1 X86.3 Y106.587 E10.26305
G1 X86.334 Y106.983 E10.28287
G1 X86.439 Y107.349 E10.30187
G1 X86.652 Y107.761 E10.32501
G1 X86.915 Y108.081 E10.34567
G1 X87.247 Y108.353 E10.36709
G1 X88.043 Y108.663 E10.40971
G1 X88.418 Y108.7 E10.42851
G1 X91.578 Y108.7 E10.58616
G1 X91.952 Y108.663 E10.60491
G1 X92.753 Y108.349 E10.64783
G0 F3600 X92.908 Y108.223
G0 X92.467 Y107.683
G0 X87.858 Y107.325
;TYPE:SKIN
G1 F1800 X87.648 Y107.109 E10.66286
G1 X87.481 Y106.689 E10.68541
G1 X87.48 Y103.465 E10.84626
G1 X87.545 Y103.08 E10.86574
G1 X87.64 Y102.892 E10.87624
G1 X87.857 Y102.675 E10.89156
G1 X88.35 Y102.48 E10.91801
G1 X91.704 Y102.48 E11.08534
G1 X92.106 Y102.646 E11.10704
G1 X92.321 Y102.861 E11.1222
G1 X92.52 Y103.359 E11.14896
G1 X92.519 Y106.522 E11.30676
G1 X92.448 Y106.914 E11.32664
G1 X92.351 Y107.101 E11.33715
G1 X92.142 Y107.317 E11.35214
G1 X91.633 Y107.519 E11.37946
G1 X88.358 Y107.52 E11.54285
G1 X87.858 Y107.325 E11.56963
G0 F3600 X88.651 Y107.319
G1 F1800 X87.68 Y106.347 E11.63817
G0 F3600 X87.68 Y105.782
G1 F1800 X89.217 Y107.319 E11.74662
G0 F3600 X89.783 Y107.319
G1 F1800 X87.68 Y105.216 E11.895
G0 F3600 X87.68 Y104.65
G1 F1800 X90.348 Y107.319 E12.08327
G0 F3600 X90.914 Y107.319
G1 F1800 X87.68 Y104.085 E12.31145
G0 F3600 X87.68 Y103.519
G1 F1800 X91.48 Y107.319 E12.57956
G0 F3600 X91.917 Y107.19
G1 F1800 X87.782 Y103.055 E12.87131
G0 F3600 X88.091 Y102.798
G1 F1800 X92.217 Y106.925 E13.16245
G0 F3600 X92.32 Y106.462
G1 F1800 X88.538 Y102.68 E13.42929
G0 F3600 X89.103 Y102.68
G1 F1800 X92.32 Y105.896 E13.65623
G0 F3600 X92.32 Y105.331
G1 F1800 X89.669 Y102.68 E13.84328
G0 F3600 X90.235 Y102.68
G1 F1800 X92.32 Y104.765 E13.99039
G0 F3600 X92.32 Y104.199
G1 F1800 X90.8 Y102.68 E14.09759
G0 F3600 X91.366 Y102.68
G1 F1800 X92.32 Y103.634 E14.1649
G1 X92.348 Y103.662
G1 F1500 E10.1649
G0 F3600 X93.481 Y106.581
G0 X94.565 Y106.581
G0 X100.435 Y106.579
G0 X101.519 Y106.579
G0 X107.345 Y107.65
;TYPE:WALL-INNER
G1 F1500 E14.1649
G1 F1800 X107.672 Y107.319 E14.18858
G1 X107.809 Y107.053 E14.20381
G1 X107.9 Y106.541 E14.23027
G1 X107.9 Y103.29 E14.39571
G1 X107.65 Y102.656 E14.43039
G1 X107.323 Y102.327 E14.45399
G1 X107.056 Y102.19 E14.46926
G1 X106.746 Y102.1 E14.48569
G1 X103.279 Y102.1 E14.66212
G1 X102.656 Y102.346 E14.69621
G1 X102.326 Y102.677 E14.71999
G1 X102.186 Y102.946 E14.73542
G1 X102.1 Y103.245 E14.75125
G1 X102.1 Y106.755 E14.92987
G1 X102.186 Y107.052 E14.94561
G1 X102.324 Y107.319 E14.9609
G1 X102.655 Y107.653 E14.98483
G1 X103.287 Y107.9 E15.01936
G1 X106.708 Y107.9 E15.19345
G1 X107.345 Y107.65 E15.22827
G0 F3600 X107.549 Y107.999
G1 F1800 X107.798 Y107.797 E15.24459
G1 X108.008 Y107.54 E15.26148
G1 X108.183 Y107.201 E15.28089
G1 X108.267 Y106.905 E15.29655
G1 X108.3 Y106.56 E15.31418
G1 X108.3 Y103.43 E15.47346
G1 X108.271 Y103.139 E15.48835
G1 X108 Y102.451 E15.52597
G1 X107.782 Y102.184 E15.54352
G1 X107.542 Y101.99 E15.55922
G1 X107.205 Y101.817 E15.5785
G1 X106.905 Y101.729 E15.59441
G1 X106.562 Y101.7 E15.61192
G1 X103.203 Y101.7 E15.78286
G1 X102.451 Y101.997 E15.824
G1 X102.185 Y102.213 E15.84144
G1 X101.989 Y102.458 E15.8574
G1 X101.813 Y102.796 E15.8768
G1 X101.73 Y103.085 E15.8921
G1 X101.7 Y103.433 E15.90987
G1 X101.7 Y106.57 E16.06951
G1 X101.729 Y106.91 E16.08687
G1 X101.813 Y107.201 E16.10228
G1 X101.988 Y107.54 E16.1217
G1 X102.199 Y107.797 E16.13862
G1 X102.451 Y108.003 E16.15518
G1 X103.137 Y108.27 E16.19264
G1 X103.437 Y108.3 E16.20799
G1 X106.558 Y108.3 E16.36681
G1 X106.858 Y108.271 E16.38214
G1 X107.549 Y107.999 E16.41993
G0 F3600 X107.753 Y108.349
;TYPE:WALL-OUTER
G1 F1800 X108.082 Y108.081 E16.44111
G1 X108.344 Y107.761 E16.46174
G1 X108.557 Y107.349 E16.48488
G1 X108.662 Y106.979 E16.50407
G1 X108.7 Y106.578 E16.52416
G1 X108.7 Y103.41 E16.68221
G1 X108.663 Y103.044 E16.70057
G1 X108.349 Y102.247 E16.7433
G1 X108.066 Y101.899 E16.76568
G1 X107.762 Y101.653 E16.78519
G1 X107.353 Y101.443 E16.80813
G1 X106.979 Y101.334 E16.82756
G1 X106.579 Y101.3 E16.84759
G1 X103.417 Y101.3 E17.00535
G1 X103.043 Y101.333 E17.02408
G1 X102.247 Y101.647 E17.06677
G1 X101.899 Y101.93 E17.08915
G1 X101.653 Y102.238 E17.10881
G1 X101.439 Y102.647 E17.13184
G1 X101.334 Y103.013 E17.15084
G1 X101.3 Y103.417 E17.17106
G1 X101.3 Y106.587 E17.32922
G1 X101.334 Y106.983 E17.34905
G1 X101.439 Y107.349 E17.36804
G1 X101.652 Y107.761 E17.39118
G1 X101.915 Y108.081 E17.41185
G1 X102.247 Y108.353 E17.43326
G1 X103.043 Y108.663 E17.47588
G1 X103.418 Y108.7 E17.49468
G1 X106.578 Y108.7 E17.65233
G1 X106.952 Y108.663 E17.67108
G1 X107.753 Y108.349 E17.714
G0 F3600 X107.908 Y108.223
G0 X107.467 Y107.683
G0 X102.858 Y107.325
;TYPE:SKIN
G1 F1800 X102.648 Y107.109 E17.72903
G1 X102.481 Y106.689 E17.75158
G1 X102.48 Y103.465 E17.91243
G1 X102.545 Y103.08 E17.93191
G1 X102.64 Y102.892 E17.94242
G1 X102.857 Y102.675 E17.95773
G1 X103.35 Y102.48 E17.98418
G1 X106.704 Y102.48 E18.15151
G1 X107.106 Y102.646 E18.17321
G1 X107.321 Y102.861 E18.18838
G1 X107.52 Y103.359 E18.21513
G1 X107.519 Y106.522 E18.37293
G1 X107.448 Y106.914 E18.39281
G1 X107.351 Y107.101 E18.40332
G1 X107.142 Y107.317 E18.41831
G1 X106.633 Y107.519 E18.44564
G1 X103.358 Y107.52 E18.60903
G1 X102.858 Y107.325 E18.6358
G0 F3600 X103.337 Y107.297
G1 F1800 X102.68 Y106.64 E18.68216
G0 F3600 X102.68 Y106.075
G1 F1800 X103.925 Y107.319 E18.76996
G0 F3600 X104.491 Y107.319
G1 F1800 X102.68 Y105.509 E18.8977
G0 F3600 X102.68 Y104.943
G1 F1800 X105.056 Y107.319 E19.06534
G0 F3600 X105.622 Y107.319
G1 F1800 X102.68 Y104.377 E19.27292
G0 F3600 X102.68 Y103.812
G1 F1800 X106.188 Y107.319 E19.52039
G0 F3600 X106.708 Y107.274
G1 F1800 X102.714 Y103.279 E19.80222
G0 F3600 X102.907 Y102.907
G1 F1800 X107.087 Y107.087 E20.09714
G0 F3600 X107.282 Y106.716
G1 F1800 X103.286 Y102.721 E20.37905
G0 F3600 X103.812 Y102.68
G1 F1800 X107.32 Y106.188 E20.62656
G0 F3600 X107.32 Y105.623
G1 F1800 X104.377 Y102.68 E20.8342
G0 F3600 X104.943 Y102.68
G1 F1800 X107.32 Y105.057 E21.00191
G0 F3600 X107.32 Y104.491
G1 F1800 X105.509 Y102.68 E21.12969
G0 F3600 X106.075 Y102.68
G1 F1800 X107.32 Y103.926 E21.21756
G0 F3600 X107.296 Y103.336
G1 F1800 X106.64 Y102.68 E21.26385
G1 X106.612 Y102.652
G1 F1500 E17.26385
G0 F3600 X106.581 Y101.519
G0 X106.581 Y100.435
G0 X107.003 Y94.529
G0 X106.905 Y93.451
G0 X107.345 Y92.65
;TYPE:WALL-INNER
G1 F1500 E21.26385
G1 F1800 X107.672 Y92.319 E21.28753
G1 X107.809 Y92.053 E21.30275
G1 X107.9 Y91.541 E21.32922
G1 X107.9 Y88.29 E21.49465
G1 X107.65 Y87.656 E21.52933
G1 X107.323 Y87.327 E21.55294
G1 X107.056 Y87.19 E21.56821
G1 X106.746 Y87.1 E21.58464
G1 X103.279 Y87.1 E21.76106
G1 X102.656 Y87.346 E21.79515
G1 X102.326 Y87.677 E21.81893
G1 X102.186 Y87.946 E21.83437
G1 X102.1 Y88.245 E21.8502
G1 X102.1 Y91.755 E22.02882
G1 X102.186 Y92.052 E22.04455
G1 X102.324 Y92.319 E22.05985
G1 X102.655 Y92.653 E22.08377
G1 X103.287 Y92.9 E22.1183
G1 X106.708 Y92.9 E22.29239
G1 X107.345 Y92.65 E22.32721
G0 F3600 X107.549 Y92.999
G1 F1800 X107.798 Y92.797 E22.34353
G1 X108.008 Y92.54 E22.36042
G1 X108.183 Y92.201 E22.37983
G1 X108.267 Y91.905 E22.39549
G1 X108.3 Y91.56 E22.41313
G1 X108.3 Y88.43 E22.57241
G1 X108.271 Y88.139 E22.58729
G1 X108 Y87.451 E22.62492
G1 X107.782 Y87.184 E22.64246
G1 X107.542 Y86.99 E22.65816
G1 X107.205 Y86.817 E22.67744
G1 X106.905 Y86.729 E22.69335
G1 X106.562 Y86.7 E22.71087
G1 X103.203 Y86.7 E22.8818
G1 X102.451 Y86.997 E22.92294
G1 X102.185 Y87.213 E22.94038
G1 X101.989 Y87.458 E22.95635
G1 X101.813 Y87.796 E22.97574
G1 X101.73 Y88.085 E22.99104
G1 X101.7 Y88.433 E23.00882
G1 X101.7 Y91.57 E23.16845
G1 X101.729 Y91.91 E23.18582
G1 X101.813 Y92.201 E23.20123
G1 X101.988 Y92.54 E23.22064
G1 X102.199 Y92.797 E23.23756
G1 X102.451 Y93.003 E23.25413
G1 X103.137 Y93.27 E23.29159
G1 X103.437 Y93.3 E23.30693
G1 X106.558 Y93.3 E23.46575
G1 X106.858 Y93.271 E23.48109
G1 X107.549 Y92.999 E23.51888
G0 F3600 X107.753 Y93.349
;TYPE:WALL-OUTER
G1 F1800 X108.082 Y93.081 E23.54005
G1 X108.344 Y92.761 E23.56068
G1 X108.557 Y92.349 E23.58382
G1 X108.662 Y91.979 E23.60301
G1 X108.7 Y91.578 E23.62311
G1 X108.7 Y88.41 E23.78116
G1 X108.663 Y88.044 E23.79951
G1 X108.349 Y87.247 E23.84225
G1 X108.066 Y86.899 E23.86463
G1 X107.762 Y86.653 E23.88414
G1 X107.353 Y86.443 E23.90707
G1 X106.979 Y86.334 E23.92651
G1 X106.579 Y86.3 E23.94654
G1 X103.417 Y86.3 E24.10429
G1 X103.043 Y86.333 E24.12302
G1 X102.247 Y86.647 E24.16571
G1 X101.899 Y86.93 E24.18809
G1 X101.653 Y87.238 E24.20776
G1 X101.439 Y87.647 E24.23079
G1 X101.334 Y88.013 E24.24978
G1 X101.3 Y88.417 E24.27001
G1 X101.3 Y91.587 E24.42816
G1 X101.334 Y91.983 E24.44799
G1 X101.439 Y92.349 E24.46699
G1 X101.652 Y92.761 E24.49013
G1 X101.915 Y93.081 E24.51079
G1 X102.247 Y93.353 E24.5322
G1 X103.043 Y93.663 E24.57482
G1 X103.418 Y93.7 E24.59362
G1 X106.578 Y93.7 E24.75127
G1 X106.952 Y93.663 E24.77002
G1 X107.753 Y93.349 E24.81295
G0 F3600 X107.908 Y93.223
G0 X107.467 Y92.683
G0 X102.858 Y92.325
