;FLAVOR:Marlin
;TIME:6666
;Filament used: 0m
;Layer height: 0.1
;MINX:2.14748e+06
;MINY:2.14748e+06
;MINZ:2.14748e+06
;MAXX:-2.14748e+06
;MAXY:-2.14748e+06
;MAXZ:-2.14748e+06
;TARGET_MACHINE.NAME:Kingroon KP3S

;Generated with Cura_SteamEngine 5.7.1
M140 S60
M104 S220
M190 S60
M109 S220
M82 ;absolute extrusion mode
G28 ; home all axes
 M117 Purge extruder
 G92 E0 ; reset extruder
 G1 Z1.0 F3000 ; move z up little to prevent scratching of surface
 G1 X2 Y20 Z0.3 F5000.0 ; move to start-line position
 G1 X2 Y175.0 Z0.3 F1500.0 E15 ; draw 1st line
 G1 X2 Y175.0 Z0.4 F5000.0 ; move to side a little
 G1 X2 Y20 Z0.4 F1500.0 E30 ; draw 2nd line
 G92 E0 ; reset extruder
 G1 Z1.0 F3000 ; move z up little to prevent scratching of surface
G92 E0
G92 E0
G1 F1500 E-4
;LAYER_COUNT:128
;LAYER:0
M107
;MESH:C:\Users\ee970\Documents\GitHub\BanteringPrinter\M_S\output_2.stl
G0 F3600 X80.056 Y80.056 Z0.3
;TYPE:WALL-INNER
G1 F1500 E0
G1 F1800 X80.056 Y69.94 E0.51478
G1 X69.94 Y69.94 E1.02957
G1 X69.94 Y80.056 E1.54435
G1 X80.056 Y80.056 E2.05913
G0 F3600 X80.456 Y80.456
G1 F1800 X80.456 Y69.54 E2.61463
G1 X69.54 Y69.54 E3.17012
G1 X69.54 Y80.456 E3.72561
G1 X80.456 Y80.456 E4.28111
G0 F3600 X80.856 Y80.856
;TYPE:WALL-OUTER
G1 F1800 X80.856 Y69.14 E4.86562
G1 X69.14 Y69.14 E5.45013
G1 X69.14 Y80.856 E6.03465
G1 X80.856 Y80.856 E6.61916
G0 F3600 X80.856 Y80.656
G0 X80.189 Y80.189
G0 X79.676 Y79.676
;TYPE:SKIN
G1 F1800 X70.32 Y79.676 E7.08593
G1 X70.32 Y70.32 E7.55271
G1 X79.676 Y70.32 E8.01948
G1 X79.676 Y79.676 E8.48625
G0 F3600 X79.005 Y70.52
G1 F1800 X79.476 Y70.991 E8.51948
G0 F3600 X79.476 Y71.556
G1 F1800 X78.439 Y70.52 E8.59261
G0 F3600 X77.874 Y70.52
G1 F1800 X79.476 Y72.122 E8.70564
G0 F3600 X79.476 Y72.688
G1 F1800 X77.308 Y70.52 E8.85861
G0 F3600 X76.742 Y70.52
G1 F1800 X79.476 Y73.253 E9.05147
G0 F3600 X79.476 Y73.819
G1 F1800 X76.177 Y70.52 E9.28423
G0 F3600 X75.611 Y70.52
G1 F1800 X79.476 Y74.385 E9.55693
G0 F3600 X79.476 Y74.95
G1 F1800 X75.045 Y70.52 E9.86953
G0 F3600 X74.48 Y70.52
G1 F1800 X79.476 Y75.516 E10.22202
G0 F3600 X79.476 Y76.082
G1 F1800 X73.914 Y70.52 E10.61445
G0 F3600 X73.348 Y70.52
G1 F1800 X79.476 Y76.648 E11.04681
G0 F3600 X79.476 Y77.213
G1 F1800 X72.783 Y70.52 E11.51904
G0 F3600 X72.217 Y70.52
G1 F1800 X79.476 Y77.779 E12.0312
G0 F3600 X79.476 Y78.345
G1 F1800 X71.651 Y70.52 E12.5833
G0 F3600 X71.085 Y70.52
G1 F1800 X79.476 Y78.91 E13.17529
G0 F3600 X79.476 Y79.476
G1 F1800 X70.52 Y70.52 E13.80719
G0 F3600 X70.52 Y71.085
G1 F1800 X78.91 Y79.476 E14.39918
G0 F3600 X78.345 Y79.476
G1 F1800 X70.52 Y71.651 E14.95128
G0 F3600 X70.52 Y72.217
G1 F1800 X77.779 Y79.476 E15.46344
G0 F3600 X77.213 Y79.476
G1 F1800 X70.52 Y72.783 E15.93567
G0 F3600 X70.52 Y73.348
G1 F1800 X76.648 Y79.476 E16.36803
G0 F3600 X76.082 Y79.476
G1 F1800 X70.52 Y73.914 E16.76046
G0 F3600 X70.52 Y74.48
G1 F1800 X75.516 Y79.476 E17.11295
G0 F3600 X74.95 Y79.476
G1 F1800 X70.52 Y75.045 E17.42555
G0 F3600 X70.52 Y75.611
G1 F1800 X74.385 Y79.476 E17.69825
G0 F3600 X73.819 Y79.476
G1 F1800 X70.52 Y76.177 E17.93101
G0 F3600 X70.52 Y76.742
G1 F1800 X73.253 Y79.476 E18.12387
G0 F3600 X72.688 Y79.476
G1 F1800 X70.52 Y77.308 E18.27684
G0 F3600 X70.52 Y77.874
G1 F1800 X72.122 Y79.476 E18.38987
G0 F3600 X71.556 Y79.476
G1 F1800 X70.52 Y78.439 E18.463
G0 F3600 X70.52 Y79.005
G1 F1800 X70.991 Y79.476 E18.49623
G1 F1500 E14.49623
G0 F3600 X80.056 Y80.639
G0 X80.056 Y81.724
G0 X80.056 Y83.275
G0 X80.056 Y84.36
G0 X80.056 Y95.06
;TYPE:WALL-INNER
G1 F1500 E18.49623
G1 F1800 X80.056 Y84.941 E19.01116
G1 X69.94 Y84.941 E19.52595
G1 X69.94 Y95.06 E20.04088
G1 X80.056 Y95.06 E20.55567
G0 F3600 X80.456 Y95.46
G1 F1800 X80.456 Y84.541 E21.11131
G1 X69.54 Y84.541 E21.66681
G1 X69.54 Y95.46 E22.22245
G1 X80.456 Y95.46 E22.77795
G0 F3600 X80.856 Y95.86
;TYPE:WALL-OUTER
G1 F1800 X80.856 Y84.141 E23.36261
G1 X69.14 Y84.141 E23.94712
G1 X69.14 Y95.86 E24.53179
G1 X80.856 Y95.86 E25.1163
G0 F3600 X80.856 Y95.66
G0 X80.189 Y95.19
G0 X79.676 Y94.68
;TYPE:SKIN
G1 F1800 X70.32 Y94.68 E25.58307
G1 X70.32 Y85.321 E26.04999
G1 X79.676 Y85.321 E26.51677
G1 X79.676 Y94.68 E26.98369
G0 F3600 X70.52 Y94.279
G1 F1800 X70.721 Y94.479 E26.99784
G0 F3600 X71.286 Y94.479
G1 F1800 X70.52 Y93.714 E27.05185
G0 F3600 X70.52 Y93.148
G1 F1800 X71.852 Y94.479 E27.14579
G0 F3600 X72.418 Y94.479
G1 F1800 X70.52 Y92.582 E27.27967
G0 F3600 X70.52 Y92.017
G1 F1800 X72.983 Y94.479 E27.45341
G0 F3600 X73.549 Y94.479
G1 F1800 X70.52 Y91.451 E27.66709
G0 F3600 X70.52 Y90.885
G1 F1800 X74.115 Y94.479 E27.9207
G0 F3600 X74.68 Y94.479
G1 F1800 X70.52 Y90.319 E28.21421
G0 F3600 X70.52 Y89.754
G1 F1800 X75.246 Y94.479 E28.54762
G0 F3600 X75.812 Y94.479
G1 F1800 X70.52 Y89.188 E28.92096
G0 F3600 X70.52 Y88.622
G1 F1800 X76.377 Y94.479 E29.33421
G0 F3600 X76.943 Y94.479
G1 F1800 X70.52 Y88.057 E29.78735
G0 F3600 X70.52 Y87.491
G1 F1800 X77.509 Y94.479 E30.28043
G0 F3600 X78.074 Y94.479
G1 F1800 X70.52 Y86.925 E30.8134
G0 F3600 X70.52 Y86.36
G1 F1800 X78.64 Y94.479 E31.38628
G0 F3600 X79.206 Y94.479
G1 F1800 X70.52 Y85.794 E31.99909
G0 F3600 X70.813 Y85.521
G1 F1800 X79.476 Y94.184 E32.61031
G0 F3600 X79.476 Y93.618
G1 F1800 X71.379 Y85.521 E33.18159
G0 F3600 X71.945 Y85.521
G1 F1800 X79.476 Y93.052 E33.71295
G0 F3600 X79.476 Y92.487
G1 F1800 X72.51 Y85.521 E34.20444
G0 F3600 X73.076 Y85.521
G1 F1800 X79.476 Y91.921 E34.65599
G0 F3600 X79.476 Y91.355
G1 F1800 X73.642 Y85.521 E35.06761
G0 F3600 X74.207 Y85.521
G1 F1800 X79.476 Y90.79 E35.43937
G0 F3600 X79.476 Y90.224
G1 F1800 X74.773 Y85.521 E35.77119
G0 F3600 X75.339 Y85.521
G1 F1800 X79.476 Y89.658 E36.06308
G0 F3600 X79.476 Y89.093
G1 F1800 X75.904 Y85.521 E36.3151
G0 F3600 X76.47 Y85.521
G1 F1800 X79.476 Y88.527 E36.52719
G0 F3600 X79.476 Y87.961
G1 F1800 X77.036 Y85.521 E36.69934
G0 F3600 X77.601 Y85.521
G1 F1800 X79.476 Y87.396 E36.83164
G0 F3600 X79.476 Y86.83
G1 F1800 X78.167 Y85.521 E36.92399
G0 F3600 X78.733 Y85.521
G1 F1800 X79.476 Y86.264 E36.97642
G0 F3600 X79.476 Y85.699
G1 F1800 X79.298 Y85.521 E36.98897
G1 F1500 E32.98897
G0 F3600 X80.056 Y95.64
G0 X80.056 Y96.725
G0 X80.056 Y98.276
G0 X80.056 Y99.361
G0 X80.056 Y110.06
;TYPE:WALL-INNER
G1 F1500 E36.98897
G1 F1800 X80.056 Y99.941 E37.50391
G1 X69.94 Y99.941 E38.01869
G1 X69.94 Y110.06 E38.53363
G1 X80.056 Y110.06 E39.04841
G0 F3600 X80.456 Y110.46
G1 F1800 X80.456 Y99.541 E39.60406
G1 X69.54 Y99.541 E40.15955
G1 X69.54 Y110.46 E40.7152
G1 X80.456 Y110.46 E41.27069
G0 F3600 X80.856 Y110.86
;TYPE:WALL-OUTER
G1 F1800 X80.856 Y99.141 E41.85535
G1 X69.14 Y99.141 E42.43987
G1 X69.14 Y110.86 E43.02453
G1 X80.856 Y110.86 E43.60905
G0 F3600 X80.856 Y110.66
G0 X80.189 Y110.19
G0 X79.676 Y109.68
;TYPE:SKIN
G1 F1800 X70.32 Y109.68 E44.07582
G1 X70.32 Y100.321 E44.54274
G1 X79.676 Y100.321 E45.00951
G1 X79.676 Y109.68 E45.47644
G0 F3600 X71.013 Y109.48
G1 F1800 X70.52 Y108.986 E45.51125
G0 F3600 X70.52 Y108.421
G1 F1800 X71.579 Y109.48 E45.58597
G0 F3600 X72.145 Y109.48
G1 F1800 X70.52 Y107.855 E45.70063
G0 F3600 X70.52 Y107.289
G1 F1800 X72.71 Y109.48 E45.85518
G0 F3600 X73.276 Y109.48
G1 F1800 X70.52 Y106.724 E46.04963
G0 F3600 X70.52 Y106.158
G1 F1800 X73.842 Y109.48 E46.28401
G0 F3600 X74.407 Y109.48
G1 F1800 X70.52 Y105.592 E46.5583
G0 F3600 X70.52 Y105.027
G1 F1800 X74.973 Y109.48 E46.87248
G0 F3600 X75.539 Y109.48
G1 F1800 X70.52 Y104.461 E47.2266
G0 F3600 X70.52 Y103.895
G1 F1800 X76.104 Y109.48 E47.62061
G0 F3600 X76.67 Y109.48
G1 F1800 X70.52 Y103.33 E48.05453
G0 F3600 X70.52 Y102.764
G1 F1800 X77.236 Y109.48 E48.52838
G0 F3600 X77.802 Y109.48
G1 F1800 X70.52 Y102.198 E49.04216
G0 F3600 X70.52 Y101.632
G1 F1800 X78.367 Y109.48 E49.59585
G0 F3600 X78.933 Y109.48
G1 F1800 X70.52 Y101.067 E50.18943
G0 F3600 X70.54 Y100.521
G1 F1800 X79.476 Y109.457 E50.81991
G0 F3600 X79.476 Y108.892
G1 F1800 X71.105 Y100.521 E51.41053
G0 F3600 X71.671 Y100.521
G1 F1800 X79.476 Y108.326 E51.96122
G0 F3600 X79.476 Y107.76
G1 F1800 X72.237 Y100.521 E52.47197
G0 F3600 X72.802 Y100.521
G1 F1800 X79.476 Y107.195 E52.94286
G0 F3600 X79.476 Y106.629
G1 F1800 X73.368 Y100.521 E53.37381
G0 F3600 X73.934 Y100.521
G1 F1800 X79.476 Y106.063 E53.76483
G0 F3600 X79.476 Y105.498
G1 F1800 X74.499 Y100.521 E54.11598
G0 F3600 X75.065 Y100.521
G1 F1800 X79.476 Y104.932 E54.4272
G0 F3600 X79.476 Y104.366
G1 F1800 X75.631 Y100.521 E54.69849
G0 F3600 X76.196 Y100.521
G1 F1800 X79.476 Y103.8 E54.92987
G0 F3600 X79.476 Y103.235
G1 F1800 X76.762 Y100.521 E55.12136
G0 F3600 X77.328 Y100.521
G1 F1800 X79.476 Y102.669 E55.27291
G0 F3600 X79.476 Y102.103
G1 F1800 X77.893 Y100.521 E55.38457
G0 F3600 X78.459 Y100.521
G1 F1800 X79.476 Y101.538 E55.45632
G0 F3600 X79.476 Y100.972
G1 F1800 X79.025 Y100.521 E55.48814
G1 F1500 E51.48814
G0 F3600 X80.645 Y99.355
G0 X80.645 Y98.276
G0 X83.275 Y95.646
G0 X84.354 Y95.646
G0 X95.06 Y95.06
;TYPE:WALL-INNER
G1 F1500 E55.48814
G1 F1800 X95.06 Y84.94 E56.00313
G1 X84.94 Y84.94 E56.51811
G1 X84.94 Y95.06 E57.0331
G1 X95.06 Y95.06 E57.54809
G0 F3600 X95.46 Y95.46
G1 F1800 X95.46 Y84.54 E58.10378
G1 X84.54 Y84.54 E58.65948
G1 X84.54 Y95.46 E59.21518
G1 X95.46 Y95.46 E59.77088
G0 F3600 X95.86 Y95.86
;TYPE:WALL-OUTER
G1 F1800 X95.86 Y84.14 E60.35559
G1 X84.14 Y84.14 E60.9403
G1 X84.14 Y95.86 E61.52502
G1 X95.86 Y95.86 E62.10973
G0 F3600 X95.86 Y95.66
G0 X95.19 Y95.19
G0 X94.68 Y94.68
;TYPE:SKIN
G1 F1800 X85.32 Y94.68 E62.5767
G1 X85.32 Y85.32 E63.04367
G1 X94.68 Y85.32 E63.51065
G1 X94.68 Y94.68 E63.97762
G0 F3600 X94.006 Y85.52
G1 F1800 X94.48 Y85.995 E64.0111
G0 F3600 X94.48 Y86.56
G1 F1800 X93.44 Y85.52 E64.08447
G0 F3600 X92.874 Y85.52
G1 F1800 X94.48 Y87.126 E64.19779
G0 F3600 X94.48 Y87.692
G1 F1800 X92.309 Y85.52 E64.351
G0 F3600 X91.743 Y85.52
G1 F1800 X94.48 Y88.258 E64.54414
G0 F3600 X94.48 Y88.823
G1 F1800 X91.177 Y85.52 E64.77719
G0 F3600 X90.611 Y85.52
G1 F1800 X94.48 Y89.389 E65.05017
G0 F3600 X94.48 Y89.955
G1 F1800 X90.046 Y85.52 E65.36304
G0 F3600 X89.48 Y85.52
G1 F1800 X94.48 Y90.52 E65.71582
G0 F3600 X94.48 Y91.086
G1 F1800 X88.914 Y85.52 E66.10853
G0 F3600 X88.349 Y85.52
G1 F1800 X94.48 Y91.652 E66.54114
G0 F3600 X94.48 Y92.217
G1 F1800 X87.783 Y85.52 E67.01365
G0 F3600 X87.217 Y85.52
G1 F1800 X94.48 Y92.783 E67.5261
G0 F3600 X94.48 Y93.349
G1 F1800 X86.652 Y85.52 E68.07844
G0 F3600 X86.086 Y85.52
G1 F1800 X94.48 Y93.914 E68.67068
G0 F3600 X94.48 Y94.48
G1 F1800 X85.52 Y85.52 E69.30286
G0 F3600 X85.52 Y86.085
G1 F1800 X93.914 Y94.48 E69.89513
G0 F3600 X93.349 Y94.48
G1 F1800 X85.52 Y86.651 E70.44751
G0 F3600 X85.52 Y87.217
G1 F1800 X92.783 Y94.48 E70.95996
G0 F3600 X92.217 Y94.48
G1 F1800 X85.52 Y87.782 E71.4325
G0 F3600 X85.52 Y88.348
G1 F1800 X91.652 Y94.48 E71.86515
G0 F3600 X91.086 Y94.48
G1 F1800 X85.52 Y88.914 E72.25786
G0 F3600 X85.52 Y89.479
G1 F1800 X90.52 Y94.48 E72.61067
G0 F3600 X89.955 Y94.48
G1 F1800 X85.52 Y90.045 E72.92358
G0 F3600 X85.52 Y90.611
G1 F1800 X89.389 Y94.48 E73.19656
G0 F3600 X88.823 Y94.48
G1 F1800 X85.52 Y91.176 E73.42964
G0 F3600 X85.52 Y91.742
G1 F1800 X88.258 Y94.48 E73.62282
G0 F3600 X87.692 Y94.48
G1 F1800 X85.52 Y92.308 E73.77607
G0 F3600 X85.52 Y92.874
G1 F1800 X87.126 Y94.48 E73.88938
G0 F3600 X86.56 Y94.48
G1 F1800 X85.52 Y93.439 E73.96279
G0 F3600 X85.52 Y94.005
G1 F1800 X85.995 Y94.48 E73.99631
G1 F1500 E69.99631
G0 F3600 X95.64 Y95.06
G0 X96.725 Y95.06
G0 X98.276 Y95.06
G0 X99.361 Y95.06
G0 X110.06 Y95.06
;TYPE:WALL-INNER
G1 F1500 E73.99631
G1 F1800 X110.06 Y84.94 E74.5113
G1 X99.94 Y84.94 E75.02628
G1 X99.94 Y95.06 E75.54127
G1 X110.06 Y95.06 E76.05625
G0 F3600 X110.46 Y95.46
G1 F1800 X110.46 Y84.54 E76.61195
G1 X99.54 Y84.54 E77.16765
G1 X99.54 Y95.46 E77.72335
G1 X110.46 Y95.46 E78.27904
G0 F3600 X110.86 Y95.86
;TYPE:WALL-OUTER
G1 F1800 X110.86 Y84.14 E78.86376
G1 X99.14 Y84.14 E79.44847
G1 X99.14 Y95.86 E80.03318
G1 X110.86 Y95.86 E80.6179
G0 F3600 X110.86 Y95.66
G0 X110.19 Y95.19
G0 X109.68 Y94.68
;TYPE:SKIN
G1 F1800 X100.32 Y94.68 E81.08487
G1 X100.32 Y85.32 E81.55184
G1 X109.68 Y85.32 E82.01881
G1 X109.68 Y94.68 E82.48578
G0 F3600 X109.279 Y85.52
G1 F1800 X109.48 Y85.721 E82.49997
G0 F3600 X109.48 Y86.287
G1 F1800 X108.713 Y85.52 E82.55408
G0 F3600 X108.148 Y85.52
G1 F1800 X109.48 Y86.853 E82.6481
G0 F3600 X109.48 Y87.418
G1 F1800 X107.582 Y85.52 E82.78201
G0 F3600 X107.016 Y85.52
G1 F1800 X109.48 Y87.984 E82.95586
G0 F3600 X109.48 Y88.55
G1 F1800 X106.451 Y85.52 E83.16961
G0 F3600 X105.885 Y85.52
G1 F1800 X109.48 Y89.115 E83.42325
G0 F3600 X109.48 Y89.681
G1 F1800 X105.319 Y85.52 E83.71684
G0 F3600 X104.754 Y85.52
G1 F1800 X109.48 Y90.247 E84.05032
G0 F3600 X109.48 Y90.812
G1 F1800 X104.188 Y85.52 E84.42369
G0 F3600 X103.622 Y85.52
G1 F1800 X109.48 Y91.378 E84.83701
G0 F3600 X109.48 Y91.944
G1 F1800 X103.057 Y85.52 E85.29022
G0 F3600 X102.491 Y85.52
G1 F1800 X109.48 Y92.509 E85.78333
G0 F3600 X109.48 Y93.075
G1 F1800 X101.925 Y85.52 E86.31638
G0 F3600 X101.36 Y85.52
G1 F1800 X109.48 Y93.641 E86.88932
G0 F3600 X109.48 Y94.206
G1 F1800 X100.794 Y85.52 E87.50217
G0 F3600 X100.52 Y85.812
G1 F1800 X109.187 Y94.479 E88.11367
G0 F3600 X108.622 Y94.479
G1 F1800 X100.52 Y86.378 E88.68528
G0 F3600 X100.52 Y86.944
G1 F1800 X108.056 Y94.479 E89.21695
G0 F3600 X107.49 Y94.479
G1 F1800 X100.52 Y87.509 E89.70872
G0 F3600 X100.52 Y88.075
G1 F1800 X106.924 Y94.479 E90.16055
G0 F3600 X106.359 Y94.479
G1 F1800 X100.52 Y88.641 E90.57249
G0 F3600 X100.52 Y89.206
G1 F1800 X105.793 Y94.479 E90.94453
G0 F3600 X105.227 Y94.479
G1 F1800 X100.52 Y89.772 E91.27664
G0 F3600 X100.52 Y90.338
G1 F1800 X104.662 Y94.479 E91.56884
G0 F3600 X104.096 Y94.479
G1 F1800 X100.52 Y90.904 E91.82111
G0 F3600 X100.52 Y91.469
G1 F1800 X103.53 Y94.479 E92.03348
G0 F3600 X102.965 Y94.479
G1 F1800 X100.52 Y92.035 E92.20596
G0 F3600 X100.52 Y92.601
G1 F1800 X102.399 Y94.479 E92.33849
G0 F3600 X101.833 Y94.479
G1 F1800 X100.52 Y93.166 E92.43113
G0 F3600 X100.52 Y93.732
G1 F1800 X101.268 Y94.479 E92.48387
G0 F3600 X100.702 Y94.479
G1 F1800 X100.52 Y94.298 E92.49668
G1 F1500 E88.49668
G0 F3600 X110.06 Y95.64
G0 X110.06 Y96.725
G0 X110.06 Y98.276
G0 X110.06 Y99.361
G0 X110.06 Y110.06
;TYPE:WALL-INNER
G1 F1500 E92.49668
G1 F1800 X110.06 Y99.94 E93.01167
G1 X99.94 Y99.94 E93.52665
G1 X99.94 Y110.06 E94.04164
G1 X110.06 Y110.06 E94.55663
G0 F3600 X110.46 Y110.46
G1 F1800 X110.46 Y99.54 E95.11232
G1 X99.54 Y99.54 E95.66802
G1 X99.54 Y110.46 E96.22372
G1 X110.46 Y110.46 E96.77941
G0 F3600 X110.86 Y110.86
;TYPE:WALL-OUTER
G1 F1800 X110.86 Y99.14 E97.36413
G1 X99.14 Y99.14 E97.94884
G1 X99.14 Y110.86 E98.53355
G1 X110.86 Y110.86 E99.11827
G0 F3600 X110.86 Y110.66
G0 X110.19 Y110.19
G0 X109.68 Y109.68
;TYPE:SKIN
G1 F1800 X100.32 Y109.68 E99.58524
G1 X100.32 Y100.32 E100.05221
G1 X109.68 Y100.32 E100.51918
G1 X109.68 Y109.68 E100.98616
G0 F3600 X109.005 Y100.52
G1 F1800 X109.48 Y100.995 E101.01967
G0 F3600 X109.48 Y101.56
G1 F1800 X108.44 Y100.52 E101.09305
G0 F3600 X107.874 Y100.52
G1 F1800 X109.48 Y102.126 E101.20636
G0 F3600 X109.48 Y102.692
G1 F1800 X107.308 Y100.52 E101.35961
G0 F3600 X106.743 Y100.52
G1 F1800 X109.48 Y103.257 E101.55272
G0 F3600 X109.48 Y103.823
G1 F1800 X106.177 Y100.52 E101.78576
G0 F3600 X105.611 Y100.52
G1 F1800 X109.48 Y104.389 E102.05874
G0 F3600 X109.48 Y104.954
G1 F1800 X105.046 Y100.52 E102.37158
G0 F3600 X104.48 Y100.52
G1 F1800 X109.48 Y105.52 E102.72436
G0 F3600 X109.48 Y106.086
G1 F1800 X103.914 Y100.52 E103.11707
G0 F3600 X103.349 Y100.52
G1 F1800 X109.48 Y106.652 E103.54968
G0 F3600 X109.48 Y107.217
G1 F1800 X102.783 Y100.52 E104.02219
G0 F3600 X102.217 Y100.52
G1 F1800 X109.48 Y107.783 E104.53463
