;FLAVOR:Marlin
;TIME:6666
;Filament used: 0m
;Layer height: 0.1
;MINX:2.14748e+06
;MINY:2.14748e+06
;MINZ:2.14748e+06
;MAXX:-2.14748e+06
;MAXY:-2.14748e+06
;MAXZ:-2.14748e+06
;TARGET_MACHINE.NAME:Kingroon KP3S

;Generated with Cura_SteamEngine 5.7.1
M140 S60
M104 S220
M190 S60
M109 S220
M82 ;absolute extrusion mode
G28 ; home all axes
 M117 Purge extruder
 G92 E0 ; reset extruder
 G1 Z1.0 F3000 ; move z up little to prevent scratching of surface
 G1 X2 Y20 Z0.3 F5000.0 ; move to start-line position
 G1 X2 Y175.0 Z0.3 F1500.0 E15 ; draw 1st line
 G1 X2 Y175.0 Z0.4 F5000.0 ; move to side a little
 G1 X2 Y20 Z0.4 F1500.0 E30 ; draw 2nd line
 G92 E0 ; reset extruder
 G1 Z1.0 F3000 ; move z up little to prevent scratching of surface
G92 E0
G92 E0
G1 F1500 E-4
;LAYER_COUNT:128
;LAYER:0
M107
;MESH:C:\Users\Haruki\Documents\GitHub\BanteringPrinter\M_S\output_2.stl
G0 F3600 X95.059 Y80.056 Z0.3
;TYPE:WALL-INNER
G1 F1500 E0
G1 F1800 X95.059 Y69.94 E0.51478
G1 X84.94 Y69.94 E1.02972
G1 X84.94 Y80.056 E1.5445
G1 X95.059 Y80.056 E2.05944
G0 F3600 X95.459 Y80.456
G1 F1800 X95.459 Y69.54 E2.61493
G1 X84.54 Y69.54 E3.17058
G1 X84.54 Y80.456 E3.72607
G1 X95.459 Y80.456 E4.28172
G0 F3600 X95.859 Y80.856
;TYPE:WALL-OUTER
G1 F1800 X95.859 Y69.14 E4.86623
G1 X84.14 Y69.14 E5.45089
G1 X84.14 Y80.856 E6.03541
G1 X95.859 Y80.856 E6.62007
G0 F3600 X95.859 Y80.656
G0 X95.19 Y80.189
G0 X94.676 Y79.676
;TYPE:SKIN
G1 F1800 X85.32 Y79.676 E7.08684
G1 X85.32 Y70.32 E7.55362
G1 X94.676 Y70.32 E8.02039
G1 X94.676 Y79.676 E8.48716
G0 F3600 X85.52 Y79.298
G1 F1800 X85.699 Y79.476 E8.49976
G0 F3600 X86.264 Y79.476
G1 F1800 X85.52 Y78.732 E8.55225
G0 F3600 X85.52 Y78.166
G1 F1800 X86.83 Y79.476 E8.64468
G0 F3600 X87.396 Y79.476
G1 F1800 X85.52 Y77.601 E8.777
G0 F3600 X85.52 Y77.035
G1 F1800 X87.961 Y79.476 E8.94923
G0 F3600 X88.527 Y79.476
G1 F1800 X85.52 Y76.469 E9.16139
G0 F3600 X85.52 Y75.904
G1 F1800 X89.093 Y79.476 E9.41345
G0 F3600 X89.658 Y79.476
G1 F1800 X85.52 Y75.338 E9.70541
G0 F3600 X85.52 Y74.772
G1 F1800 X90.224 Y79.476 E10.0373
G0 F3600 X90.79 Y79.476
G1 F1800 X85.52 Y74.207 E10.40909
G0 F3600 X85.52 Y73.641
G1 F1800 X91.355 Y79.476 E10.82078
G0 F3600 X91.921 Y79.476
G1 F1800 X85.52 Y73.075 E11.27241
G0 F3600 X85.52 Y72.51
G1 F1800 X92.487 Y79.476 E11.76393
G0 F3600 X93.052 Y79.476
G1 F1800 X85.52 Y71.944 E12.29535
G0 F3600 X85.52 Y71.378
G1 F1800 X93.618 Y79.476 E12.86671
G0 F3600 X94.184 Y79.476
G1 F1800 X85.52 Y70.813 E13.47797
G0 F3600 X85.794 Y70.52
G1 F1800 X94.477 Y79.203 E14.0906
G0 F3600 X94.477 Y78.637
G1 F1800 X86.36 Y70.52 E14.6633
G0 F3600 X86.925 Y70.52
G1 F1800 X94.477 Y78.072 E15.19613
G0 F3600 X94.477 Y77.506
G1 F1800 X87.491 Y70.52 E15.68903
G0 F3600 X88.057 Y70.52
G1 F1800 X94.477 Y76.94 E16.142
G0 F3600 X94.477 Y76.375
G1 F1800 X88.622 Y70.52 E16.5551
G0 F3600 X89.188 Y70.52
G1 F1800 X94.477 Y75.809 E16.92827
G0 F3600 X94.477 Y75.243
G1 F1800 X89.754 Y70.52 E17.2615
G0 F3600 X90.319 Y70.52
G1 F1800 X94.477 Y74.678 E17.55487
G0 F3600 X94.477 Y74.112
G1 F1800 X90.885 Y70.52 E17.80831
G0 F3600 X91.451 Y70.52
G1 F1800 X94.477 Y73.546 E18.02181
G0 F3600 X94.477 Y72.98
G1 F1800 X92.017 Y70.52 E18.19537
G0 F3600 X92.582 Y70.52
G1 F1800 X94.477 Y72.415 E18.32908
G0 F3600 X94.477 Y71.849
G1 F1800 X93.148 Y70.52 E18.42284
G0 F3600 X93.714 Y70.52
G1 F1800 X94.477 Y71.283 E18.47668
G0 F3600 X94.477 Y70.718
G1 F1800 X94.279 Y70.52 E18.49065
G1 F1500 E14.49065
G0 F3600 X95.64 Y80.056
G0 X96.725 Y80.056
G0 X98.276 Y80.056
G0 X99.361 Y80.056
G0 X110.059 Y80.056
;TYPE:WALL-INNER
G1 F1500 E18.49065
G1 F1800 X110.059 Y69.94 E19.00543
G1 X99.94 Y69.94 E19.52037
G1 X99.94 Y80.056 E20.03515
G1 X110.059 Y80.056 E20.55009
G0 F3600 X110.459 Y80.456
G1 F1800 X110.459 Y69.54 E21.10558
G1 X99.54 Y69.54 E21.66122
G1 X99.54 Y80.456 E22.21672
G1 X110.459 Y80.456 E22.77236
G0 F3600 X110.859 Y80.856
;TYPE:WALL-OUTER
G1 F1800 X110.859 Y69.14 E23.35688
G1 X99.14 Y69.14 E23.94154
G1 X99.14 Y80.856 E24.52605
G1 X110.859 Y80.856 E25.11072
G0 F3600 X110.859 Y80.656
G0 X110.19 Y80.189
G0 X109.676 Y79.676
;TYPE:SKIN
G1 F1800 X100.32 Y79.676 E25.57749
G1 X100.32 Y70.32 E26.04426
G1 X109.676 Y70.32 E26.51104
G1 X109.676 Y79.676 E26.97781
G0 F3600 X100.972 Y79.476
G1 F1800 X100.519 Y79.023 E27.00977
G0 F3600 X100.519 Y78.458
G1 F1800 X101.538 Y79.476 E27.08163
G0 F3600 X102.103 Y79.476
G1 F1800 X100.519 Y77.892 E27.19339
G0 F3600 X100.519 Y77.326
G1 F1800 X102.669 Y79.476 E27.34509
G0 F3600 X103.235 Y79.476
G1 F1800 X100.519 Y76.761 E27.53668
G0 F3600 X100.519 Y76.195
G1 F1800 X103.8 Y79.476 E27.76817
G0 F3600 X104.366 Y79.476
G1 F1800 X100.519 Y75.629 E28.0396
G0 F3600 X100.519 Y75.064
G1 F1800 X104.932 Y79.476 E28.35092
G0 F3600 X105.498 Y79.476
G1 F1800 X100.519 Y74.498 E28.70218
G0 F3600 X100.519 Y73.932
G1 F1800 X106.063 Y79.476 E29.09334
G0 F3600 X106.629 Y79.476
G1 F1800 X100.519 Y73.367 E29.5244
G0 F3600 X100.519 Y72.801
G1 F1800 X107.195 Y79.476 E29.99539
G0 F3600 X107.76 Y79.476
G1 F1800 X100.519 Y72.235 E30.50628
G0 F3600 X100.519 Y71.67
G1 F1800 X108.326 Y79.476 E31.05708
G0 F3600 X108.892 Y79.476
G1 F1800 X100.519 Y71.104 E31.6478
G0 F3600 X100.519 Y70.538
G1 F1800 X109.457 Y79.476 E32.27842
G0 F3600 X109.476 Y78.929
G1 F1800 X101.067 Y70.52 E32.87173
G0 F3600 X101.633 Y70.52
G1 F1800 X109.476 Y78.363 E33.42509
G0 F3600 X109.476 Y77.797
G1 F1800 X102.199 Y70.52 E33.93852
G0 F3600 X102.765 Y70.52
G1 F1800 X109.476 Y77.232 E34.41206
G0 F3600 X109.476 Y76.666
G1 F1800 X103.33 Y70.52 E34.84569
G0 F3600 X103.896 Y70.52
G1 F1800 X109.476 Y76.1 E35.23939
G0 F3600 X109.476 Y75.535
G1 F1800 X104.462 Y70.52 E35.59319
G0 F3600 X105.027 Y70.52
G1 F1800 X109.476 Y74.969 E35.90709
G0 F3600 X109.476 Y74.403
G1 F1800 X105.593 Y70.52 E36.18106
G0 F3600 X106.159 Y70.52
G1 F1800 X109.476 Y73.838 E36.41512
G0 F3600 X109.476 Y73.272
G1 F1800 X106.724 Y70.52 E36.60929
G0 F3600 X107.29 Y70.52
G1 F1800 X109.476 Y72.706 E36.76353
G0 F3600 X109.476 Y72.14
G1 F1800 X107.856 Y70.52 E36.87783
G0 F3600 X108.421 Y70.52
G1 F1800 X109.476 Y71.575 E36.95226
G0 F3600 X109.476 Y71.009
G1 F1800 X108.987 Y70.52 E36.98676
G1 F1500 E32.98676
G0 F3600 X110.06 Y80.639
G0 X110.06 Y81.724
G0 X110.06 Y83.275
G0 X110.06 Y84.36
G0 X110.06 Y95.06
;TYPE:WALL-INNER
G1 F1500 E36.98676
G1 F1800 X110.06 Y84.94 E37.50175
G1 X99.94 Y84.94 E38.01674
G1 X99.94 Y95.06 E38.53172
G1 X110.06 Y95.06 E39.04671
G0 F3600 X110.46 Y95.46
G1 F1800 X110.46 Y84.54 E39.60241
G1 X99.54 Y84.54 E40.1581
G1 X99.54 Y95.46 E40.7138
G1 X110.46 Y95.46 E41.2695
G0 F3600 X110.86 Y95.86
;TYPE:WALL-OUTER
G1 F1800 X110.86 Y84.14 E41.85421
G1 X99.14 Y84.14 E42.43892
G1 X99.14 Y95.86 E43.02364
G1 X110.86 Y95.86 E43.60835
G0 F3600 X110.86 Y95.66
G0 X110.19 Y95.19
G0 X109.68 Y94.68
;TYPE:SKIN
G1 F1800 X100.32 Y94.68 E44.07532
G1 X100.32 Y85.32 E44.5423
G1 X109.68 Y85.32 E45.00927
G1 X109.68 Y94.68 E45.47624
G0 F3600 X109.279 Y85.52
G1 F1800 X109.48 Y85.721 E45.49042
G0 F3600 X109.48 Y86.287
G1 F1800 X108.713 Y85.52 E45.54454
G0 F3600 X108.148 Y85.52
G1 F1800 X109.48 Y86.853 E45.63855
G0 F3600 X109.48 Y87.418
G1 F1800 X107.582 Y85.52 E45.77247
G0 F3600 X107.016 Y85.52
G1 F1800 X109.48 Y87.984 E45.94631
G0 F3600 X109.48 Y88.55
G1 F1800 X106.451 Y85.52 E46.16006
G0 F3600 X105.885 Y85.52
G1 F1800 X109.48 Y89.115 E46.41371
G0 F3600 X109.48 Y89.681
G1 F1800 X105.319 Y85.52 E46.70729
G0 F3600 X104.754 Y85.52
G1 F1800 X109.48 Y90.247 E47.04077
G0 F3600 X109.48 Y90.812
G1 F1800 X104.188 Y85.52 E47.41415
G0 F3600 X103.622 Y85.52
G1 F1800 X109.48 Y91.378 E47.82746
G0 F3600 X109.48 Y91.944
G1 F1800 X103.057 Y85.52 E48.28068
G0 F3600 X102.491 Y85.52
G1 F1800 X109.48 Y92.509 E48.77379
G0 F3600 X109.48 Y93.075
G1 F1800 X101.925 Y85.52 E49.30683
G0 F3600 X101.36 Y85.52
G1 F1800 X109.48 Y93.641 E49.87978
G0 F3600 X109.48 Y94.206
G1 F1800 X100.794 Y85.52 E50.49262
G0 F3600 X100.52 Y85.812
G1 F1800 X109.187 Y94.479 E51.10413
G0 F3600 X108.622 Y94.479
G1 F1800 X100.52 Y86.378 E51.67573
G0 F3600 X100.52 Y86.944
G1 F1800 X108.056 Y94.479 E52.2074
G0 F3600 X107.49 Y94.479
G1 F1800 X100.52 Y87.509 E52.69917
G0 F3600 X100.52 Y88.075
G1 F1800 X106.924 Y94.479 E53.15101
G0 F3600 X106.359 Y94.479
G1 F1800 X100.52 Y88.641 E53.56295
G0 F3600 X100.52 Y89.206
G1 F1800 X105.793 Y94.479 E53.93499
G0 F3600 X105.227 Y94.479
G1 F1800 X100.52 Y89.772 E54.26709
G0 F3600 X100.52 Y90.338
G1 F1800 X104.662 Y94.479 E54.5593
G0 F3600 X104.096 Y94.479
G1 F1800 X100.52 Y90.904 E54.81157
G0 F3600 X100.52 Y91.469
G1 F1800 X103.53 Y94.479 E55.02394
G0 F3600 X102.965 Y94.479
G1 F1800 X100.52 Y92.035 E55.19641
G0 F3600 X100.52 Y92.601
G1 F1800 X102.399 Y94.479 E55.32895
G0 F3600 X101.833 Y94.479
G1 F1800 X100.52 Y93.166 E55.42159
G0 F3600 X100.52 Y93.732
G1 F1800 X101.268 Y94.479 E55.47433
G0 F3600 X100.702 Y94.479
G1 F1800 X100.52 Y94.298 E55.48713
G1 F1500 E51.48713
G0 F3600 X110.06 Y95.64
G0 X110.06 Y96.725
G0 X110.06 Y98.276
G0 X110.06 Y99.361
G0 X110.06 Y110.06
;TYPE:WALL-INNER
G1 F1500 E55.48713
G1 F1800 X110.06 Y99.94 E56.00212
G1 X99.94 Y99.94 E56.51711
G1 X99.94 Y110.06 E57.03209
G1 X110.06 Y110.06 E57.54708
G0 F3600 X110.46 Y110.46
G1 F1800 X110.46 Y99.54 E58.10278
G1 X99.54 Y99.54 E58.65847
G1 X99.54 Y110.46 E59.21417
G1 X110.46 Y110.46 E59.76987
G0 F3600 X110.86 Y110.86
;TYPE:WALL-OUTER
G1 F1800 X110.86 Y99.14 E60.35458
G1 X99.14 Y99.14 E60.93929
G1 X99.14 Y110.86 E61.52401
G1 X110.86 Y110.86 E62.10872
G0 F3600 X110.86 Y110.66
G0 X110.19 Y110.19
G0 X109.68 Y109.68
;TYPE:SKIN
G1 F1800 X100.32 Y109.68 E62.57569
G1 X100.32 Y100.32 E63.04267
G1 X109.68 Y100.32 E63.50964
G1 X109.68 Y109.68 E63.97661
G0 F3600 X109.005 Y100.52
G1 F1800 X109.48 Y100.995 E64.01012
G0 F3600 X109.48 Y101.56
G1 F1800 X108.44 Y100.52 E64.0835
G0 F3600 X107.874 Y100.52
G1 F1800 X109.48 Y102.126 E64.19681
G0 F3600 X109.48 Y102.692
G1 F1800 X107.308 Y100.52 E64.35006
G0 F3600 X106.743 Y100.52
G1 F1800 X109.48 Y103.257 E64.54317
G0 F3600 X109.48 Y103.823
G1 F1800 X106.177 Y100.52 E64.77621
G0 F3600 X105.611 Y100.52
G1 F1800 X109.48 Y104.389 E65.04919
G0 F3600 X109.48 Y104.954
G1 F1800 X105.046 Y100.52 E65.36204
G0 F3600 X104.48 Y100.52
G1 F1800 X109.48 Y105.52 E65.71481
G0 F3600 X109.48 Y106.086
G1 F1800 X103.914 Y100.52 E66.10752
G0 F3600 X103.349 Y100.52
G1 F1800 X109.48 Y106.652 E66.54014
G0 F3600 X109.48 Y107.217
G1 F1800 X102.783 Y100.52 E67.01264
G0 F3600 X102.217 Y100.52
G1 F1800 X109.48 Y107.783 E67.52509
G0 F3600 X109.48 Y108.349
G1 F1800 X101.652 Y100.52 E68.07743
G0 F3600 X101.086 Y100.52
G1 F1800 X109.48 Y108.914 E68.66967
G0 F3600 X109.48 Y109.48
G1 F1800 X100.52 Y100.52 E69.30185
G0 F3600 X100.519 Y101.085
G1 F1800 X108.914 Y109.48 E69.89416
G0 F3600 X108.349 Y109.48
G1 F1800 X100.519 Y101.651 E70.44658
G0 F3600 X100.519 Y102.217
G1 F1800 X107.783 Y109.48 E70.95906
G0 F3600 X107.217 Y109.48
G1 F1800 X100.519 Y102.782 E71.43164
G0 F3600 X100.519 Y103.348
G1 F1800 X106.652 Y109.48 E71.86432
G0 F3600 X106.086 Y109.48
G1 F1800 X100.519 Y103.914 E72.25706
G0 F3600 X100.519 Y104.479
G1 F1800 X105.52 Y109.48 E72.60991
G0 F3600 X104.954 Y109.48
G1 F1800 X100.519 Y105.045 E72.92282
G0 F3600 X100.519 Y105.611
G1 F1800 X104.389 Y109.48 E73.19584
G0 F3600 X103.823 Y109.48
G1 F1800 X100.519 Y106.176 E73.42895
G0 F3600 X100.519 Y106.742
G1 F1800 X103.257 Y109.48 E73.62213
G0 F3600 X102.692 Y109.48
G1 F1800 X100.519 Y107.308 E73.77542
G0 F3600 X100.519 Y107.873
G1 F1800 X102.126 Y109.48 E73.8888
G0 F3600 X101.56 Y109.48
G1 F1800 X100.519 Y108.439 E73.96225
G0 F3600 X100.519 Y109.005
G1 F1800 X100.995 Y109.48 E73.99579
G1 F1500 E69.99579
G0 F3600 X99.361 Y110.06
G0 X98.276 Y110.06
G0 X96.725 Y110.06
G0 X95.64 Y110.06
G0 X95.06 Y110.06
;TYPE:WALL-INNER
G1 F1500 E73.99579
G1 F1800 X95.06 Y99.94 E74.51078
G1 X84.94 Y99.94 E75.02577
G1 X84.94 Y110.06 E75.54075
G1 X95.06 Y110.06 E76.05574
G0 F3600 X95.46 Y110.46
G1 F1800 X95.46 Y99.54 E76.61144
G1 X84.54 Y99.54 E77.16714
G1 X84.54 Y110.46 E77.72283
G1 X95.46 Y110.46 E78.27853
G0 F3600 X95.86 Y110.86
;TYPE:WALL-OUTER
G1 F1800 X95.86 Y99.14 E78.86324
G1 X84.14 Y99.14 E79.44796
G1 X84.14 Y110.86 E80.03267
G1 X95.86 Y110.86 E80.61738
G0 F3600 X95.86 Y110.66
G0 X95.19 Y110.19
G0 X94.68 Y109.68
;TYPE:SKIN
G1 F1800 X85.32 Y109.68 E81.08435
G1 X85.32 Y100.32 E81.55133
G1 X94.68 Y100.32 E82.0183
G1 X94.68 Y109.68 E82.48527
G0 F3600 X94.298 Y100.52
G1 F1800 X94.48 Y100.703 E82.49815
G0 F3600 X94.48 Y101.268
G1 F1800 X93.732 Y100.52 E82.55092
G0 F3600 X93.166 Y100.52
G1 F1800 X94.48 Y101.834 E82.64363
G0 F3600 X94.48 Y102.4
G1 F1800 X92.601 Y100.52 E82.77624
G0 F3600 X92.035 Y100.52
G1 F1800 X94.48 Y102.965 E82.94875
G0 F3600 X94.48 Y103.531
G1 F1800 X91.469 Y100.52 E83.16119
G0 F3600 X90.904 Y100.52
G1 F1800 X94.48 Y104.097 E83.41353
G0 F3600 X94.48 Y104.662
G1 F1800 X90.338 Y100.52 E83.70577
G0 F3600 X89.772 Y100.52
G1 F1800 X94.48 Y105.228 E84.03795
G0 F3600 X94.48 Y105.794
G1 F1800 X89.206 Y100.52 E84.41006
G0 F3600 X88.641 Y100.52
G1 F1800 X94.48 Y106.359 E84.82203
G0 F3600 X94.48 Y106.925
G1 F1800 X88.075 Y100.52 E85.27394
G0 F3600 X87.509 Y100.52
G1 F1800 X94.48 Y107.491 E85.76578
G0 F3600 X94.48 Y108.057
G1 F1800 X86.944 Y100.52 E86.29752
G0 F3600 X86.378 Y100.52
G1 F1800 X94.48 Y108.622 E86.86916
G0 F3600 X94.48 Y109.188
G1 F1800 X85.812 Y100.52 E87.48074
G0 F3600 X85.52 Y100.793
G1 F1800 X94.206 Y109.48 E88.09361
G0 F3600 X93.641 Y109.48
G1 F1800 X85.52 Y101.359 E88.66659
G0 F3600 X85.52 Y101.924
G1 F1800 X93.075 Y109.48 E89.19968
G0 F3600 X92.509 Y109.48
G1 F1800 X85.52 Y102.49 E89.69282
G0 F3600 X85.52 Y103.056
G1 F1800 X91.944 Y109.48 E90.14607
G0 F3600 X91.378 Y109.48
G1 F1800 X85.52 Y103.622 E90.55938
G0 F3600 X85.52 Y104.187
G1 F1800 X90.812 Y109.48 E90.9328
G0 F3600 X90.247 Y109.48
G1 F1800 X85.52 Y104.753 E91.26631
G0 F3600 X85.52 Y105.319
G1 F1800 X89.681 Y109.48 E91.5599
G0 F3600 X89.115 Y109.48
G1 F1800 X85.52 Y105.884 E91.81358
G0 F3600 X85.52 Y106.45
G1 F1800 X88.55 Y109.48 E92.02736
G0 F3600 X87.984 Y109.48
G1 F1800 X85.52 Y107.016 E92.20121
G0 F3600 X85.52 Y107.581
G1 F1800 X87.418 Y109.48 E92.33516
G0 F3600 X86.853 Y109.48
G1 F1800 X85.52 Y108.147 E92.42921
G0 F3600 X85.52 Y108.713
G1 F1800 X86.287 Y109.48 E92.48332
G0 F3600 X85.721 Y109.48
G1 F1800 X85.52 Y109.278 E92.49754
G1 F1500 E88.49754
G0 F3600 X84.36 Y110.06
G0 X83.275 Y110.06
G0 X81.724 Y110.06
G0 X80.639 Y110.06
G0 X80.056 Y110.06
;TYPE:WALL-INNER
G1 F1500 E92.49754
G1 F1800 X80.056 Y99.941 E93.01248
G1 X69.94 Y99.941 E93.52726
G1 X69.94 Y110.06 E94.0422
G1 X80.056 Y110.06 E94.55698
G0 F3600 X80.456 Y110.46
G1 F1800 X80.456 Y99.541 E95.11263
G1 X69.54 Y99.541 E95.66812
G1 X69.54 Y110.46 E96.22376
G1 X80.456 Y110.46 E96.77926
G0 F3600 X80.856 Y110.86
;TYPE:WALL-OUTER
G1 F1800 X80.856 Y99.141 E97.36392
G1 X69.14 Y99.141 E97.94844
G1 X69.14 Y110.86 E98.5331
G1 X80.856 Y110.86 E99.11761
G0 F3600 X80.856 Y110.66
G0 X80.189 Y110.19
G0 X79.676 Y109.68
;TYPE:SKIN
G1 F1800 X70.32 Y109.68 E99.58438
G1 X70.32 Y100.321 E100.05131
G1 X79.676 Y100.321 E100.51808
G1 X79.676 Y109.68 E100.985
G0 F3600 X71.013 Y109.48
G1 F1800 X70.52 Y108.986 E101.01982
G0 F3600 X70.52 Y108.421
G1 F1800 X71.579 Y109.48 E101.09454
G0 F3600 X72.145 Y109.48
G1 F1800 X70.52 Y107.855 E101.20919
G0 F3600 X70.52 Y107.289
G1 F1800 X72.71 Y109.48 E101.36374
G0 F3600 X73.276 Y109.48
G1 F1800 X70.52 Y106.724 E101.55819
G0 F3600 X70.52 Y106.158
G1 F1800 X73.842 Y109.48 E101.79258
G0 F3600 X74.407 Y109.48
G1 F1800 X70.52 Y105.592 E102.06686
G0 F3600 X70.52 Y105.027
G1 F1800 X74.973 Y109.48 E102.38105
G0 F3600 X75.539 Y109.48
G1 F1800 X70.52 Y104.461 E102.73516
G0 F3600 X70.52 Y103.895
G1 F1800 X76.104 Y109.48 E103.12918
G0 F3600 X76.67 Y109.48
G1 F1800 X70.52 Y103.33 E103.5631
G0 F3600 X70.52 Y102.764
G1 F1800 X77.236 Y109.48 E104.03695
G0 F3600 X77.802 Y109.48
G1 F1800 X70.52 Y102.198 E104.55073
G0 F3600 X70.52 Y101.632
G1 F1800 X78.367 Y109.48 E105.10441
G0 F3600 X78.933 Y109.48
G1 F1800 X70.52 Y101.067 E105.698
G0 F3600 X70.54 Y100.521
G1 F1800 X79.476 Y109.457 E106.32848
G0 F3600 X79.476 Y108.892
G1 F1800 X71.105 Y100.521 E106.9191
G0 F3600 X71.671 Y100.521
G1 F1800 X79.476 Y108.326 E107.46978
