;FLAVOR:Marlin
;TIME:6666
;Filament used: 0m
;Layer height: 0.1
;MINX:2.14748e+06
;MINY:2.14748e+06
;MINZ:2.14748e+06
;MAXX:-2.14748e+06
;MAXY:-2.14748e+06
;MAXZ:-2.14748e+06
;TARGET_MACHINE.NAME:Kingroon KP3S

;Generated with Cura_SteamEngine 5.7.1
M140 S60
M105
M190 S60
M104 S215
M105
M109 S215
M82 ;absolute extrusion mode
G28 ; home all axes
 M117 Purge extruder
 G92 E0 ; reset extruder
 G1 Z1.0 F3000 ; move z up little to prevent scratching of surface
 G1 X2 Y20 Z0.3 F5000.0 ; move to start-line position
 G1 X2 Y175.0 Z0.3 F1500.0 E15 ; draw 1st line
 G1 X2 Y175.0 Z0.4 F5000.0 ; move to side a little
 G1 X2 Y20 Z0.4 F1500.0 E30 ; draw 2nd line
 G92 E0 ; reset extruder
 G1 Z1.0 F3000 ; move z up little to prevent scratching of surface
G92 E0
G92 E0
G1 F1500 E-4
;LAYER_COUNT:128
;LAYER:0
M107
;MESH:C:\Users\Haruki\Documents\GitHub\BanteringPrinter\M_S\output_0.stl
G0 F3600 X95.06 Y95.06 Z0.3
;TYPE:WALL-INNER
G1 F1500 E0
G1 F1800 X95.06 Y84.94 E0.51499
G1 X84.94 Y84.94 E1.02997
G1 X84.94 Y95.06 E1.54496
G1 X95.06 Y95.06 E2.05995
G0 F3600 X95.46 Y95.46
G1 F1800 X95.46 Y84.54 E2.61564
G1 X84.54 Y84.54 E3.17134
G1 X84.54 Y95.46 E3.72704
G1 X95.46 Y95.46 E4.28273
G0 F3600 X95.86 Y95.86
;TYPE:WALL-OUTER
G1 F1800 X95.86 Y84.14 E4.86745
G1 X84.14 Y84.14 E5.45216
G1 X84.14 Y95.86 E6.03687
G1 X95.86 Y95.86 E6.62159
G0 F3600 X95.86 Y95.66
G0 X95.19 Y95.19
G0 X94.68 Y94.68
;TYPE:SKIN
G1 F1800 X85.32 Y94.68 E7.08856
G1 X85.32 Y85.32 E7.55553
G1 X94.68 Y85.32 E8.0225
G1 X94.68 Y94.68 E8.48948
G0 F3600 X94.006 Y85.52
G1 F1800 X94.48 Y85.995 E8.52296
G0 F3600 X94.48 Y86.56
G1 F1800 X93.44 Y85.52 E8.59633
G0 F3600 X92.874 Y85.52
G1 F1800 X94.48 Y87.126 E8.70964
G0 F3600 X94.48 Y87.692
G1 F1800 X92.309 Y85.52 E8.86286
G0 F3600 X91.743 Y85.52
G1 F1800 X94.48 Y88.258 E9.056
G0 F3600 X94.48 Y88.823
G1 F1800 X91.177 Y85.52 E9.28905
G0 F3600 X90.611 Y85.52
G1 F1800 X94.48 Y89.389 E9.56202
G0 F3600 X94.48 Y89.955
G1 F1800 X90.046 Y85.52 E9.8749
G0 F3600 X89.48 Y85.52
G1 F1800 X94.48 Y90.52 E10.22768
G0 F3600 X94.48 Y91.086
G1 F1800 X88.914 Y85.52 E10.62039
G0 F3600 X88.349 Y85.52
G1 F1800 X94.48 Y91.652 E11.053
G0 F3600 X94.48 Y92.217
G1 F1800 X87.783 Y85.52 E11.52551
G0 F3600 X87.217 Y85.52
G1 F1800 X94.48 Y92.783 E12.03795
G0 F3600 X94.48 Y93.349
G1 F1800 X86.652 Y85.52 E12.5903
G0 F3600 X86.086 Y85.52
G1 F1800 X94.48 Y93.914 E13.18254
G0 F3600 X94.48 Y94.48
G1 F1800 X85.52 Y85.52 E13.81472
G0 F3600 X85.52 Y86.085
G1 F1800 X93.914 Y94.48 E14.40699
G0 F3600 X93.349 Y94.48
G1 F1800 X85.52 Y86.651 E14.95937
G0 F3600 X85.52 Y87.217
G1 F1800 X92.783 Y94.48 E15.47182
G0 F3600 X92.217 Y94.48
M104 S220
G1 F1800 X85.52 Y87.782 E15.94436
G0 F3600 X85.52 Y88.348
G1 F1800 X91.652 Y94.48 E16.37701
G0 F3600 X91.086 Y94.48
G1 F1800 X85.52 Y88.914 E16.76972
G0 F3600 X85.52 Y89.479
G1 F1800 X90.52 Y94.48 E17.12253
G0 F3600 X89.955 Y94.48
G1 F1800 X85.52 Y90.045 E17.43544
G0 F3600 X85.52 Y90.611
G1 F1800 X89.389 Y94.48 E17.70842
G0 F3600 X88.823 Y94.48
G1 F1800 X85.52 Y91.176 E17.9415
G0 F3600 X85.52 Y91.742
G1 F1800 X88.258 Y94.48 E18.13468
G0 F3600 X87.692 Y94.48
G1 F1800 X85.52 Y92.308 E18.28793
G0 F3600 X85.52 Y92.874
G1 F1800 X87.126 Y94.48 E18.40124
G0 F3600 X86.56 Y94.48
G1 F1800 X85.52 Y93.439 E18.47465
G0 F3600 X85.52 Y94.005
G1 F1800 X85.995 Y94.48 E18.50817
;MESH:NONMESH
G0 F600 X85.995 Y94.48 Z0.4
G0 F3600 X95.16 Y95.18
G0 X95.18 Y95.18
;TIME_ELAPSED:21.824336
;LAYER:1
M106 S255
;TYPE:WALL-INNER
;MESH:C:\Users\Haruki\Documents\GitHub\BanteringPrinter\M_S\output_0.stl
G1 F2700 X95.18 Y84.816 E18.68397
G1 X84.816 Y84.816 E18.85977
G1 X84.816 Y95.18 E19.03557
G1 X95.18 Y95.18 E19.21137
G0 F5400 X95.58 Y95.58
G1 F2700 X95.58 Y84.416 E19.40074
G1 X84.416 Y84.416 E19.59011
G1 X84.416 Y95.58 E19.77949
G1 X95.58 Y95.58 E19.96886
G0 F5400 X95.98 Y95.98
;TYPE:WALL-OUTER
G1 F1800 X95.98 Y84.016 E20.16782
G1 X84.016 Y84.016 E20.36678
G1 X84.016 Y95.98 E20.56574
G1 X95.98 Y95.98 E20.7647
G0 F5400 X95.98 Y95.78
G0 X95.313 Y95.313
G0 X94.8 Y94.8
;TYPE:SKIN
G1 F1800 X85.196 Y94.8 E20.92442
G1 X85.196 Y85.196 E21.08414
G1 X94.8 Y85.196 E21.24385
G1 X94.8 Y94.8 E21.40357
G0 F5400 X94.339 Y94.6
G1 F1800 X94.6 Y94.339 E21.4097
G0 F5400 X94.6 Y93.774
G1 F1800 X93.773 Y94.6 E21.42914
G0 F5400 X93.207 Y94.6
G1 F1800 X94.6 Y93.208 E21.46189
G0 F5400 X94.6 Y92.642
G1 F1800 X92.642 Y94.6 E21.50794
G0 F5400 X92.076 Y94.6
G1 F1800 X94.6 Y92.077 E21.56729
G0 F5400 X94.6 Y91.511
G1 F1800 X91.51 Y94.6 E21.63995
G0 F5400 X90.945 Y94.6
G1 F1800 X94.6 Y90.945 E21.72591
G0 F5400 X94.6 Y90.38
G1 F1800 X90.379 Y94.6 E21.82517
G0 F5400 X89.813 Y94.6
G1 F1800 X94.6 Y89.814 E21.93774
G0 F5400 X94.6 Y89.248
G1 F1800 X89.247 Y94.6 E22.06362
G0 F5400 X88.682 Y94.6
G1 F1800 X94.6 Y88.683 E22.20279
G0 F5400 X94.6 Y88.117
G1 F1800 X88.116 Y94.6 E22.35528
G0 F5400 X87.55 Y94.6
G1 F1800 X94.6 Y87.551 E22.52107
G0 F5400 X94.6 Y86.985
G1 F1800 X86.985 Y94.6 E22.70016
G0 F5400 X86.419 Y94.6
G1 F1800 X94.6 Y86.42 E22.89256
G0 F5400 X94.6 Y85.854
G1 F1800 X85.853 Y94.6 E23.09826
G0 F5400 X85.396 Y94.492
G1 F1800 X94.492 Y85.396 E23.31218
G0 F5400 X93.926 Y85.396
G1 F1800 X85.396 Y93.926 E23.5128
G0 F5400 X85.396 Y93.361
G1 F1800 X93.361 Y85.396 E23.70012
G0 F5400 X92.795 Y85.396
G1 F1800 X85.396 Y92.795 E23.87413
G0 F5400 X85.396 Y92.229
G1 F1800 X92.229 Y85.396 E24.03484
G0 F5400 X91.664 Y85.396
G1 F1800 X85.396 Y91.664 E24.18225
G0 F5400 X85.396 Y91.098
G1 F1800 X91.098 Y85.396 E24.31635
G0 F5400 X90.532 Y85.396
G1 F1800 X85.396 Y90.532 E24.43714
G0 F5400 X85.396 Y89.967
G1 F1800 X89.967 Y85.396 E24.54465
G0 F5400 X89.401 Y85.396
G1 F1800 X85.396 Y89.401 E24.63884
G0 F5400 X85.396 Y88.835
G1 F1800 X88.835 Y85.396 E24.71972
G0 F5400 X88.27 Y85.396
G1 F1800 X85.396 Y88.27 E24.78731
G0 F5400 X85.396 Y87.704
G1 F1800 X87.704 Y85.396 E24.84159
G0 F5400 X87.138 Y85.396
G1 F1800 X85.396 Y87.138 E24.88256
G0 F5400 X85.396 Y86.572
G1 F1800 X86.572 Y85.396 E24.91022
G0 F5400 X86.007 Y85.396
G1 F1800 X85.396 Y86.007 E24.92459
G1 X85.368 Y86.035
;MESH:NONMESH
G0 F600 X85.368 Y86.035 Z0.5
G0 F5400 X95.216 Y95.216
;TIME_ELAPSED:37.701094
;LAYER:2
;TYPE:WALL-INNER
;MESH:C:\Users\Haruki\Documents\GitHub\BanteringPrinter\M_S\output_0.stl
G1 F3600 X95.216 Y84.78 E25.10161
G1 X84.78 Y84.78 E25.27863
G1 X84.78 Y95.216 E25.45565
G1 X95.216 Y95.216 E25.63268
G0 F7200 X95.616 Y95.616
G1 F3600 X95.616 Y84.38 E25.82327
G1 X84.38 Y84.38 E26.01386
G1 X84.38 Y95.616 E26.20445
G1 X95.616 Y95.616 E26.39505
G0 F7200 X96.016 Y96.016
;TYPE:WALL-OUTER
G1 F1800 X96.016 Y83.98 E26.59521
G1 X83.98 Y83.98 E26.79536
G1 X83.98 Y96.016 E26.99552
G1 X96.016 Y96.016 E27.19568
G0 F7200 X96.016 Y95.816
G0 X95.349 Y95.349
G0 X94.836 Y94.836
;TYPE:SKIN
G1 F1800 X85.16 Y94.836 E27.3566
G1 X85.16 Y85.16 E27.51751
G1 X94.836 Y85.16 E27.67842
G1 X94.836 Y94.836 E27.83933
G0 F7200 X94.411 Y85.36
G1 F1800 X94.636 Y85.585 E27.84463
G0 F7200 X94.636 Y86.151
G1 F1800 X93.845 Y85.36 E27.86323
G0 F7200 X93.279 Y85.36
G1 F1800 X94.636 Y86.717 E27.89514
G0 F7200 X94.636 Y87.282
G1 F1800 X92.714 Y85.36 E27.94035
G0 F7200 X92.148 Y85.36
G1 F1800 X94.636 Y87.848 E27.99886
G0 F7200 X94.636 Y88.414
G1 F1800 X91.582 Y85.36 E28.07069
G0 F7200 X91.017 Y85.36
G1 F1800 X94.636 Y88.979 E28.1558
G0 F7200 X94.636 Y89.545
G1 F1800 X90.451 Y85.36 E28.25422
G0 F7200 X89.885 Y85.36
G1 F1800 X94.636 Y90.111 E28.36596
G0 F7200 X94.636 Y90.677
G1 F1800 X89.32 Y85.36 E28.491
G0 F7200 X88.754 Y85.36
G1 F1800 X94.636 Y91.242 E28.62933
G0 F7200 X94.636 Y91.808
G1 F1800 X88.188 Y85.36 E28.78098
G0 F7200 X87.623 Y85.36
G1 F1800 X94.636 Y92.374 E28.94592
G0 F7200 X94.636 Y92.939
G1 F1800 X87.057 Y85.36 E29.12417
G0 F7200 X86.491 Y85.36
G1 F1800 X94.636 Y93.505 E29.31573
G0 F7200 X94.636 Y94.071
G1 F1800 X85.925 Y85.36 E29.5206
G0 F7200 X85.36 Y85.36
G1 F1800 X94.636 Y94.636 E29.73876
G0 F7200 X94.07 Y94.636
G1 F1800 X85.36 Y85.925 E29.94361
G0 F7200 X85.36 Y86.491
G1 F1800 X93.504 Y94.636 E30.13516
G0 F7200 X92.939 Y94.636
G1 F1800 X85.36 Y87.057 E30.31341
G0 F7200 X85.36 Y87.623
G1 F1800 X92.373 Y94.636 E30.47834
G0 F7200 X91.807 Y94.636
G1 F1800 X85.36 Y88.188 E30.62998
G0 F7200 X85.36 Y88.754
G1 F1800 X91.242 Y94.636 E30.76831
G0 F7200 X90.676 Y94.636
G1 F1800 X85.36 Y89.32 E30.89334
G0 F7200 X85.36 Y89.885
G1 F1800 X90.11 Y94.636 E31.00506
G0 F7200 X89.544 Y94.636
G1 F1800 X85.36 Y90.451 E31.10347
G0 F7200 X85.36 Y91.017
G1 F1800 X88.979 Y94.636 E31.18859
G0 F7200 X88.413 Y94.636
G1 F1800 X85.36 Y91.582 E31.2604
G0 F7200 X85.36 Y92.148
G1 F1800 X87.847 Y94.636 E31.3189
G0 F7200 X87.282 Y94.636
G1 F1800 X85.36 Y92.714 E31.36411
G0 F7200 X85.36 Y93.279
G1 F1800 X86.716 Y94.636 E31.39601
G0 F7200 X86.15 Y94.636
G1 F1800 X85.36 Y93.845 E31.4146
G0 F7200 X85.36 Y94.411
G1 F1800 X85.585 Y94.636 E31.41989
;MESH:NONMESH
G0 F600 X85.585 Y94.636 Z0.6
G0 F7200 X95.256 Y95.256
;TIME_ELAPSED:53.756485
;LAYER:3
;TYPE:WALL-INNER
;MESH:C:\Users\Haruki\Documents\GitHub\BanteringPrinter\M_S\output_0.stl
G1 F3600 X95.256 Y84.744 E31.5982
G1 X84.744 Y84.744 E31.77651
G1 X84.744 Y95.256 E31.95483
G1 X95.256 Y95.256 E32.13314
G0 F7200 X95.656 Y95.656
G1 F3600 X95.656 Y84.344 E32.32502
G1 X84.344 Y84.344 E32.5169
G1 X84.344 Y95.656 E32.70878
G1 X95.656 Y95.656 E32.90066
G0 F7200 X96.056 Y96.056
;TYPE:WALL-OUTER
G1 F1800 X96.056 Y83.944 E33.10209
G1 X83.944 Y83.944 E33.30351
G1 X83.944 Y96.056 E33.50493
G1 X96.056 Y96.056 E33.70636
G0 F7200 X96.056 Y95.856
G0 X95.386 Y95.386
G0 X94.876 Y94.876
;TYPE:SKIN
G1 F1800 X85.124 Y94.876 E33.86853
G1 X85.124 Y85.124 E34.03071
G1 X94.876 Y85.124 E34.19289
G1 X94.876 Y94.876 E34.35506
G0 F7200 X94.263 Y94.676
G1 F1800 X94.676 Y94.263 E34.36478
G0 F7200 X94.676 Y93.697
G1 F1800 X93.697 Y94.676 E34.3878
G0 F7200 X93.132 Y94.676
G1 F1800 X94.676 Y93.132 E34.42411
G0 F7200 X94.676 Y92.566
G1 F1800 X92.566 Y94.676 E34.47374
G0 F7200 X92 Y94.676
G1 F1800 X94.676 Y92 E34.53667
G0 F7200 X94.676 Y91.435
G1 F1800 X91.435 Y94.676 E34.6129
G0 F7200 X90.869 Y94.676
G1 F1800 X94.676 Y90.869 E34.70243
G0 F7200 X94.676 Y90.303
G1 F1800 X90.303 Y94.676 E34.80528
G0 F7200 X89.738 Y94.676
G1 F1800 X94.676 Y89.738 E34.92141
G0 F7200 X94.676 Y89.172
G1 F1800 X89.172 Y94.676 E35.05086
G0 F7200 X88.606 Y94.676
G1 F1800 X94.676 Y88.606 E35.19361
G0 F7200 X94.676 Y88.04
G1 F1800 X88.04 Y94.676 E35.34968
G0 F7200 X87.475 Y94.676
G1 F1800 X94.676 Y87.475 E35.51904
G0 F7200 X94.676 Y86.909
G1 F1800 X86.909 Y94.676 E35.70171
G0 F7200 X86.343 Y94.676
G1 F1800 X94.676 Y86.343 E35.89769
G0 F7200 X94.676 Y85.778
G1 F1800 X85.778 Y94.676 E36.10695
G0 F7200 X85.324 Y94.564
G1 F1800 X94.564 Y85.324 E36.32426
G0 F7200 X93.999 Y85.324
G1 F1800 X85.324 Y93.999 E36.52829
G0 F7200 X85.324 Y93.433
G1 F1800 X93.433 Y85.324 E36.719
G0 F7200 X92.867 Y85.324
G1 F1800 X85.324 Y92.867 E36.8964
G0 F7200 X85.324 Y92.301
G1 F1800 X92.301 Y85.324 E37.06049
G0 F7200 X91.736 Y85.324
G1 F1800 X85.324 Y91.736 E37.21129
G0 F7200 X85.324 Y91.17
G1 F1800 X91.17 Y85.324 E37.34878
G0 F7200 X90.604 Y85.324
G1 F1800 X85.324 Y90.604 E37.47295
G0 F7200 X85.324 Y90.039
G1 F1800 X90.039 Y85.324 E37.58384
G0 F7200 X89.473 Y85.324
G1 F1800 X85.324 Y89.473 E37.68142
G0 F7200 X85.324 Y88.907
G1 F1800 X88.907 Y85.324 E37.76569
G0 F7200 X88.342 Y85.324
G1 F1800 X85.324 Y88.342 E37.83667
G0 F7200 X85.324 Y87.776
G1 F1800 X87.776 Y85.324 E37.89433
G0 F7200 X87.21 Y85.324
G1 F1800 X85.324 Y87.21 E37.93869
G0 F7200 X85.324 Y86.645
G1 F1800 X86.645 Y85.324 E37.96976
G0 F7200 X86.079 Y85.324
G1 F1800 X85.324 Y86.079 E37.98751
G0 F7200 X85.324 Y85.513
G1 F1800 X85.513 Y85.324 E37.99196
;MESH:NONMESH
G0 F600 X85.513 Y85.324 Z0.7
G0 F7200 X95.292 Y95.292
;TIME_ELAPSED:69.807322
;LAYER:4
;TYPE:WALL-INNER
;MESH:C:\Users\Haruki\Documents\GitHub\BanteringPrinter\M_S\output_0.stl
G1 F3600 X95.292 Y84.708 E38.17149
G1 X84.708 Y84.708 E38.35102
G1 X84.708 Y95.292 E38.53056
G1 X95.292 Y95.292 E38.71009
G0 F7200 X95.692 Y95.692
G1 F3600 X95.692 Y84.308 E38.90319
G1 X84.308 Y84.308 E39.0963
G1 X84.308 Y95.692 E39.2894
G1 X95.692 Y95.692 E39.4825
G0 F7200 X96.092 Y96.092
;TYPE:WALL-OUTER
G1 F1800 X96.092 Y83.908 E39.68512
G1 X83.908 Y83.908 E39.88774
G1 X83.908 Y96.092 E40.09037
G1 X96.092 Y96.092 E40.29299
G0 F7200 X96.092 Y95.892
G0 X95.422 Y95.422
G0 X94.912 Y94.912
;TYPE:SKIN
G1 F1800 X85.088 Y94.912 E40.45636
G1 X85.088 Y85.088 E40.61973
G1 X94.912 Y85.088 E40.78311
G1 X94.912 Y94.912 E40.94648
G0 F7200 X94.339 Y85.288
G1 F1800 X94.712 Y85.661 E40.95525
G0 F7200 X94.712 Y86.227
G1 F1800 X93.773 Y85.288 E40.97734
G0 F7200 X93.207 Y85.288
G1 F1800 X94.712 Y86.792 E41.01272
G0 F7200 X94.712 Y87.358
G1 F1800 X92.642 Y85.288 E41.0614
G0 F7200 X92.076 Y85.288
G1 F1800 X94.712 Y87.924 E41.1234
G0 F7200 X94.712 Y88.489
G1 F1800 X91.51 Y85.288 E41.19869
G0 F7200 X90.945 Y85.288
G1 F1800 X94.712 Y89.055 E41.28729
G0 F7200 X94.712 Y89.621
G1 F1800 X90.379 Y85.288 E41.38919
G0 F7200 X89.813 Y85.288
G1 F1800 X94.712 Y90.187 E41.50441
G0 F7200 X94.712 Y90.752
G1 F1800 X89.247 Y85.288 E41.63293
G0 F7200 X88.682 Y85.288
G1 F1800 X94.712 Y91.318 E41.77474
G0 F7200 X94.712 Y91.884
G1 F1800 X88.116 Y85.288 E41.92987
G0 F7200 X87.55 Y85.288
G1 F1800 X94.712 Y92.449 E42.0983
G0 F7200 X94.712 Y93.015
G1 F1800 X86.985 Y85.288 E42.28003
G0 F7200 X86.419 Y85.288
G1 F1800 X94.712 Y93.581 E42.47506
G0 F7200 X94.712 Y94.146
G1 F1800 X85.853 Y85.288 E42.6834
G0 F7200 X85.288 Y85.288
G1 F1800 X94.712 Y94.712 E42.90504
G0 F7200 X94.146 Y94.712
G1 F1800 X85.288 Y85.853 E43.11338
G0 F7200 X85.288 Y86.419
G1 F1800 X93.581 Y94.712 E43.30842
G0 F7200 X93.015 Y94.712
G1 F1800 X85.288 Y86.985 E43.49014
G0 F7200 X85.288 Y87.55
G1 F1800 X92.449 Y94.712 E43.65857
G0 F7200 X91.884 Y94.712
G1 F1800 X85.288 Y88.116 E43.8137
G0 F7200 X85.288 Y88.682
G1 F1800 X91.318 Y94.712 E43.95552
G0 F7200 X90.752 Y94.712
G1 F1800 X85.288 Y89.247 E44.08403
G0 F7200 X85.288 Y89.813
G1 F1800 X90.187 Y94.712 E44.19925
G0 F7200 X89.621 Y94.712
G1 F1800 X85.288 Y90.379 E44.30116
G0 F7200 X85.288 Y90.945
G1 F1800 X89.055 Y94.712 E44.38975
G0 F7200 X88.489 Y94.712
G1 F1800 X85.288 Y91.51 E44.46504
G0 F7200 X85.288 Y92.076
G1 F1800 X87.924 Y94.712 E44.52704
G0 F7200 X87.358 Y94.712
G1 F1800 X85.288 Y92.642 E44.57572
G0 F7200 X85.288 Y93.207
G1 F1800 X86.792 Y94.712 E44.6111
G0 F7200 X86.227 Y94.712
G1 F1800 X85.288 Y93.773 E44.63319
G0 F7200 X85.288 Y94.339
G1 F1800 X85.661 Y94.712 E44.64196
;MESH:NONMESH
G0 F600 X85.661 Y94.712 Z0.8
G0 F7200 X95.328 Y95.328
;TIME_ELAPSED:86.169295
;LAYER:5
;TYPE:WALL-INNER
;MESH:C:\Users\Haruki\Documents\GitHub\BanteringPrinter\M_S\output_0.stl
G1 F3600 X95.328 Y84.668 E44.82278
G1 X84.668 Y84.668 E45.00361
G1 X84.668 Y95.328 E45.18443
G1 X95.328 Y95.328 E45.36525
G0 F7200 X95.728 Y95.728
G1 F3600 X95.728 Y84.268 E45.55964
G1 X84.268 Y84.268 E45.75403
G1 X84.268 Y95.728 E45.94843
G1 X95.728 Y95.728 E46.14282
G0 F7200 X96.128 Y96.128
;TYPE:WALL-OUTER
G1 F1800 X96.128 Y83.868 E46.3467
G1 X83.868 Y83.868 E46.55059
G1 X83.868 Y96.128 E46.75447
G1 X96.128 Y96.128 E46.95836
G0 F7200 X96.128 Y95.928
G0 X95.46 Y95.46
G0 X94.948 Y94.948
;TYPE:SKIN
G1 F1800 X85.048 Y94.948 E47.12299
G1 X85.048 Y85.048 E47.28763
G1 X94.948 Y85.048 E47.45227
G1 X94.948 Y94.948 E47.61691
G0 F7200 X94.191 Y94.748
G1 F1800 X94.748 Y94.191 E47.63001
G0 F7200 X94.748 Y93.625
G1 F1800 X93.625 Y94.748 E47.65642
G0 F7200 X93.059 Y94.748
G1 F1800 X94.748 Y93.059 E47.69614
G0 F7200 X94.748 Y92.494
G1 F1800 X92.494 Y94.748 E47.74915
G0 F7200 X91.928 Y94.748
G1 F1800 X94.748 Y91.928 E47.81547
G0 F7200 X94.748 Y91.362
G1 F1800 X91.362 Y94.748 E47.89511
G0 F7200 X90.797 Y94.748
G1 F1800 X94.748 Y90.797 E47.98803
G0 F7200 X94.748 Y90.231
G1 F1800 X90.231 Y94.748 E48.09426
G0 F7200 X89.665 Y94.748
G1 F1800 X94.748 Y89.665 E48.21381
G0 F7200 X94.748 Y89.1
G1 F1800 X89.1 Y94.748 E48.34664
G0 F7200 X88.534 Y94.748
G1 F1800 X94.748 Y88.534 E48.49278
G0 F7200 X94.748 Y87.968
G1 F1800 X87.968 Y94.748 E48.65224
G0 F7200 X87.403 Y94.748
G1 F1800 X94.748 Y87.403 E48.82498
G0 F7200 X94.748 Y86.837
G1 F1800 X86.837 Y94.748 E49.01104
G0 F7200 X86.271 Y94.748
G1 F1800 X94.748 Y86.271 E49.2104
