;FLAVOR:Marlin
;TIME:6666
;Filament used: 0m
;Layer height: 0.1
;MINX:2.14748e+06
;MINY:2.14748e+06
;MINZ:2.14748e+06
;MAXX:-2.14748e+06
;MAXY:-2.14748e+06
;MAXZ:-2.14748e+06
;TARGET_MACHINE.NAME:Kingroon KP3S

;Generated with Cura_SteamEngine 5.7.1
M140 S60
M104 S220
M190 S60
M109 S220
M82 ;absolute extrusion mode
G28 ; home all axes
 M117 Purge extruder
 G92 E0 ; reset extruder
 G1 Z1.0 F3000 ; move z up little to prevent scratching of surface
 G1 X2 Y20 Z0.3 F5000.0 ; move to start-line position
 G1 X2 Y175.0 Z0.3 F1500.0 E15 ; draw 1st line
 G1 X2 Y175.0 Z0.4 F5000.0 ; move to side a little
 G1 X2 Y20 Z0.4 F1500.0 E30 ; draw 2nd line
 G92 E0 ; reset extruder
 G1 Z1.0 F3000 ; move z up little to prevent scratching of surface
G92 E0
G92 E0
G1 F1500 E-4
;LAYER_COUNT:128
;LAYER:0
M107
;MESH:C:\Users\Haruki\Documents\GitHub\BanteringPrinter\M_S\output_0.stl
G0 F3600 X72.556 Y80.056 Z0.3
;TYPE:WALL-INNER
G1 F1500 E0
G1 F1800 X72.556 Y69.94 E0.51478
G1 X62.44 Y69.94 E1.02957
G1 X62.44 Y80.056 E1.54435
G1 X72.556 Y80.056 E2.05913
G0 F3600 X72.956 Y80.456
G1 F1800 X72.956 Y69.54 E2.61463
G1 X62.04 Y69.54 E3.17012
G1 X62.04 Y80.456 E3.72561
G1 X72.956 Y80.456 E4.28111
G0 F3600 X73.356 Y80.856
;TYPE:WALL-OUTER
G1 F1800 X73.356 Y69.14 E4.86562
G1 X61.64 Y69.14 E5.45013
G1 X61.64 Y80.856 E6.03465
G1 X73.356 Y80.856 E6.61916
G0 F3600 X73.356 Y80.656
G0 X72.689 Y80.189
G0 X72.176 Y79.676
;TYPE:SKIN
G1 F1800 X62.82 Y79.676 E7.08593
G1 X62.82 Y70.32 E7.55271
G1 X72.176 Y70.32 E8.01948
G1 X72.176 Y79.676 E8.48625
G0 F3600 X71.651 Y70.52
G1 F1800 X71.976 Y70.845 E8.50918
G0 F3600 X71.976 Y71.411
G1 F1800 X71.085 Y70.52 E8.57205
G0 F3600 X70.52 Y70.52
G1 F1800 X71.976 Y71.976 E8.67478
G0 F3600 X71.976 Y72.542
G1 F1800 X69.954 Y70.52 E8.81744
G0 F3600 X69.388 Y70.52
G1 F1800 X71.976 Y73.108 E9.00004
G0 F3600 X71.976 Y73.673
G1 F1800 X68.823 Y70.52 E9.2225
G0 F3600 X68.257 Y70.52
G1 F1800 X71.976 Y74.239 E9.48489
G0 F3600 X71.976 Y74.805
G1 F1800 X67.691 Y70.52 E9.78722
G0 F3600 X67.126 Y70.52
G1 F1800 X71.976 Y75.371 E10.12945
G0 F3600 X71.976 Y75.936
G1 F1800 X66.56 Y70.52 E10.51158
G0 F3600 X65.994 Y70.52
G1 F1800 X71.976 Y76.502 E10.93364
G0 F3600 X71.976 Y77.068
G1 F1800 X65.429 Y70.52 E11.3956
G0 F3600 X64.863 Y70.52
G1 F1800 X71.976 Y77.633 E11.89746
G0 F3600 X71.976 Y78.199
G1 F1800 X64.297 Y70.52 E12.43926
G0 F3600 X63.732 Y70.52
G1 F1800 X71.976 Y78.765 E13.02095
G0 F3600 X71.976 Y79.33
G1 F1800 X63.166 Y70.52 E13.64255
G0 F3600 X63.02 Y70.94
G1 F1800 X71.556 Y79.476 E14.24481
G0 F3600 X70.991 Y79.476
G1 F1800 X63.02 Y71.505 E14.8072
G0 F3600 X63.02 Y72.071
G1 F1800 X70.425 Y79.476 E15.32967
G0 F3600 X69.859 Y79.476
G1 F1800 X63.02 Y72.637 E15.8122
G0 F3600 X63.02 Y73.203
G1 F1800 X69.294 Y79.476 E16.25482
G0 F3600 X68.728 Y79.476
G1 F1800 X63.02 Y73.768 E16.65755
G0 F3600 X63.02 Y74.334
G1 F1800 X68.162 Y79.476 E17.02035
G0 F3600 X67.597 Y79.476
G1 F1800 X63.02 Y74.9 E17.34325
G0 F3600 X63.02 Y75.465
G1 F1800 X67.031 Y79.476 E17.62625
G0 F3600 X66.465 Y79.476
G1 F1800 X63.02 Y76.031 E17.86931
G0 F3600 X63.02 Y76.597
G1 F1800 X65.9 Y79.476 E18.07247
G0 F3600 X65.334 Y79.476
G1 F1800 X63.02 Y77.162 E18.23574
G0 F3600 X63.02 Y77.728
G1 F1800 X64.768 Y79.476 E18.35907
G0 F3600 X64.202 Y79.476
G1 F1800 X63.02 Y78.294 E18.44247
G0 F3600 X63.02 Y78.859
G1 F1800 X63.637 Y79.476 E18.486
G1 X63.665 Y79.504
G1 F1500 E14.486
G0 F3600 X72.556 Y80.639
G0 X72.556 Y81.724
G0 X72.556 Y83.275
G0 X72.556 Y84.36
G0 X72.556 Y95.06
;TYPE:WALL-INNER
G1 F1500 E18.486
G1 F1800 X72.556 Y84.941 E19.00093
G1 X62.44 Y84.941 E19.51572
G1 X62.44 Y95.06 E20.03065
G1 X72.556 Y95.06 E20.54544
G0 F3600 X72.956 Y95.46
G1 F1800 X72.956 Y84.541 E21.10108
G1 X62.04 Y84.541 E21.65658
G1 X62.04 Y95.46 E22.21222
G1 X72.956 Y95.46 E22.76771
G0 F3600 X73.356 Y95.86
;TYPE:WALL-OUTER
G1 F1800 X73.356 Y84.141 E23.35238
G1 X61.64 Y84.141 E23.93689
G1 X61.64 Y95.86 E24.52156
G1 X73.356 Y95.86 E25.10607
G0 F3600 X73.356 Y95.66
G0 X72.689 Y95.19
G0 X72.176 Y94.68
;TYPE:SKIN
G1 F1800 X62.82 Y94.68 E25.57284
G1 X62.82 Y85.321 E26.03976
G1 X72.176 Y85.321 E26.50654
G1 X72.176 Y94.68 E26.97346
G0 F3600 X63.367 Y94.48
G1 F1800 X63.019 Y94.132 E26.99801
G0 F3600 X63.019 Y93.566
G1 F1800 X63.933 Y94.48 E27.0625
G0 F3600 X64.499 Y94.48
G1 F1800 X63.019 Y93.001 E27.16689
G0 F3600 X63.019 Y92.435
G1 F1800 X65.064 Y94.48 E27.31117
G0 F3600 X65.63 Y94.48
G1 F1800 X63.019 Y91.869 E27.49539
G0 F3600 X63.019 Y91.304
G1 F1800 X66.196 Y94.48 E27.71951
G0 F3600 X66.761 Y94.48
G1 F1800 X63.019 Y90.738 E27.98353
G0 F3600 X63.019 Y90.172
G1 F1800 X67.327 Y94.48 E28.28748
G0 F3600 X67.893 Y94.48
G1 F1800 X63.019 Y89.607 E28.63133
G0 F3600 X63.019 Y89.041
G1 F1800 X68.459 Y94.48 E29.01512
G0 F3600 X69.024 Y94.48
G1 F1800 X63.019 Y88.475 E29.43881
G0 F3600 X63.019 Y87.91
G1 F1800 X69.59 Y94.48 E29.90239
G0 F3600 X70.156 Y94.48
G1 F1800 X63.019 Y87.344 E30.40591
G0 F3600 X63.019 Y86.778
G1 F1800 X70.721 Y94.48 E30.94933
G0 F3600 X71.287 Y94.48
G1 F1800 X63.019 Y86.213 E31.53264
G0 F3600 X63.019 Y85.647
G1 F1800 X71.853 Y94.48 E32.15589
G0 F3600 X71.976 Y94.037
G1 F1800 X63.459 Y85.521 E32.75678
G0 F3600 X64.025 Y85.521
G1 F1800 X71.976 Y93.472 E33.31777
G0 F3600 X71.976 Y92.906
G1 F1800 X64.591 Y85.521 E33.83882
G0 F3600 X65.156 Y85.521
G1 F1800 X71.976 Y92.34 E34.31997
G0 F3600 X71.976 Y91.775
G1 F1800 X65.722 Y85.521 E34.76122
G0 F3600 X66.288 Y85.521
G1 F1800 X71.976 Y91.209 E35.16254
G0 F3600 X71.976 Y90.643
G1 F1800 X66.853 Y85.521 E35.52396
G0 F3600 X67.419 Y85.521
G1 F1800 X71.976 Y90.078 E35.84548
G0 F3600 X71.976 Y89.512
G1 F1800 X67.985 Y85.521 E36.12707
G0 F3600 X68.55 Y85.521
G1 F1800 X71.976 Y88.946 E36.36876
G0 F3600 X71.976 Y88.381
G1 F1800 X69.116 Y85.521 E36.57055
G0 F3600 X69.682 Y85.521
G1 F1800 X71.976 Y87.815 E36.7324
G0 F3600 X71.976 Y87.249
G1 F1800 X70.248 Y85.521 E36.85432
G0 F3600 X70.813 Y85.521
G1 F1800 X71.976 Y86.684 E36.93638
G0 F3600 X71.976 Y86.118
G1 F1800 X71.379 Y85.521 E36.9785
G1 X71.351 Y85.493
G1 F1500 E32.9785
G0 F3600 X72.556 Y95.64
G0 X72.556 Y96.725
G0 X72.556 Y98.276
G0 X72.556 Y99.361
G0 X72.556 Y110.06
;TYPE:WALL-INNER
G1 F1500 E36.9785
G1 F1800 X72.556 Y99.941 E37.49343
G1 X62.44 Y99.941 E38.00822
G1 X62.44 Y110.06 E38.52315
G1 X72.556 Y110.06 E39.03793
G0 F3600 X72.956 Y110.46
G1 F1800 X72.956 Y99.541 E39.59358
G1 X62.04 Y99.541 E40.14907
G1 X62.04 Y110.46 E40.70472
G1 X72.956 Y110.46 E41.26021
G0 F3600 X73.356 Y110.86
;TYPE:WALL-OUTER
G1 F1800 X73.356 Y99.141 E41.84488
G1 X61.64 Y99.141 E42.42939
G1 X61.64 Y110.86 E43.01405
G1 X73.356 Y110.86 E43.59857
G0 F3600 X73.356 Y110.66
G0 X72.689 Y110.19
G0 X72.176 Y109.68
;TYPE:SKIN
G1 F1800 X62.82 Y109.68 E44.06534
G1 X62.82 Y100.321 E44.53226
G1 X72.176 Y100.321 E44.99904
G1 X72.176 Y109.68 E45.46596
G0 F3600 X63.02 Y109.406
G1 F1800 X63.094 Y109.48 E45.47118
G0 F3600 X63.659 Y109.48
G1 F1800 X63.02 Y108.841 E45.51626
G0 F3600 X63.02 Y108.275
G1 F1800 X64.225 Y109.48 E45.60128
G0 F3600 X64.791 Y109.48
G1 F1800 X63.02 Y107.709 E45.72624
G0 F3600 X63.02 Y107.144
G1 F1800 X65.356 Y109.48 E45.89105
G0 F3600 X65.922 Y109.48
G1 F1800 X63.02 Y106.578 E46.09581
G0 F3600 X63.02 Y106.012
G1 F1800 X66.488 Y109.48 E46.34049
G0 F3600 X67.054 Y109.48
G1 F1800 X63.02 Y105.447 E46.62508
G0 F3600 X63.02 Y104.881
G1 F1800 X67.619 Y109.48 E46.94956
G0 F3600 X68.185 Y109.48
G1 F1800 X63.02 Y104.315 E47.31398
G0 F3600 X63.02 Y103.75
G1 F1800 X68.751 Y109.48 E47.7183
G0 F3600 X69.316 Y109.48
G1 F1800 X63.02 Y103.184 E48.16251
G0 F3600 X63.02 Y102.618
G1 F1800 X69.882 Y109.48 E48.64667
G0 F3600 X70.448 Y109.48
G1 F1800 X63.02 Y102.052 E49.17075
G0 F3600 X63.02 Y101.487
G1 F1800 X71.013 Y109.48 E49.7347
G0 F3600 X71.579 Y109.48
G1 F1800 X63.02 Y100.921 E50.33858
G0 F3600 X63.186 Y100.521
G1 F1800 X71.976 Y109.312 E50.9588
G0 F3600 X71.976 Y108.746
G1 F1800 X63.751 Y100.521 E51.53912
G0 F3600 X64.317 Y100.521
G1 F1800 X71.976 Y108.18 E52.0795
G0 F3600 X71.976 Y107.615
G1 F1800 X64.883 Y100.521 E52.57999
G0 F3600 X65.448 Y100.521
G1 F1800 X71.976 Y107.049 E53.04057
G0 F3600 X71.976 Y106.483
G1 F1800 X66.014 Y100.521 E53.46123
G0 F3600 X66.58 Y100.521
G1 F1800 X71.976 Y105.918 E53.84198
G0 F3600 X71.976 Y105.352
G1 F1800 X67.145 Y100.521 E54.18283
G0 F3600 X67.711 Y100.521
G1 F1800 X71.976 Y104.786 E54.48375
G0 F3600 X71.976 Y104.22
G1 F1800 X68.277 Y100.521 E54.74473
G0 F3600 X68.843 Y100.521
G1 F1800 X71.976 Y103.655 E54.96582
G0 F3600 X71.976 Y103.089
G1 F1800 X69.408 Y100.521 E55.14701
G0 F3600 X69.974 Y100.521
G1 F1800 X71.976 Y102.523 E55.28826
G0 F3600 X71.976 Y101.958
G1 F1800 X70.54 Y100.521 E55.38961
G0 F3600 X71.105 Y100.521
G1 F1800 X71.976 Y101.392 E55.45106
G0 F3600 X71.976 Y100.826
G1 F1800 X71.671 Y100.521 E55.47258
G1 F1500 E51.47258
G0 F3600 X73.139 Y110.06
G0 X74.224 Y110.06
G0 X75.776 Y110.06
G0 X76.861 Y110.06
G0 X87.556 Y110.06
;TYPE:WALL-INNER
G1 F1500 E55.47258
G1 F1800 X87.556 Y99.941 E55.98752
G1 X77.44 Y99.941 E56.5023
G1 X77.44 Y110.06 E57.01724
G1 X87.556 Y110.06 E57.53202
G0 F3600 X87.956 Y110.46
G1 F1800 X87.956 Y99.541 E58.08767
G1 X77.04 Y99.541 E58.64316
G1 X77.04 Y110.46 E59.19881
G1 X87.956 Y110.46 E59.7543
G0 F3600 X88.356 Y110.86
;TYPE:WALL-OUTER
G1 F1800 X88.356 Y99.141 E60.33896
G1 X76.64 Y99.141 E60.92348
G1 X76.64 Y110.86 E61.50814
G1 X88.356 Y110.86 E62.09265
G0 F3600 X88.356 Y110.66
G0 X87.689 Y110.19
G0 X87.176 Y109.68
;TYPE:SKIN
G1 F1800 X77.82 Y109.68 E62.55943
G1 X77.82 Y100.321 E63.02635
G1 X87.176 Y100.321 E63.49312
G1 X87.176 Y109.68 E63.96004
G0 F3600 X78.02 Y109.133
G1 F1800 X78.367 Y109.48 E63.98453
G0 F3600 X78.933 Y109.48
G1 F1800 X78.02 Y108.567 E64.04894
G0 F3600 X78.02 Y108.001
G1 F1800 X79.499 Y109.48 E64.1533
G0 F3600 X80.064 Y109.48
G1 F1800 X78.02 Y107.436 E64.29751
G0 F3600 X78.02 Y106.87
G1 F1800 X80.63 Y109.48 E64.48166
G0 F3600 X81.196 Y109.48
G1 F1800 X78.02 Y106.304 E64.70574
G0 F3600 X78.02 Y105.739
G1 F1800 X81.761 Y109.48 E64.96969
G0 F3600 X82.327 Y109.48
G1 F1800 X78.02 Y105.173 E65.27357
G0 F3600 X78.02 Y104.607
G1 F1800 X82.893 Y109.48 E65.61739
G0 F3600 X83.458 Y109.48
G1 F1800 X78.02 Y104.042 E66.00107
G0 F3600 X78.02 Y103.476
G1 F1800 X84.024 Y109.48 E66.42469
G0 F3600 X84.59 Y109.48
G1 F1800 X78.02 Y102.91 E66.88823
G0 F3600 X78.02 Y102.345
G1 F1800 X85.155 Y109.48 E67.39165
G0 F3600 X85.721 Y109.48
G1 F1800 X78.02 Y101.779 E67.93499
G0 F3600 X78.02 Y101.213
G1 F1800 X86.287 Y109.48 E68.51828
G0 F3600 X86.853 Y109.48
G1 F1800 X78.02 Y100.647 E69.14149
G0 F3600 X78.46 Y100.522
G1 F1800 X86.976 Y109.037 E69.74231
G0 F3600 X86.976 Y108.472
G1 F1800 X79.026 Y100.522 E70.30322
G0 F3600 X79.591 Y100.522
G1 F1800 X86.976 Y107.906 E70.82424
G0 F3600 X86.976 Y107.34
G1 F1800 X80.157 Y100.522 E71.30532
G0 F3600 X80.723 Y100.522
G1 F1800 X86.976 Y106.775 E71.7465
G0 F3600 X86.976 Y106.209
G1 F1800 X81.288 Y100.522 E72.14779
G0 F3600 X81.854 Y100.522
G1 F1800 X86.976 Y105.643 E72.50914
G0 F3600 X86.976 Y105.077
G1 F1800 X82.42 Y100.522 E72.83055
G0 F3600 X82.985 Y100.522
G1 F1800 X86.976 Y104.512 E73.1121
G0 F3600 X86.976 Y103.946
G1 F1800 X83.551 Y100.522 E73.35372
G0 F3600 X84.117 Y100.522
G1 F1800 X86.976 Y103.38 E73.5554
G0 F3600 X86.976 Y102.815
G1 F1800 X84.682 Y100.522 E73.71722
G0 F3600 X85.248 Y100.522
G1 F1800 X86.976 Y102.249 E73.83911
G0 F3600 X86.976 Y101.683
G1 F1800 X85.814 Y100.522 E73.92106
G0 F3600 X86.379 Y100.522
G1 F1800 X86.976 Y101.118 E73.96314
G1 X87.004 Y101.146
G1 F1500 E69.96314
G0 F3600 X87.556 Y99.361
G0 X87.556 Y98.276
G0 X87.556 Y96.725
G0 X87.556 Y95.64
G0 X87.556 Y95.06
;TYPE:WALL-INNER
G1 F1500 E73.96314
G1 F1800 X87.556 Y84.941 E74.47808
G1 X77.44 Y84.941 E74.99286
G1 X77.44 Y95.06 E75.5078
G1 X87.556 Y95.06 E76.02258
G0 F3600 X87.956 Y95.46
G1 F1800 X87.956 Y84.541 E76.57823
G1 X77.04 Y84.541 E77.13372
G1 X77.04 Y95.46 E77.68937
G1 X87.956 Y95.46 E78.24486
G0 F3600 X88.356 Y95.86
;TYPE:WALL-OUTER
G1 F1800 X88.356 Y84.141 E78.82952
G1 X76.64 Y84.141 E79.41404
G1 X76.64 Y95.86 E79.9987
G1 X88.356 Y95.86 E80.58321
G0 F3600 X88.356 Y95.66
G0 X87.689 Y95.19
G0 X87.176 Y94.68
;TYPE:SKIN
G1 F1800 X77.82 Y94.68 E81.04999
G1 X77.82 Y85.321 E81.51691
G1 X87.176 Y85.321 E81.98368
G1 X87.176 Y94.68 E82.4506
G0 F3600 X78.02 Y93.859
G1 F1800 X78.641 Y94.48 E82.49442
G0 F3600 X79.207 Y94.48
G1 F1800 X78.02 Y93.294 E82.57813
G0 F3600 X78.02 Y92.728
G1 F1800 X79.772 Y94.48 E82.70175
G0 F3600 X80.338 Y94.48
G1 F1800 X78.02 Y92.162 E82.86529
G0 F3600 X78.02 Y91.596
G1 F1800 X80.904 Y94.48 E83.06877
G0 F3600 X81.469 Y94.48
G1 F1800 X78.02 Y91.031 E83.31212
G0 F3600 X78.02 Y90.465
G1 F1800 X82.035 Y94.48 E83.5954
G0 F3600 X82.601 Y94.48
G1 F1800 X78.02 Y89.899 E83.91861
G0 F3600 X78.02 Y89.334
G1 F1800 X83.166 Y94.48 E84.28169
G0 F3600 X83.732 Y94.48
G1 F1800 X78.02 Y88.768 E84.6847
G0 F3600 X78.02 Y88.202
G1 F1800 X84.298 Y94.48 E85.12765
G0 F3600 X84.863 Y94.48
G1 F1800 X78.02 Y87.637 E85.61046
G0 F3600 X78.02 Y87.071
G1 F1800 X85.429 Y94.48 E86.13321
G0 F3600 X85.995 Y94.48
G1 F1800 X78.02 Y86.505 E86.69589
G0 F3600 X78.02 Y85.94
G1 F1800 X86.56 Y94.48 E87.29843
G0 F3600 X86.976 Y94.33
G1 F1800 X78.167 Y85.521 E87.91995
G0 F3600 X78.733 Y85.521
G1 F1800 X86.976 Y93.764 E88.50154
G0 F3600 X86.976 Y93.199
G1 F1800 X79.298 Y85.521 E89.04326
G0 F3600 X79.864 Y85.521
G1 F1800 X86.976 Y92.633 E89.54505
G0 F3600 X86.976 Y92.067
G1 F1800 X80.43 Y85.521 E90.00691
G0 F3600 X80.996 Y85.521
G1 F1800 X86.976 Y91.502 E90.42887
G0 F3600 X86.976 Y90.936
G1 F1800 X81.561 Y85.521 E90.81092
G0 F3600 X82.127 Y85.521
G1 F1800 X86.976 Y90.37 E91.15305
G0 F3600 X86.976 Y89.805
G1 F1800 X82.693 Y85.521 E91.45527
G0 F3600 X83.258 Y85.521
G1 F1800 X86.976 Y89.239 E91.7176
G0 F3600 X86.976 Y88.673
G1 F1800 X83.824 Y85.521 E91.93999
G0 F3600 X84.39 Y85.521
G1 F1800 X86.976 Y88.108 E92.12248
G0 F3600 X86.976 Y87.542
G1 F1800 X84.955 Y85.521 E92.26507
G0 F3600 X85.521 Y85.521
G1 F1800 X86.976 Y86.976 E92.36773
G0 F3600 X86.976 Y86.411
G1 F1800 X86.087 Y85.521 E92.43049
G0 F3600 X86.652 Y85.521
G1 F1800 X86.976 Y85.845 E92.45335
G1 F1500 E88.45335
G0 F3600 X88.139 Y95.06
G0 X89.224 Y95.06
G0 X90.776 Y95.06
G0 X91.861 Y95.06
G0 X102.556 Y95.06
;TYPE:WALL-INNER
G1 F1500 E92.45335
G1 F1800 X102.556 Y84.941 E92.96828
G1 X92.44 Y84.941 E93.48307
G1 X92.44 Y95.06 E93.998
G1 X102.556 Y95.06 E94.51279
G0 F3600 X102.956 Y95.46
G1 F1800 X102.956 Y84.541 E95.06843
G1 X92.04 Y84.541 E95.62393
G1 X92.04 Y95.46 E96.17957
G1 X102.956 Y95.46 E96.73507
G0 F3600 X103.356 Y95.86
;TYPE:WALL-OUTER
G1 F1800 X103.356 Y84.141 E97.31973
G1 X91.64 Y84.141 E97.90424
G1 X91.64 Y95.86 E98.48891
G1 X103.356 Y95.86 E99.07342
G0 F3600 X103.356 Y95.66
G0 X102.689 Y95.19
G0 X102.176 Y94.68
;TYPE:SKIN
G1 F1800 X92.82 Y94.68 E99.54019
G1 X92.82 Y85.321 E100.00711
G1 X102.176 Y85.321 E100.47389
G1 X102.176 Y94.68 E100.94081
G0 F3600 X93.021 Y94.152
G1 F1800 X93.349 Y94.48 E100.96395
G0 F3600 X93.914 Y94.48
G1 F1800 X93.021 Y93.586 E101.02699
G0 F3600 X93.021 Y93.021
G1 F1800 X94.48 Y94.48 E101.12993
G0 F3600 X95.046 Y94.48
G1 F1800 X93.021 Y92.455 E101.27281
G0 F3600 X93.021 Y91.889
G1 F1800 X95.611 Y94.48 E101.45558
G0 F3600 X96.177 Y94.48
G1 F1800 X93.021 Y91.324 E101.67825
G0 F3600 X93.021 Y90.758
G1 F1800 X96.743 Y94.48 E101.94086
G0 F3600 X97.308 Y94.48
G1 F1800 X93.021 Y90.192 E102.24337
G0 F3600 X93.021 Y89.626
G1 F1800 X97.874 Y94.48 E102.58581
G0 F3600 X98.44 Y94.48
G1 F1800 X93.021 Y89.061 E102.96815
G0 F3600 X93.021 Y88.495
G1 F1800 X99.006 Y94.48 E103.39042
G0 F3600 X99.571 Y94.48
G1 F1800 X93.021 Y87.929 E103.8526
G0 F3600 X93.021 Y87.364
G1 F1800 X100.137 Y94.48 E104.35467
G0 F3600 X100.703 Y94.48
G1 F1800 X93.021 Y86.798 E104.89667
G0 F3600 X93.021 Y86.232
G1 F1800 X101.268 Y94.48 E105.47858
G0 F3600 X101.834 Y94.48
G1 F1800 X93.021 Y85.667 E106.10038
G0 F3600 X93.441 Y85.521
G1 F1800 X101.975 Y94.056 E106.70254
G0 F3600 X101.975 Y93.49
G1 F1800 X94.006 Y85.521 E107.2648
G0 F3600 X94.572 Y85.521
G1 F1800 X101.975 Y92.924 E107.78712
G0 F3600 X101.975 Y92.359
G1 F1800 X95.138 Y85.521 E108.26954
G0 F3600 X95.703 Y85.521
G1 F1800 X101.975 Y91.793 E108.71206
