;FLAVOR:Marlin
;TIME:6666
;Filament used: 0m
;Layer height: 0.1
;MINX:2.14748e+06
;MINY:2.14748e+06
;MINZ:2.14748e+06
;MAXX:-2.14748e+06
;MAXY:-2.14748e+06
;MAXZ:-2.14748e+06
;TARGET_MACHINE.NAME:Kingroon KP3S

;Generated with Cura_SteamEngine 5.7.1
M140 S60
M105
M190 S60
M104 S215
M105
M109 S215
M82 ;absolute extrusion mode
G28 ; home all axes
 M117 Purge extruder
 G92 E0 ; reset extruder
 G1 Z1.0 F3000 ; move z up little to prevent scratching of surface
 G1 X2 Y20 Z0.3 F5000.0 ; move to start-line position
 G1 X2 Y175.0 Z0.3 F1500.0 E15 ; draw 1st line
 G1 X2 Y175.0 Z0.4 F5000.0 ; move to side a little
 G1 X2 Y20 Z0.4 F1500.0 E30 ; draw 2nd line
 G92 E0 ; reset extruder
 G1 Z1.0 F3000 ; move z up little to prevent scratching of surface
G92 E0
G92 E0
G1 F1500 E-4
;LAYER_COUNT:128
;LAYER:0
M107
;MESH:C:\Users\Haruki\Documents\GitHub\BanteringPrinter\M_S\output_0.stl
G0 F3600 X95.06 Y95.06 Z0.3
;TYPE:WALL-INNER
G1 F1500 E0
G1 F1800 X95.06 Y84.94 E0.51499
G1 X84.94 Y84.94 E1.02997
G1 X84.94 Y95.06 E1.54496
G1 X95.06 Y95.06 E2.05995
G0 F3600 X95.46 Y95.46
G1 F1800 X95.46 Y84.54 E2.61564
G1 X84.54 Y84.54 E3.17134
G1 X84.54 Y95.46 E3.72704
G1 X95.46 Y95.46 E4.28273
G0 F3600 X95.86 Y95.86
;TYPE:WALL-OUTER
G1 F1800 X95.86 Y84.14 E4.86745
G1 X84.14 Y84.14 E5.45216
G1 X84.14 Y95.86 E6.03687
G1 X95.86 Y95.86 E6.62159
G0 F3600 X95.86 Y95.66
G0 X95.19 Y95.19
G0 X94.68 Y94.68
;TYPE:SKIN
G1 F1800 X85.32 Y94.68 E7.08856
G1 X85.32 Y85.32 E7.55553
G1 X94.68 Y85.32 E8.0225
G1 X94.68 Y94.68 E8.48948
G0 F3600 X94.006 Y85.52
G1 F1800 X94.48 Y85.995 E8.52296
G0 F3600 X94.48 Y86.56
G1 F1800 X93.44 Y85.52 E8.59633
G0 F3600 X92.874 Y85.52
G1 F1800 X94.48 Y87.126 E8.70964
G0 F3600 X94.48 Y87.692
G1 F1800 X92.309 Y85.52 E8.86286
G0 F3600 X91.743 Y85.52
G1 F1800 X94.48 Y88.258 E9.056
G0 F3600 X94.48 Y88.823
G1 F1800 X91.177 Y85.52 E9.28905
G0 F3600 X90.611 Y85.52
G1 F1800 X94.48 Y89.389 E9.56202
G0 F3600 X94.48 Y89.955
G1 F1800 X90.046 Y85.52 E9.8749
G0 F3600 X89.48 Y85.52
G1 F1800 X94.48 Y90.52 E10.22768
G0 F3600 X94.48 Y91.086
G1 F1800 X88.914 Y85.52 E10.62039
G0 F3600 X88.349 Y85.52
G1 F1800 X94.48 Y91.652 E11.053
G0 F3600 X94.48 Y92.217
G1 F1800 X87.783 Y85.52 E11.52551
G0 F3600 X87.217 Y85.52
G1 F1800 X94.48 Y92.783 E12.03795
G0 F3600 X94.48 Y93.349
G1 F1800 X86.652 Y85.52 E12.5903
G0 F3600 X86.086 Y85.52
G1 F1800 X94.48 Y93.914 E13.18254
G0 F3600 X94.48 Y94.48
G1 F1800 X85.52 Y85.52 E13.81472
G0 F3600 X85.52 Y86.085
G1 F1800 X93.914 Y94.48 E14.40699
G0 F3600 X93.349 Y94.48
G1 F1800 X85.52 Y86.651 E14.95937
G0 F3600 X85.52 Y87.217
G1 F1800 X92.783 Y94.48 E15.47182
G0 F3600 X92.217 Y94.48
G1 F1800 X85.52 Y87.782 E15.94436
G0 F3600 X85.52 Y88.348
G1 F1800 X91.652 Y94.48 E16.37701
G0 F3600 X91.086 Y94.48
G1 F1800 X85.52 Y88.914 E16.76972
G0 F3600 X85.52 Y89.479
G1 F1800 X90.52 Y94.48 E17.12253
G0 F3600 X89.955 Y94.48
G1 F1800 X85.52 Y90.045 E17.43544
G0 F3600 X85.52 Y90.611
G1 F1800 X89.389 Y94.48 E17.70842
G0 F3600 X88.823 Y94.48
G1 F1800 X85.52 Y91.176 E17.9415
G0 F3600 X85.52 Y91.742
G1 F1800 X88.258 Y94.48 E18.13468
G0 F3600 X87.692 Y94.48
G1 F1800 X85.52 Y92.308 E18.28793
G0 F3600 X85.52 Y92.874
G1 F1800 X87.126 Y94.48 E18.40124
G0 F3600 X86.56 Y94.48
G1 F1800 X85.52 Y93.439 E18.47465
G0 F3600 X85.52 Y94.005
G1 F1800 X85.995 Y94.48 E18.50817
G1 F1500 E14.50817
G0 F3600 X95.06 Y95.64
G0 X95.06 Y96.725
G0 X95.06 Y98.276
G0 X95.06 Y99.361
G0 X95.06 Y110.06
;TYPE:WALL-INNER
G1 F1500 E18.50817
G1 F1800 X95.06 Y99.94 E19.02315
G1 X84.94 Y99.94 E19.53814
G1 X84.94 Y110.06 E20.05313
G1 X95.06 Y110.06 E20.56811
G0 F3600 X95.46 Y110.46
G1 F1800 X95.46 Y99.54 E21.12381
G1 X84.54 Y99.54 E21.67951
G1 X84.54 Y110.46 E22.2352
G1 X95.46 Y110.46 E22.7909
G0 F3600 X95.86 Y110.86
;TYPE:WALL-OUTER
G1 F1800 X95.86 Y99.14 E23.37561
G1 X84.14 Y99.14 E23.96033
G1 X84.14 Y110.86 E24.54504
G1 X95.86 Y110.86 E25.12975
G0 F3600 X95.86 Y110.66
G0 X95.19 Y110.19
G0 X94.68 Y109.68
;TYPE:SKIN
G1 F1800 X85.32 Y109.68 E25.59673
G1 X85.32 Y100.32 E26.0637
G1 X94.68 Y100.32 E26.53067
G1 X94.68 Y109.68 E26.99764
G0 F3600 X94.298 Y100.52
G1 F1800 X94.48 Y100.703 E27.01052
G0 F3600 X94.48 Y101.268
G1 F1800 X93.732 Y100.52 E27.0633
G0 F3600 X93.166 Y100.52
G1 F1800 X94.48 Y101.834 E27.15601
G0 F3600 X94.48 Y102.4
G1 F1800 X92.601 Y100.52 E27.28861
G0 F3600 X92.035 Y100.52
G1 F1800 X94.48 Y102.965 E27.46112
G0 F3600 X94.48 Y103.531
G1 F1800 X91.469 Y100.52 E27.67356
G0 F3600 X90.904 Y100.52
G1 F1800 X94.48 Y104.097 E27.92591
G0 F3600 X94.48 Y104.662
G1 F1800 X90.338 Y100.52 E28.21815
G0 F3600 X89.772 Y100.52
G1 F1800 X94.48 Y105.228 E28.55032
G0 F3600 X94.48 Y105.794
G1 F1800 X89.206 Y100.52 E28.92243
G0 F3600 X88.641 Y100.52
G1 F1800 X94.48 Y106.359 E29.3344
G0 F3600 X94.48 Y106.925
G1 F1800 X88.075 Y100.52 E29.78631
G0 F3600 X87.509 Y100.52
G1 F1800 X94.48 Y107.491 E30.27815
G0 F3600 X94.48 Y108.057
G1 F1800 X86.944 Y100.52 E30.80989
G0 F3600 X86.378 Y100.52
G1 F1800 X94.48 Y108.622 E31.38153
G0 F3600 X94.48 Y109.188
G1 F1800 X85.812 Y100.52 E31.99311
G0 F3600 X85.52 Y100.793
G1 F1800 X94.206 Y109.48 E32.60599
G0 F3600 X93.641 Y109.48
G1 F1800 X85.52 Y101.359 E33.17897
G0 F3600 X85.52 Y101.924
G1 F1800 X93.075 Y109.48 E33.71205
G0 F3600 X92.509 Y109.48
G1 F1800 X85.52 Y102.49 E34.2052
G0 F3600 X85.52 Y103.056
G1 F1800 X91.944 Y109.48 E34.65844
G0 F3600 X91.378 Y109.48
G1 F1800 X85.52 Y103.622 E35.07176
G0 F3600 X85.52 Y104.187
G1 F1800 X90.812 Y109.48 E35.44517
G0 F3600 X90.247 Y109.48
G1 F1800 X85.52 Y104.753 E35.77869
G0 F3600 X85.52 Y105.319
G1 F1800 X89.681 Y109.48 E36.07227
G0 F3600 X89.115 Y109.48
G1 F1800 X85.52 Y105.884 E36.32595
G0 F3600 X85.52 Y106.45
G1 F1800 X88.55 Y109.48 E36.53973
G0 F3600 X87.984 Y109.48
G1 F1800 X85.52 Y107.016 E36.71358
G0 F3600 X85.52 Y107.581
G1 F1800 X87.418 Y109.48 E36.84753
G0 F3600 X86.853 Y109.48
G1 F1800 X85.52 Y108.147 E36.94158
G0 F3600 X85.52 Y108.713
G1 F1800 X86.287 Y109.48 E36.9957
G0 F3600 X85.721 Y109.48
G1 F1800 X85.52 Y109.278 E37.00991
G1 F1500 E33.00991
G0 F3600 X95.059 Y110.64
G0 X95.059 Y111.725
G0 X95.059 Y113.275
G0 X95.059 Y114.36
G0 X95.059 Y125.056
;TYPE:WALL-INNER
G1 F1500 E37.00991
G1 F1800 X95.059 Y114.94 E37.5247
G1 X84.94 Y114.94 E38.03963
G1 X84.94 Y125.056 E38.55442
G1 X95.059 Y125.056 E39.06935
G0 F3600 X95.459 Y125.456
G1 F1800 X95.459 Y114.54 E39.62484
G1 X84.54 Y114.54 E40.18049
G1 X84.54 Y125.456 E40.73598
G1 X95.459 Y125.456 E41.29163
G0 F3600 X95.859 Y125.856
;TYPE:WALL-OUTER
G1 F1800 X95.859 Y114.14 E41.87614
G1 X84.14 Y114.14 E42.46081
G1 X84.14 Y125.856 E43.04532
G1 X95.859 Y125.856 E43.62998
G0 F3600 X95.859 Y125.656
G0 X95.19 Y125.189
G0 X94.676 Y124.676
;TYPE:SKIN
G1 F1800 X85.32 Y124.676 E44.09676
G1 X85.32 Y115.32 E44.56353
G1 X94.676 Y115.32 E45.0303
G1 X94.676 Y124.676 E45.49708
G0 F3600 X85.52 Y123.987
G1 F1800 X86.009 Y124.476 E45.53158
G0 F3600 X86.575 Y124.476
G1 F1800 X85.52 Y123.421 E45.60601
G0 F3600 X85.52 Y122.856
G1 F1800 X87.14 Y124.476 E45.72031
G0 F3600 X87.706 Y124.476
G1 F1800 X85.52 Y122.29 E45.87455
G0 F3600 X85.52 Y121.724
G1 F1800 X88.272 Y124.476 E46.06872
G0 F3600 X88.837 Y124.476
G1 F1800 X85.52 Y121.159 E46.30275
G0 F3600 X85.52 Y120.593
G1 F1800 X89.403 Y124.476 E46.57671
G0 F3600 X89.969 Y124.476
G1 F1800 X85.52 Y120.027 E46.89062
G0 F3600 X85.52 Y119.461
G1 F1800 X90.534 Y124.476 E47.24442
G0 F3600 X91.1 Y124.476
G1 F1800 X85.52 Y118.896 E47.63811
G0 F3600 X85.52 Y118.33
G1 F1800 X91.666 Y124.476 E48.07175
G0 F3600 X92.231 Y124.476
G1 F1800 X85.52 Y117.764 E48.54528
G0 F3600 X85.52 Y117.199
G1 F1800 X92.797 Y124.476 E49.05871
G0 F3600 X93.363 Y124.476
G1 F1800 X85.52 Y116.633 E49.61208
G0 F3600 X85.52 Y116.067
G1 F1800 X93.929 Y124.476 E50.20538
G0 F3600 X94.477 Y124.458
G1 F1800 X85.539 Y115.52 E50.836
G0 F3600 X86.104 Y115.52
G1 F1800 X94.477 Y123.892 E51.42673
G0 F3600 X94.477 Y123.326
G1 F1800 X86.67 Y115.52 E51.97752
G0 F3600 X87.236 Y115.52
G1 F1800 X94.477 Y122.761 E52.48841
G0 F3600 X94.477 Y122.195
G1 F1800 X87.801 Y115.52 E52.9594
G0 F3600 X88.367 Y115.52
G1 F1800 X94.477 Y121.629 E53.39046
G0 F3600 X94.477 Y121.064
G1 F1800 X88.933 Y115.52 E53.78162
G0 F3600 X89.499 Y115.52
G1 F1800 X94.477 Y120.498 E54.13284
G0 F3600 X94.477 Y119.932
G1 F1800 X90.064 Y115.52 E54.44417
G0 F3600 X90.63 Y115.52
G1 F1800 X94.477 Y119.367 E54.7156
G0 F3600 X94.477 Y118.801
G1 F1800 X91.196 Y115.52 E54.94709
G0 F3600 X91.761 Y115.52
G1 F1800 X94.477 Y118.235 E55.13868
G0 F3600 X94.477 Y117.67
G1 F1800 X92.327 Y115.52 E55.29038
G0 F3600 X92.893 Y115.52
G1 F1800 X94.477 Y117.104 E55.40214
G0 F3600 X94.477 Y116.538
G1 F1800 X93.458 Y115.52 E55.474
G0 F3600 X94.024 Y115.52
G1 F1800 X94.477 Y115.973 E55.50596
G1 F1500 E51.50596
G0 F3600 X95.646 Y114.354
G0 X95.646 Y113.275
G0 X96.713 Y111.713
G0 X99.355 Y96.725
G0 X99.355 Y95.646
G0 X110.06 Y95.06
;TYPE:WALL-INNER
G1 F1500 E55.50596
G1 F1800 X110.06 Y84.94 E56.02095
G1 X99.94 Y84.94 E56.53593
G1 X99.94 Y95.06 E57.05092
G1 X110.06 Y95.06 E57.56591
G0 F3600 X110.46 Y95.46
G1 F1800 X110.46 Y84.54 E58.1216
G1 X99.54 Y84.54 E58.6773
G1 X99.54 Y95.46 E59.233
G1 X110.46 Y95.46 E59.78869
G0 F3600 X110.86 Y95.86
;TYPE:WALL-OUTER
G1 F1800 X110.86 Y84.14 E60.37341
G1 X99.14 Y84.14 E60.95812
G1 X99.14 Y95.86 E61.54283
G1 X110.86 Y95.86 E62.12755
G0 F3600 X110.86 Y95.66
G0 X110.19 Y95.19
G0 X109.68 Y94.68
;TYPE:SKIN
G1 F1800 X100.32 Y94.68 E62.59452
G1 X100.32 Y85.32 E63.06149
G1 X109.68 Y85.32 E63.52846
G1 X109.68 Y94.68 E63.99544
G0 F3600 X109.279 Y85.52
G1 F1800 X109.48 Y85.721 E64.00962
G0 F3600 X109.48 Y86.287
G1 F1800 X108.713 Y85.52 E64.06373
G0 F3600 X108.148 Y85.52
G1 F1800 X109.48 Y86.853 E64.15775
G0 F3600 X109.48 Y87.418
G1 F1800 X107.582 Y85.52 E64.29166
G0 F3600 X107.016 Y85.52
G1 F1800 X109.48 Y87.984 E64.46551
G0 F3600 X109.48 Y88.55
G1 F1800 X106.451 Y85.52 E64.67926
G0 F3600 X105.885 Y85.52
G1 F1800 X109.48 Y89.115 E64.9329
G0 F3600 X109.48 Y89.681
G1 F1800 X105.319 Y85.52 E65.22649
G0 F3600 X104.754 Y85.52
G1 F1800 X109.48 Y90.247 E65.55997
G0 F3600 X109.48 Y90.812
G1 F1800 X104.188 Y85.52 E65.93335
G0 F3600 X103.622 Y85.52
G1 F1800 X109.48 Y91.378 E66.34666
G0 F3600 X109.48 Y91.944
G1 F1800 X103.057 Y85.52 E66.79987
G0 F3600 X102.491 Y85.52
G1 F1800 X109.48 Y92.509 E67.29298
G0 F3600 X109.48 Y93.075
G1 F1800 X101.925 Y85.52 E67.82603
G0 F3600 X101.36 Y85.52
G1 F1800 X109.48 Y93.641 E68.39897
G0 F3600 X109.48 Y94.206
G1 F1800 X100.794 Y85.52 E69.01182
G0 F3600 X100.52 Y85.812
G1 F1800 X109.187 Y94.479 E69.62332
G0 F3600 X108.622 Y94.479
G1 F1800 X100.52 Y86.378 E70.19493
G0 F3600 X100.52 Y86.944
G1 F1800 X108.056 Y94.479 E70.7266
G0 F3600 X107.49 Y94.479
G1 F1800 X100.52 Y87.509 E71.21837
G0 F3600 X100.52 Y88.075
G1 F1800 X106.924 Y94.479 E71.6702
G0 F3600 X106.359 Y94.479
G1 F1800 X100.52 Y88.641 E72.08214
G0 F3600 X100.52 Y89.206
G1 F1800 X105.793 Y94.479 E72.45418
G0 F3600 X105.227 Y94.479
G1 F1800 X100.52 Y89.772 E72.78629
G0 F3600 X100.52 Y90.338
G1 F1800 X104.662 Y94.479 E73.07849
G0 F3600 X104.096 Y94.479
G1 F1800 X100.52 Y90.904 E73.33076
G0 F3600 X100.52 Y91.469
G1 F1800 X103.53 Y94.479 E73.54313
G0 F3600 X102.965 Y94.479
G1 F1800 X100.52 Y92.035 E73.71561
G0 F3600 X100.52 Y92.601
G1 F1800 X102.399 Y94.479 E73.84814
G0 F3600 X101.833 Y94.479
G1 F1800 X100.52 Y93.166 E73.94078
G0 F3600 X100.52 Y93.732
G1 F1800 X101.268 Y94.479 E73.99352
G0 F3600 X100.702 Y94.479
G1 F1800 X100.52 Y94.298 E74.00633
G1 F1500 E70.00633
G0 F3600 X110.64 Y95.06
G0 X111.725 Y95.06
G0 X113.275 Y95.06
G0 X114.36 Y95.06
G0 X125.056 Y95.06
;TYPE:WALL-INNER
G1 F1500 E74.00633
G1 F1800 X125.056 Y84.941 E74.52127
G1 X114.94 Y84.941 E75.03605
G1 X114.94 Y95.06 E75.55098
G1 X125.056 Y95.06 E76.06577
G0 F3600 X125.456 Y95.46
G1 F1800 X125.456 Y84.541 E76.62141
G1 X114.54 Y84.541 E77.17691
G1 X114.54 Y95.46 E77.73255
G1 X125.456 Y95.46 E78.28805
G0 F3600 X125.856 Y95.86
;TYPE:WALL-OUTER
G1 F1800 X125.856 Y84.141 E78.87271
G1 X114.14 Y84.141 E79.45722
G1 X114.14 Y95.86 E80.04189
G1 X125.856 Y95.86 E80.6264
G0 F3600 X125.856 Y95.66
G0 X125.189 Y95.19
G0 X124.676 Y94.68
;TYPE:SKIN
G1 F1800 X115.32 Y94.68 E81.09317
G1 X115.32 Y85.321 E81.5601
G1 X124.676 Y85.321 E82.02687
G1 X124.676 Y94.68 E82.49379
G0 F3600 X115.975 Y94.479
G1 F1800 X115.519 Y94.023 E82.52596
G0 F3600 X115.519 Y93.458
G1 F1800 X116.541 Y94.479 E82.59804
G0 F3600 X117.107 Y94.479
G1 F1800 X115.519 Y92.892 E82.71004
G0 F3600 X115.519 Y92.326
G1 F1800 X117.672 Y94.479 E82.86195
G0 F3600 X118.238 Y94.479
G1 F1800 X115.519 Y91.761 E83.05375
G0 F3600 X115.519 Y91.195
G1 F1800 X118.804 Y94.479 E83.28549
G0 F3600 X119.37 Y94.479
G1 F1800 X115.519 Y90.629 E83.55717
G0 F3600 X115.519 Y90.063
G1 F1800 X119.935 Y94.479 E83.86874
G0 F3600 X120.501 Y94.479
G1 F1800 X115.519 Y89.498 E84.22021
G0 F3600 X115.519 Y88.932
G1 F1800 X121.067 Y94.479 E84.61162
G0 F3600 X121.632 Y94.479
G1 F1800 X115.519 Y88.366 E85.04292
G0 F3600 X115.519 Y87.801
G1 F1800 X122.198 Y94.479 E85.51413
G0 F3600 X122.764 Y94.479
G1 F1800 X115.519 Y87.235 E86.02526
G0 F3600 X115.519 Y86.669
G1 F1800 X123.329 Y94.479 E86.5763
G0 F3600 X123.895 Y94.479
G1 F1800 X115.519 Y86.104 E87.16724
G0 F3600 X115.519 Y85.538
G1 F1800 X124.461 Y94.479 E87.79811
G0 F3600 X124.476 Y93.929
G1 F1800 X116.068 Y85.521 E88.39134
G0 F3600 X116.634 Y85.521
G1 F1800 X124.476 Y93.363 E88.94464
G0 F3600 X124.476 Y92.797
G1 F1800 X117.199 Y85.521 E89.45803
G0 F3600 X117.765 Y85.521
G1 F1800 X124.476 Y92.231 E89.93149
G0 F3600 X124.476 Y91.666
G1 F1800 X118.331 Y85.521 E90.36506
G0 F3600 X118.896 Y85.521
G1 F1800 X124.476 Y91.1 E90.75872
G0 F3600 X124.476 Y90.534
G1 F1800 X119.462 Y85.521 E91.11245
G0 F3600 X120.028 Y85.521
G1 F1800 X124.476 Y89.969 E91.42628
G0 F3600 X124.476 Y89.403
G1 F1800 X120.594 Y85.521 E91.70018
G0 F3600 X121.159 Y85.521
G1 F1800 X124.476 Y88.837 E91.93417
G0 F3600 X124.476 Y88.272
G1 F1800 X121.725 Y85.521 E92.12827
G0 F3600 X122.291 Y85.521
G1 F1800 X124.476 Y87.706 E92.28244
G0 F3600 X124.476 Y87.14
G1 F1800 X122.856 Y85.521 E92.3967
G0 F3600 X123.422 Y85.521
G1 F1800 X124.476 Y86.575 E92.47107
G0 F3600 X124.476 Y86.009
G1 F1800 X123.988 Y85.521 E92.5055
G1 F1500 E88.5055
G0 F3600 X125.639 Y95.06
G0 X126.724 Y95.06
G0 X128.276 Y95.06
G0 X129.361 Y95.06
G0 X140.056 Y95.06
;TYPE:WALL-INNER
G1 F1500 E92.5055
G1 F1800 X140.056 Y84.941 E93.02043
G1 X129.94 Y84.941 E93.53521
G1 X129.94 Y95.06 E94.05015
G1 X140.056 Y95.06 E94.56493
G0 F3600 X140.456 Y95.46
G1 F1800 X140.456 Y84.541 E95.12058
G1 X129.54 Y84.541 E95.67607
G1 X129.54 Y95.46 E96.23172
G1 X140.456 Y95.46 E96.78721
G0 F3600 X140.856 Y95.86
;TYPE:WALL-OUTER
G1 F1800 X140.856 Y84.141 E97.37188
G1 X129.14 Y84.141 E97.95639
G1 X129.14 Y95.86 E98.54105
G1 X140.856 Y95.86 E99.12557
G0 F3600 X140.856 Y95.66
G0 X140.189 Y95.19
G0 X139.676 Y94.68
;TYPE:SKIN
G1 F1800 X130.32 Y94.68 E99.59234
G1 X130.32 Y85.321 E100.05926
G1 X139.676 Y85.321 E100.52603
G1 X139.676 Y94.68 E100.99296
G0 F3600 X130.52 Y94.316
G1 F1800 X130.684 Y94.48 E101.00453
G0 F3600 X131.25 Y94.48
G1 F1800 X130.52 Y93.75 E101.05603
G0 F3600 X130.52 Y93.185
G1 F1800 X131.815 Y94.48 E101.1474
G0 F3600 X132.381 Y94.48
G1 F1800 X130.52 Y92.619 E101.27871
G0 F3600 X130.52 Y92.053
G1 F1800 X132.947 Y94.48 E101.44994
G0 F3600 X133.512 Y94.48
G1 F1800 X130.52 Y91.488 E101.66105
G0 F3600 X130.52 Y90.922
G1 F1800 X134.078 Y94.48 E101.91208
G0 F3600 X134.644 Y94.48
G1 F1800 X130.52 Y90.356 E102.20305
G0 F3600 X130.52 Y89.791
G1 F1800 X135.209 Y94.48 E102.53389
G0 F3600 X135.775 Y94.48
G1 F1800 X130.52 Y89.225 E102.90466
G0 F3600 X130.52 Y88.659
G1 F1800 X136.341 Y94.48 E103.31536
G0 F3600 X136.906 Y94.48
G1 F1800 X130.52 Y88.093 E103.76596
G0 F3600 X130.52 Y87.528
G1 F1800 X137.472 Y94.48 E104.25646
G0 F3600 X138.038 Y94.48
G1 F1800 X130.52 Y86.962 E104.7869
G0 F3600 X130.52 Y86.396
G1 F1800 X138.604 Y94.48 E105.35727
G0 F3600 X139.169 Y94.48
G1 F1800 X130.52 Y85.831 E105.9675
G0 F3600 X130.776 Y85.521
G1 F1800 X139.476 Y94.221 E106.58133
G0 F3600 X139.476 Y93.656
G1 F1800 X131.342 Y85.521 E107.15527
G0 F3600 X131.907 Y85.521
G1 F1800 X139.476 Y93.09 E107.6893
G0 F3600 X139.476 Y92.524
