;FLAVOR:Marlin
;TIME:6666
;Filament used: 0m
;Layer height: 0.1
;MINX:2.14748e+06
;MINY:2.14748e+06
;MINZ:2.14748e+06
;MAXX:-2.14748e+06
;MAXY:-2.14748e+06
;MAXZ:-2.14748e+06
;TARGET_MACHINE.NAME:Kingroon KP3S

;Generated with Cura_SteamEngine 5.7.1
M140 S60
M104 S220
M190 S60
M109 S220
M82 ;absolute extrusion mode
G28 ; home all axes
 M117 Purge extruder
 G92 E0 ; reset extruder
 G1 Z1.0 F3000 ; move z up little to prevent scratching of surface
 G1 X2 Y20 Z0.3 F5000.0 ; move to start-line position
 G1 X2 Y175.0 Z0.3 F1500.0 E15 ; draw 1st line
 G1 X2 Y175.0 Z0.4 F5000.0 ; move to side a little
 G1 X2 Y20 Z0.4 F1500.0 E30 ; draw 2nd line
 G92 E0 ; reset extruder
 G1 Z1.0 F3000 ; move z up little to prevent scratching of surface
G92 E0
G92 E0
G1 F1500 E-4
;LAYER_COUNT:128
;LAYER:0
M107
;MESH:C:\Users\ee970\Documents\GitHub\BanteringPrinter\M_S\output_1.stl
G0 F3600 X72.556 Y80.056 Z0.3
;TYPE:WALL-INNER
G1 F1500 E0
G1 F1800 X72.556 Y69.94 E0.51478
G1 X62.44 Y69.94 E1.02957
G1 X62.44 Y80.056 E1.54435
G1 X72.556 Y80.056 E2.05913
G0 F3600 X72.956 Y80.456
G1 F1800 X72.956 Y69.54 E2.61463
G1 X62.04 Y69.54 E3.17012
G1 X62.04 Y80.456 E3.72561
G1 X72.956 Y80.456 E4.28111
G0 F3600 X73.356 Y80.856
;TYPE:WALL-OUTER
G1 F1800 X73.356 Y69.14 E4.86562
G1 X61.64 Y69.14 E5.45013
G1 X61.64 Y80.856 E6.03465
G1 X73.356 Y80.856 E6.61916
G0 F3600 X73.356 Y80.656
G0 X72.689 Y80.189
G0 X72.176 Y79.676
;TYPE:SKIN
G1 F1800 X62.82 Y79.676 E7.08593
G1 X62.82 Y70.32 E7.55271
G1 X72.176 Y70.32 E8.01948
G1 X72.176 Y79.676 E8.48625
G0 F3600 X71.651 Y70.52
G1 F1800 X71.976 Y70.845 E8.50918
G0 F3600 X71.976 Y71.411
G1 F1800 X71.085 Y70.52 E8.57205
G0 F3600 X70.52 Y70.52
G1 F1800 X71.976 Y71.976 E8.67478
G0 F3600 X71.976 Y72.542
G1 F1800 X69.954 Y70.52 E8.81744
G0 F3600 X69.388 Y70.52
G1 F1800 X71.976 Y73.108 E9.00004
G0 F3600 X71.976 Y73.673
G1 F1800 X68.823 Y70.52 E9.2225
G0 F3600 X68.257 Y70.52
G1 F1800 X71.976 Y74.239 E9.48489
G0 F3600 X71.976 Y74.805
G1 F1800 X67.691 Y70.52 E9.78722
G0 F3600 X67.126 Y70.52
G1 F1800 X71.976 Y75.371 E10.12945
G0 F3600 X71.976 Y75.936
G1 F1800 X66.56 Y70.52 E10.51158
G0 F3600 X65.994 Y70.52
G1 F1800 X71.976 Y76.502 E10.93364
G0 F3600 X71.976 Y77.068
G1 F1800 X65.429 Y70.52 E11.3956
G0 F3600 X64.863 Y70.52
G1 F1800 X71.976 Y77.633 E11.89746
G0 F3600 X71.976 Y78.199
G1 F1800 X64.297 Y70.52 E12.43926
G0 F3600 X63.732 Y70.52
G1 F1800 X71.976 Y78.765 E13.02095
G0 F3600 X71.976 Y79.33
G1 F1800 X63.166 Y70.52 E13.64255
G0 F3600 X63.02 Y70.94
G1 F1800 X71.556 Y79.476 E14.24481
G0 F3600 X70.991 Y79.476
G1 F1800 X63.02 Y71.505 E14.8072
G0 F3600 X63.02 Y72.071
G1 F1800 X70.425 Y79.476 E15.32967
G0 F3600 X69.859 Y79.476
G1 F1800 X63.02 Y72.637 E15.8122
G0 F3600 X63.02 Y73.203
G1 F1800 X69.294 Y79.476 E16.25482
G0 F3600 X68.728 Y79.476
G1 F1800 X63.02 Y73.768 E16.65755
G0 F3600 X63.02 Y74.334
G1 F1800 X68.162 Y79.476 E17.02035
G0 F3600 X67.597 Y79.476
G1 F1800 X63.02 Y74.9 E17.34325
G0 F3600 X63.02 Y75.465
G1 F1800 X67.031 Y79.476 E17.62625
G0 F3600 X66.465 Y79.476
G1 F1800 X63.02 Y76.031 E17.86931
G0 F3600 X63.02 Y76.597
G1 F1800 X65.9 Y79.476 E18.07247
G0 F3600 X65.334 Y79.476
G1 F1800 X63.02 Y77.162 E18.23574
G0 F3600 X63.02 Y77.728
G1 F1800 X64.768 Y79.476 E18.35907
G0 F3600 X64.202 Y79.476
G1 F1800 X63.02 Y78.294 E18.44247
G0 F3600 X63.02 Y78.859
G1 F1800 X63.637 Y79.476 E18.486
G1 X63.665 Y79.504
G1 F1500 E14.486
G0 F3600 X73.139 Y80.056
G0 X74.224 Y80.056
G0 X75.776 Y80.056
G0 X76.861 Y80.056
G0 X87.556 Y80.056
;TYPE:WALL-INNER
G1 F1500 E18.486
G1 F1800 X87.556 Y69.94 E19.00078
G1 X77.44 Y69.94 E19.51556
G1 X77.44 Y80.056 E20.03035
G1 X87.556 Y80.056 E20.54513
G0 F3600 X87.956 Y80.456
G1 F1800 X87.956 Y69.54 E21.10062
G1 X77.04 Y69.54 E21.65612
G1 X77.04 Y80.456 E22.21161
G1 X87.956 Y80.456 E22.7671
G0 F3600 X88.356 Y80.856
;TYPE:WALL-OUTER
G1 F1800 X88.356 Y69.14 E23.35162
G1 X76.64 Y69.14 E23.93613
G1 X76.64 Y80.856 E24.52065
G1 X88.356 Y80.856 E25.10516
G0 F3600 X88.356 Y80.656
G0 X87.689 Y80.189
G0 X87.176 Y79.676
;TYPE:SKIN
G1 F1800 X77.82 Y79.676 E25.57193
G1 X77.82 Y70.32 E26.0387
G1 X87.176 Y70.32 E26.50548
G1 X87.176 Y79.676 E26.97225
G0 F3600 X86.36 Y70.52
G1 F1800 X86.976 Y71.136 E27.01571
G0 F3600 X86.976 Y71.702
G1 F1800 X85.794 Y70.52 E27.09911
G0 F3600 X85.228 Y70.52
G1 F1800 X86.976 Y72.268 E27.22244
G0 F3600 X86.976 Y72.833
G1 F1800 X84.663 Y70.52 E27.38563
G0 F3600 X84.097 Y70.52
G1 F1800 X86.976 Y73.399 E27.58876
G0 F3600 X86.976 Y73.965
G1 F1800 X83.531 Y70.52 E27.83183
G0 F3600 X82.966 Y70.52
G1 F1800 X86.976 Y74.53 E28.11475
G0 F3600 X86.976 Y75.096
G1 F1800 X82.4 Y70.52 E28.43761
G0 F3600 X81.834 Y70.52
G1 F1800 X86.976 Y75.662 E28.80041
G0 F3600 X86.976 Y76.228
G1 F1800 X81.268 Y70.52 E29.20314
G0 F3600 X80.703 Y70.52
G1 F1800 X86.976 Y76.793 E29.64573
G0 F3600 X86.976 Y77.359
G1 F1800 X80.137 Y70.52 E30.12826
G0 F3600 X79.571 Y70.52
G1 F1800 X86.976 Y77.925 E30.65073
G0 F3600 X86.976 Y78.49
G1 F1800 X79.006 Y70.52 E31.21305
G0 F3600 X78.44 Y70.52
G1 F1800 X86.976 Y79.056 E31.81531
G0 F3600 X86.83 Y79.476
G1 F1800 X78.019 Y70.665 E32.43698
G0 F3600 X78.019 Y71.231
G1 F1800 X86.264 Y79.476 E33.01871
G0 F3600 X85.699 Y79.476
G1 F1800 X78.019 Y71.797 E33.56054
G0 F3600 X78.019 Y72.362
G1 F1800 X85.133 Y79.476 E34.06247
G0 F3600 X84.567 Y79.476
G1 F1800 X78.019 Y72.928 E34.52446
G0 F3600 X78.019 Y73.494
G1 F1800 X84.001 Y79.476 E34.94653
G0 F3600 X83.436 Y79.476
G1 F1800 X78.019 Y74.06 E35.32869
G0 F3600 X78.019 Y74.625
G1 F1800 X82.87 Y79.476 E35.67095
G0 F3600 X82.304 Y79.476
G1 F1800 X78.019 Y75.191 E35.97328
G0 F3600 X78.019 Y75.757
G1 F1800 X81.739 Y79.476 E36.23572
G0 F3600 X81.173 Y79.476
G1 F1800 X78.019 Y76.322 E36.45825
G0 F3600 X78.019 Y76.888
G1 F1800 X80.607 Y79.476 E36.64084
G0 F3600 X80.042 Y79.476
G1 F1800 X78.019 Y77.454 E36.78354
G0 F3600 X78.019 Y78.019
G1 F1800 X79.476 Y79.476 E36.88634
G0 F3600 X78.91 Y79.476
G1 F1800 X78.019 Y78.585 E36.94921
G0 F3600 X78.019 Y79.151
G1 F1800 X78.345 Y79.476 E36.97217
G1 F1500 E32.97217
G0 F3600 X87.556 Y80.639
G0 X87.556 Y81.724
G0 X87.556 Y83.275
G0 X87.556 Y84.36
G0 X87.556 Y95.06
;TYPE:WALL-INNER
G1 F1500 E36.97217
G1 F1800 X87.556 Y84.941 E37.48711
G1 X77.44 Y84.941 E38.00189
G1 X77.44 Y95.06 E38.51683
G1 X87.556 Y95.06 E39.03161
G0 F3600 X87.956 Y95.46
G1 F1800 X87.956 Y84.541 E39.58726
G1 X77.04 Y84.541 E40.14275
G1 X77.04 Y95.46 E40.6984
G1 X87.956 Y95.46 E41.25389
G0 F3600 X88.356 Y95.86
;TYPE:WALL-OUTER
G1 F1800 X88.356 Y84.141 E41.83855
G1 X76.64 Y84.141 E42.42307
G1 X76.64 Y95.86 E43.00773
G1 X88.356 Y95.86 E43.59224
G0 F3600 X88.356 Y95.66
G0 X87.689 Y95.19
G0 X87.176 Y94.68
;TYPE:SKIN
G1 F1800 X77.82 Y94.68 E44.05902
G1 X77.82 Y85.321 E44.52594
G1 X87.176 Y85.321 E44.99271
G1 X87.176 Y94.68 E45.45963
G0 F3600 X78.02 Y93.859
G1 F1800 X78.641 Y94.48 E45.50345
G0 F3600 X79.207 Y94.48
G1 F1800 X78.02 Y93.294 E45.58716
G0 F3600 X78.02 Y92.728
G1 F1800 X79.772 Y94.48 E45.71078
G0 F3600 X80.338 Y94.48
G1 F1800 X78.02 Y92.162 E45.87432
G0 F3600 X78.02 Y91.596
G1 F1800 X80.904 Y94.48 E46.0778
G0 F3600 X81.469 Y94.48
G1 F1800 X78.02 Y91.031 E46.32115
G0 F3600 X78.02 Y90.465
G1 F1800 X82.035 Y94.48 E46.60443
G0 F3600 X82.601 Y94.48
G1 F1800 X78.02 Y89.899 E46.92764
G0 F3600 X78.02 Y89.334
G1 F1800 X83.166 Y94.48 E47.29072
G0 F3600 X83.732 Y94.48
G1 F1800 X78.02 Y88.768 E47.69374
G0 F3600 X78.02 Y88.202
G1 F1800 X84.298 Y94.48 E48.13668
G0 F3600 X84.863 Y94.48
G1 F1800 X78.02 Y87.637 E48.61949
G0 F3600 X78.02 Y87.071
G1 F1800 X85.429 Y94.48 E49.14224
G0 F3600 X85.995 Y94.48
G1 F1800 X78.02 Y86.505 E49.70492
G0 F3600 X78.02 Y85.94
G1 F1800 X86.56 Y94.48 E50.30746
G0 F3600 X86.976 Y94.33
G1 F1800 X78.167 Y85.521 E50.92898
G0 F3600 X78.733 Y85.521
G1 F1800 X86.976 Y93.764 E51.51057
G0 F3600 X86.976 Y93.199
G1 F1800 X79.298 Y85.521 E52.05229
G0 F3600 X79.864 Y85.521
G1 F1800 X86.976 Y92.633 E52.55408
G0 F3600 X86.976 Y92.067
G1 F1800 X80.43 Y85.521 E53.01594
G0 F3600 X80.996 Y85.521
G1 F1800 X86.976 Y91.502 E53.4379
G0 F3600 X86.976 Y90.936
G1 F1800 X81.561 Y85.521 E53.81995
G0 F3600 X82.127 Y85.521
G1 F1800 X86.976 Y90.37 E54.16208
G0 F3600 X86.976 Y89.805
G1 F1800 X82.693 Y85.521 E54.4643
G0 F3600 X83.258 Y85.521
G1 F1800 X86.976 Y89.239 E54.72663
G0 F3600 X86.976 Y88.673
G1 F1800 X83.824 Y85.521 E54.94902
G0 F3600 X84.39 Y85.521
G1 F1800 X86.976 Y88.108 E55.13151
G0 F3600 X86.976 Y87.542
G1 F1800 X84.955 Y85.521 E55.2741
G0 F3600 X85.521 Y85.521
G1 F1800 X86.976 Y86.976 E55.37676
G0 F3600 X86.976 Y86.411
G1 F1800 X86.087 Y85.521 E55.43952
G0 F3600 X86.652 Y85.521
G1 F1800 X86.976 Y85.845 E55.46238
G1 F1500 E51.46238
G0 F3600 X87.556 Y95.64
G0 X87.556 Y96.725
G0 X87.556 Y98.276
G0 X87.556 Y99.361
G0 X87.556 Y110.06
;TYPE:WALL-INNER
G1 F1500 E55.46238
G1 F1800 X87.556 Y99.941 E55.97731
G1 X77.44 Y99.941 E56.4921
G1 X77.44 Y110.06 E57.00703
G1 X87.556 Y110.06 E57.52182
G0 F3600 X87.956 Y110.46
G1 F1800 X87.956 Y99.541 E58.07746
G1 X77.04 Y99.541 E58.63296
G1 X77.04 Y110.46 E59.1886
G1 X87.956 Y110.46 E59.7441
G0 F3600 X88.356 Y110.86
;TYPE:WALL-OUTER
G1 F1800 X88.356 Y99.141 E60.32876
G1 X76.64 Y99.141 E60.91327
G1 X76.64 Y110.86 E61.49794
G1 X88.356 Y110.86 E62.08245
G0 F3600 X88.356 Y110.66
G0 X87.689 Y110.19
G0 X87.176 Y109.68
;TYPE:SKIN
G1 F1800 X77.82 Y109.68 E62.54922
G1 X77.82 Y100.321 E63.01614
G1 X87.176 Y100.321 E63.48292
G1 X87.176 Y109.68 E63.94984
G0 F3600 X78.02 Y109.133
G1 F1800 X78.367 Y109.48 E63.97432
G0 F3600 X78.933 Y109.48
G1 F1800 X78.02 Y108.567 E64.03874
G0 F3600 X78.02 Y108.001
G1 F1800 X79.499 Y109.48 E64.14309
G0 F3600 X80.064 Y109.48
G1 F1800 X78.02 Y107.436 E64.28731
G0 F3600 X78.02 Y106.87
G1 F1800 X80.63 Y109.48 E64.47146
G0 F3600 X81.196 Y109.48
G1 F1800 X78.02 Y106.304 E64.69554
G0 F3600 X78.02 Y105.739
G1 F1800 X81.761 Y109.48 E64.95949
G0 F3600 X82.327 Y109.48
G1 F1800 X78.02 Y105.173 E65.26337
G0 F3600 X78.02 Y104.607
G1 F1800 X82.893 Y109.48 E65.60719
G0 F3600 X83.458 Y109.48
G1 F1800 X78.02 Y104.042 E65.99087
G0 F3600 X78.02 Y103.476
G1 F1800 X84.024 Y109.48 E66.41448
G0 F3600 X84.59 Y109.48
G1 F1800 X78.02 Y102.91 E66.87803
G0 F3600 X78.02 Y102.345
G1 F1800 X85.155 Y109.48 E67.38144
G0 F3600 X85.721 Y109.48
G1 F1800 X78.02 Y101.779 E67.92479
G0 F3600 X78.02 Y101.213
G1 F1800 X86.287 Y109.48 E68.50807
G0 F3600 X86.853 Y109.48
G1 F1800 X78.02 Y100.647 E69.13129
G0 F3600 X78.46 Y100.522
G1 F1800 X86.976 Y109.037 E69.7321
G0 F3600 X86.976 Y108.472
G1 F1800 X79.026 Y100.522 E70.29302
G0 F3600 X79.591 Y100.522
G1 F1800 X86.976 Y107.906 E70.81403
G0 F3600 X86.976 Y107.34
G1 F1800 X80.157 Y100.522 E71.29512
G0 F3600 X80.723 Y100.522
G1 F1800 X86.976 Y106.775 E71.7363
G0 F3600 X86.976 Y106.209
G1 F1800 X81.288 Y100.522 E72.13758
G0 F3600 X81.854 Y100.522
G1 F1800 X86.976 Y105.643 E72.49893
G0 F3600 X86.976 Y105.077
G1 F1800 X82.42 Y100.522 E72.82035
G0 F3600 X82.985 Y100.522
G1 F1800 X86.976 Y104.512 E73.1019
G0 F3600 X86.976 Y103.946
G1 F1800 X83.551 Y100.522 E73.34352
G0 F3600 X84.117 Y100.522
G1 F1800 X86.976 Y103.38 E73.5452
G0 F3600 X86.976 Y102.815
G1 F1800 X84.682 Y100.522 E73.70702
G0 F3600 X85.248 Y100.522
G1 F1800 X86.976 Y102.249 E73.8289
G0 F3600 X86.976 Y101.683
G1 F1800 X85.814 Y100.522 E73.91085
G0 F3600 X86.379 Y100.522
G1 F1800 X86.976 Y101.118 E73.95294
G1 X87.004 Y101.146
G1 F1500 E69.95294
G0 F3600 X76.861 Y110.06
G0 X75.776 Y110.06
G0 X74.224 Y110.06
G0 X73.139 Y110.06
G0 X72.556 Y110.06
;TYPE:WALL-INNER
G1 F1500 E73.95294
G1 F1800 X72.556 Y99.941 E74.46787
G1 X62.44 Y99.941 E74.98266
G1 X62.44 Y110.06 E75.49759
G1 X72.556 Y110.06 E76.01238
G0 F3600 X72.956 Y110.46
G1 F1800 X72.956 Y99.541 E76.56802
G1 X62.04 Y99.541 E77.12351
G1 X62.04 Y110.46 E77.67916
G1 X72.956 Y110.46 E78.23465
G0 F3600 X73.356 Y110.86
;TYPE:WALL-OUTER
G1 F1800 X73.356 Y99.141 E78.81932
G1 X61.64 Y99.141 E79.40383
G1 X61.64 Y110.86 E79.98849
G1 X73.356 Y110.86 E80.57301
G0 F3600 X73.356 Y110.66
G0 X72.689 Y110.19
G0 X72.176 Y109.68
;TYPE:SKIN
G1 F1800 X62.82 Y109.68 E81.03978
G1 X62.82 Y100.321 E81.5067
G1 X72.176 Y100.321 E81.97348
G1 X72.176 Y109.68 E82.4404
G0 F3600 X63.02 Y109.406
G1 F1800 X63.094 Y109.48 E82.44562
G0 F3600 X63.659 Y109.48
G1 F1800 X63.02 Y108.841 E82.4907
G0 F3600 X63.02 Y108.275
G1 F1800 X64.225 Y109.48 E82.57572
G0 F3600 X64.791 Y109.48
G1 F1800 X63.02 Y107.709 E82.70068
G0 F3600 X63.02 Y107.144
G1 F1800 X65.356 Y109.48 E82.86549
G0 F3600 X65.922 Y109.48
G1 F1800 X63.02 Y106.578 E83.07025
G0 F3600 X63.02 Y106.012
G1 F1800 X66.488 Y109.48 E83.31493
G0 F3600 X67.054 Y109.48
G1 F1800 X63.02 Y105.447 E83.59952
G0 F3600 X63.02 Y104.881
G1 F1800 X67.619 Y109.48 E83.924
G0 F3600 X68.185 Y109.48
G1 F1800 X63.02 Y104.315 E84.28842
G0 F3600 X63.02 Y103.75
G1 F1800 X68.751 Y109.48 E84.69274
G0 F3600 X69.316 Y109.48
G1 F1800 X63.02 Y103.184 E85.13696
G0 F3600 X63.02 Y102.618
G1 F1800 X69.882 Y109.48 E85.62111
G0 F3600 X70.448 Y109.48
G1 F1800 X63.02 Y102.052 E86.14519
G0 F3600 X63.02 Y101.487
G1 F1800 X71.013 Y109.48 E86.70914
G0 F3600 X71.579 Y109.48
G1 F1800 X63.02 Y100.921 E87.31302
G0 F3600 X63.186 Y100.521
G1 F1800 X71.976 Y109.312 E87.93324
G0 F3600 X71.976 Y108.746
G1 F1800 X63.751 Y100.521 E88.51356
G0 F3600 X64.317 Y100.521
G1 F1800 X71.976 Y108.18 E89.05394
G0 F3600 X71.976 Y107.615
G1 F1800 X64.883 Y100.521 E89.55443
G0 F3600 X65.448 Y100.521
G1 F1800 X71.976 Y107.049 E90.01501
G0 F3600 X71.976 Y106.483
G1 F1800 X66.014 Y100.521 E90.43567
G0 F3600 X66.58 Y100.521
G1 F1800 X71.976 Y105.918 E90.81642
G0 F3600 X71.976 Y105.352
G1 F1800 X67.145 Y100.521 E91.15727
G0 F3600 X67.711 Y100.521
G1 F1800 X71.976 Y104.786 E91.45819
G0 F3600 X71.976 Y104.22
G1 F1800 X68.277 Y100.521 E91.71917
G0 F3600 X68.843 Y100.521
G1 F1800 X71.976 Y103.655 E91.94026
G0 F3600 X71.976 Y103.089
G1 F1800 X69.408 Y100.521 E92.12145
G0 F3600 X69.974 Y100.521
G1 F1800 X71.976 Y102.523 E92.2627
G0 F3600 X71.976 Y101.958
G1 F1800 X70.54 Y100.521 E92.36405
G0 F3600 X71.105 Y100.521
G1 F1800 X71.976 Y101.392 E92.4255
G0 F3600 X71.976 Y100.826
G1 F1800 X71.671 Y100.521 E92.44702
G1 F1500 E88.44702
G0 F3600 X73.145 Y99.355
G0 X74.224 Y99.355
G0 X75.788 Y98.288
G0 X89.212 Y96.713
G0 X90.776 Y95.646
G0 X91.855 Y95.646
G0 X102.556 Y95.06
;TYPE:WALL-INNER
G1 F1500 E92.44702
G1 F1800 X102.556 Y84.941 E92.96196
G1 X92.44 Y84.941 E93.47674
G1 X92.44 Y95.06 E93.99168
G1 X102.556 Y95.06 E94.50646
G0 F3600 X102.956 Y95.46
G1 F1800 X102.956 Y84.541 E95.06211
G1 X92.04 Y84.541 E95.6176
G1 X92.04 Y95.46 E96.17325
G1 X102.956 Y95.46 E96.72874
G0 F3600 X103.356 Y95.86
;TYPE:WALL-OUTER
G1 F1800 X103.356 Y84.141 E97.3134
G1 X91.64 Y84.141 E97.89792
G1 X91.64 Y95.86 E98.48258
G1 X103.356 Y95.86 E99.06709
G0 F3600 X103.356 Y95.66
G0 X102.689 Y95.19
G0 X102.176 Y94.68
;TYPE:SKIN
G1 F1800 X92.82 Y94.68 E99.53387
G1 X92.82 Y85.321 E100.00079
G1 X102.176 Y85.321 E100.46756
G1 X102.176 Y94.68 E100.93448
G0 F3600 X93.021 Y94.152
G1 F1800 X93.349 Y94.48 E100.95763
G0 F3600 X93.914 Y94.48
G1 F1800 X93.021 Y93.586 E101.02067
G0 F3600 X93.021 Y93.021
G1 F1800 X94.48 Y94.48 E101.12361
G0 F3600 X95.046 Y94.48
G1 F1800 X93.021 Y92.455 E101.26648
G0 F3600 X93.021 Y91.889
G1 F1800 X95.611 Y94.48 E101.44926
G0 F3600 X96.177 Y94.48
G1 F1800 X93.021 Y91.324 E101.67193
G0 F3600 X93.021 Y90.758
G1 F1800 X96.743 Y94.48 E101.93454
G0 F3600 X97.308 Y94.48
G1 F1800 X93.021 Y90.192 E102.23704
G0 F3600 X93.021 Y89.626
G1 F1800 X97.874 Y94.48 E102.57948
G0 F3600 X98.44 Y94.48
G1 F1800 X93.021 Y89.061 E102.96182
G0 F3600 X93.021 Y88.495
G1 F1800 X99.006 Y94.48 E103.3841
G0 F3600 X99.571 Y94.48
