;FLAVOR:Marlin
;TIME:6666
;Filament used: 0m
;Layer height: 0.1
;MINX:2.14748e+06
;MINY:2.14748e+06
;MINZ:2.14748e+06
;MAXX:-2.14748e+06
;MAXY:-2.14748e+06
;MAXZ:-2.14748e+06
;TARGET_MACHINE.NAME:Kingroon KP3S

;Generated with Cura_SteamEngine 5.7.1
M140 S60
M104 S220
M190 S60
M109 S220
M82 ;absolute extrusion mode
G28 ; home all axes
 M117 Purge extruder
 G92 E0 ; reset extruder
 G1 Z1.0 F3000 ; move z up little to prevent scratching of surface
 G1 X2 Y20 Z0.3 F5000.0 ; move to start-line position
 G1 X2 Y175.0 Z0.3 F1500.0 E15 ; draw 1st line
 G1 X2 Y175.0 Z0.4 F5000.0 ; move to side a little
 G1 X2 Y20 Z0.4 F1500.0 E30 ; draw 2nd line
 G92 E0 ; reset extruder
 G1 Z1.0 F3000 ; move z up little to prevent scratching of surface
G92 E0
G92 E0
G1 F1500 E-4
;LAYER_COUNT:128
;LAYER:0
M107
;MESH:C:\Users\Haruki\Documents\GitHub\BanteringPrinter\M_S\output_1.stl
G0 F3600 X87.556 Y95.06 Z0.3
;TYPE:WALL-INNER
G1 F1500 E0
G1 F1800 X87.556 Y84.941 E0.51494
G1 X77.44 Y84.941 E1.02972
G1 X77.44 Y95.06 E1.54465
G1 X87.556 Y95.06 E2.05944
G0 F3600 X87.956 Y95.46
G1 F1800 X87.956 Y84.541 E2.61508
G1 X77.04 Y84.541 E3.17058
G1 X77.04 Y95.46 E3.72622
G1 X87.956 Y95.46 E4.28172
G0 F3600 X88.356 Y95.86
;TYPE:WALL-OUTER
G1 F1800 X88.356 Y84.141 E4.86638
G1 X76.64 Y84.141 E5.45089
G1 X76.64 Y95.86 E6.03556
G1 X88.356 Y95.86 E6.62007
G0 F3600 X88.356 Y95.66
G0 X87.689 Y95.19
G0 X87.176 Y94.68
;TYPE:SKIN
G1 F1800 X77.82 Y94.68 E7.08684
G1 X77.82 Y85.321 E7.55377
G1 X87.176 Y85.321 E8.02054
G1 X87.176 Y94.68 E8.48746
G0 F3600 X78.02 Y93.859
G1 F1800 X78.641 Y94.48 E8.53128
G0 F3600 X79.207 Y94.48
G1 F1800 X78.02 Y93.294 E8.61499
G0 F3600 X78.02 Y92.728
G1 F1800 X79.772 Y94.48 E8.7386
G0 F3600 X80.338 Y94.48
G1 F1800 X78.02 Y92.162 E8.90215
G0 F3600 X78.02 Y91.596
G1 F1800 X80.904 Y94.48 E9.10563
G0 F3600 X81.469 Y94.48
G1 F1800 X78.02 Y91.031 E9.34898
G0 F3600 X78.02 Y90.465
G1 F1800 X82.035 Y94.48 E9.63226
G0 F3600 X82.601 Y94.48
G1 F1800 X78.02 Y89.899 E9.95547
G0 F3600 X78.02 Y89.334
G1 F1800 X83.166 Y94.48 E10.31855
G0 F3600 X83.732 Y94.48
G1 F1800 X78.02 Y88.768 E10.72156
G0 F3600 X78.02 Y88.202
G1 F1800 X84.298 Y94.48 E11.16451
G0 F3600 X84.863 Y94.48
G1 F1800 X78.02 Y87.637 E11.64732
G0 F3600 X78.02 Y87.071
G1 F1800 X85.429 Y94.48 E12.17006
G0 F3600 X85.995 Y94.48
G1 F1800 X78.02 Y86.505 E12.73274
G0 F3600 X78.02 Y85.94
G1 F1800 X86.56 Y94.48 E13.33529
G0 F3600 X86.976 Y94.33
G1 F1800 X78.167 Y85.521 E13.95681
G0 F3600 X78.733 Y85.521
G1 F1800 X86.976 Y93.764 E14.5384
G0 F3600 X86.976 Y93.199
G1 F1800 X79.298 Y85.521 E15.08012
G0 F3600 X79.864 Y85.521
G1 F1800 X86.976 Y92.633 E15.58191
G0 F3600 X86.976 Y92.067
G1 F1800 X80.43 Y85.521 E16.04377
G0 F3600 X80.996 Y85.521
G1 F1800 X86.976 Y91.502 E16.46572
G0 F3600 X86.976 Y90.936
G1 F1800 X81.561 Y85.521 E16.84778
G0 F3600 X82.127 Y85.521
G1 F1800 X86.976 Y90.37 E17.18991
G0 F3600 X86.976 Y89.805
G1 F1800 X82.693 Y85.521 E17.49213
G0 F3600 X83.258 Y85.521
G1 F1800 X86.976 Y89.239 E17.75445
G0 F3600 X86.976 Y88.673
G1 F1800 X83.824 Y85.521 E17.97684
G0 F3600 X84.39 Y85.521
G1 F1800 X86.976 Y88.108 E18.15934
G0 F3600 X86.976 Y87.542
G1 F1800 X84.955 Y85.521 E18.30193
G0 F3600 X85.521 Y85.521
G1 F1800 X86.976 Y86.976 E18.40459
G0 F3600 X86.976 Y86.411
G1 F1800 X86.087 Y85.521 E18.46735
G0 F3600 X86.652 Y85.521
G1 F1800 X86.976 Y85.845 E18.49021
G1 F1500 E14.49021
G0 F3600 X87.556 Y95.64
G0 X87.556 Y96.725
G0 X87.556 Y98.276
G0 X87.556 Y99.361
G0 X87.556 Y110.06
;TYPE:WALL-INNER
G1 F1500 E18.49021
G1 F1800 X87.556 Y99.941 E19.00514
G1 X77.44 Y99.941 E19.51992
G1 X77.44 Y110.06 E20.03486
G1 X87.556 Y110.06 E20.54964
G0 F3600 X87.956 Y110.46
G1 F1800 X87.956 Y99.541 E21.10529
G1 X77.04 Y99.541 E21.66078
G1 X77.04 Y110.46 E22.21643
G1 X87.956 Y110.46 E22.77192
G0 F3600 X88.356 Y110.86
;TYPE:WALL-OUTER
G1 F1800 X88.356 Y99.141 E23.35659
G1 X76.64 Y99.141 E23.9411
G1 X76.64 Y110.86 E24.52576
G1 X88.356 Y110.86 E25.11028
G0 F3600 X88.356 Y110.66
G0 X87.689 Y110.19
G0 X87.176 Y109.68
;TYPE:SKIN
G1 F1800 X77.82 Y109.68 E25.57705
G1 X77.82 Y100.321 E26.04397
G1 X87.176 Y100.321 E26.51074
G1 X87.176 Y109.68 E26.97767
G0 F3600 X78.02 Y109.133
G1 F1800 X78.367 Y109.48 E27.00215
G0 F3600 X78.933 Y109.48
G1 F1800 X78.02 Y108.567 E27.06657
G0 F3600 X78.02 Y108.001
G1 F1800 X79.499 Y109.48 E27.17092
G0 F3600 X80.064 Y109.48
G1 F1800 X78.02 Y107.436 E27.31513
G0 F3600 X78.02 Y106.87
G1 F1800 X80.63 Y109.48 E27.49928
G0 F3600 X81.196 Y109.48
G1 F1800 X78.02 Y106.304 E27.72337
G0 F3600 X78.02 Y105.739
G1 F1800 X81.761 Y109.48 E27.98731
G0 F3600 X82.327 Y109.48
G1 F1800 X78.02 Y105.173 E28.2912
G0 F3600 X78.02 Y104.607
G1 F1800 X82.893 Y109.48 E28.63501
G0 F3600 X83.458 Y109.48
G1 F1800 X78.02 Y104.042 E29.01869
G0 F3600 X78.02 Y103.476
G1 F1800 X84.024 Y109.48 E29.44231
G0 F3600 X84.59 Y109.48
G1 F1800 X78.02 Y102.91 E29.90586
G0 F3600 X78.02 Y102.345
G1 F1800 X85.155 Y109.48 E30.40927
G0 F3600 X85.721 Y109.48
G1 F1800 X78.02 Y101.779 E30.95262
G0 F3600 X78.02 Y101.213
G1 F1800 X86.287 Y109.48 E31.5359
G0 F3600 X86.853 Y109.48
G1 F1800 X78.02 Y100.647 E32.15911
G0 F3600 X78.46 Y100.522
G1 F1800 X86.976 Y109.037 E32.75993
G0 F3600 X86.976 Y108.472
G1 F1800 X79.026 Y100.522 E33.32084
G0 F3600 X79.591 Y100.522
G1 F1800 X86.976 Y107.906 E33.84186
G0 F3600 X86.976 Y107.34
G1 F1800 X80.157 Y100.522 E34.32294
G0 F3600 X80.723 Y100.522
G1 F1800 X86.976 Y106.775 E34.76413
G0 F3600 X86.976 Y106.209
G1 F1800 X81.288 Y100.522 E35.16541
G0 F3600 X81.854 Y100.522
G1 F1800 X86.976 Y105.643 E35.52676
G0 F3600 X86.976 Y105.077
G1 F1800 X82.42 Y100.522 E35.84817
G0 F3600 X82.985 Y100.522
G1 F1800 X86.976 Y104.512 E36.12973
G0 F3600 X86.976 Y103.946
G1 F1800 X83.551 Y100.522 E36.37134
G0 F3600 X84.117 Y100.522
G1 F1800 X86.976 Y103.38 E36.57303
G0 F3600 X86.976 Y102.815
G1 F1800 X84.682 Y100.522 E36.73484
G0 F3600 X85.248 Y100.522
G1 F1800 X86.976 Y102.249 E36.85673
G0 F3600 X86.976 Y101.683
G1 F1800 X85.814 Y100.522 E36.93868
G0 F3600 X86.379 Y100.522
G1 F1800 X86.976 Y101.118 E36.98076
G1 X87.004 Y101.146
G1 F1500 E32.98076
G0 F3600 X76.861 Y110.06
G0 X75.776 Y110.06
G0 X74.224 Y110.06
G0 X73.139 Y110.06
G0 X72.556 Y110.06
;TYPE:WALL-INNER
G1 F1500 E36.98076
G1 F1800 X72.556 Y99.941 E37.4957
G1 X62.44 Y99.941 E38.01048
G1 X62.44 Y110.06 E38.52542
G1 X72.556 Y110.06 E39.0402
G0 F3600 X72.956 Y110.46
G1 F1800 X72.956 Y99.541 E39.59585
G1 X62.04 Y99.541 E40.15134
G1 X62.04 Y110.46 E40.70699
G1 X72.956 Y110.46 E41.26248
G0 F3600 X73.356 Y110.86
;TYPE:WALL-OUTER
G1 F1800 X73.356 Y99.141 E41.84715
G1 X61.64 Y99.141 E42.43166
G1 X61.64 Y110.86 E43.01632
G1 X73.356 Y110.86 E43.60084
G0 F3600 X73.356 Y110.66
G0 X72.689 Y110.19
G0 X72.176 Y109.68
;TYPE:SKIN
G1 F1800 X62.82 Y109.68 E44.06761
G1 X62.82 Y100.321 E44.53453
G1 X72.176 Y100.321 E45.0013
G1 X72.176 Y109.68 E45.46823
G0 F3600 X63.02 Y109.406
G1 F1800 X63.094 Y109.48 E45.47345
G0 F3600 X63.659 Y109.48
G1 F1800 X63.02 Y108.841 E45.51853
G0 F3600 X63.02 Y108.275
G1 F1800 X64.225 Y109.48 E45.60355
G0 F3600 X64.791 Y109.48
G1 F1800 X63.02 Y107.709 E45.7285
G0 F3600 X63.02 Y107.144
G1 F1800 X65.356 Y109.48 E45.89332
G0 F3600 X65.922 Y109.48
G1 F1800 X63.02 Y106.578 E46.09807
G0 F3600 X63.02 Y106.012
G1 F1800 X66.488 Y109.48 E46.34276
G0 F3600 X67.054 Y109.48
G1 F1800 X63.02 Y105.447 E46.62735
G0 F3600 X63.02 Y104.881
G1 F1800 X67.619 Y109.48 E46.95183
G0 F3600 X68.185 Y109.48
G1 F1800 X63.02 Y104.315 E47.31625
G0 F3600 X63.02 Y103.75
G1 F1800 X68.751 Y109.48 E47.72057
G0 F3600 X69.316 Y109.48
G1 F1800 X63.02 Y103.184 E48.16478
G0 F3600 X63.02 Y102.618
G1 F1800 X69.882 Y109.48 E48.64893
G0 F3600 X70.448 Y109.48
G1 F1800 X63.02 Y102.052 E49.17302
G0 F3600 X63.02 Y101.487
G1 F1800 X71.013 Y109.48 E49.73697
G0 F3600 X71.579 Y109.48
G1 F1800 X63.02 Y100.921 E50.34085
G0 F3600 X63.186 Y100.521
G1 F1800 X71.976 Y109.312 E50.96107
G0 F3600 X71.976 Y108.746
G1 F1800 X63.751 Y100.521 E51.54139
G0 F3600 X64.317 Y100.521
G1 F1800 X71.976 Y108.18 E52.08177
G0 F3600 X71.976 Y107.615
G1 F1800 X64.883 Y100.521 E52.58226
G0 F3600 X65.448 Y100.521
G1 F1800 X71.976 Y107.049 E53.04284
G0 F3600 X71.976 Y106.483
G1 F1800 X66.014 Y100.521 E53.46349
G0 F3600 X66.58 Y100.521
G1 F1800 X71.976 Y105.918 E53.84425
G0 F3600 X71.976 Y105.352
G1 F1800 X67.145 Y100.521 E54.1851
G0 F3600 X67.711 Y100.521
G1 F1800 X71.976 Y104.786 E54.48602
G0 F3600 X71.976 Y104.22
G1 F1800 X68.277 Y100.521 E54.747
G0 F3600 X68.843 Y100.521
G1 F1800 X71.976 Y103.655 E54.96809
G0 F3600 X71.976 Y103.089
G1 F1800 X69.408 Y100.521 E55.14927
G0 F3600 X69.974 Y100.521
G1 F1800 X71.976 Y102.523 E55.29053
G0 F3600 X71.976 Y101.958
G1 F1800 X70.54 Y100.521 E55.39188
G0 F3600 X71.105 Y100.521
G1 F1800 X71.976 Y101.392 E55.45333
G0 F3600 X71.976 Y100.826
G1 F1800 X71.671 Y100.521 E55.47485
G1 F1500 E51.47485
G0 F3600 X73.145 Y99.355
G0 X74.224 Y99.355
G0 X75.788 Y98.288
G0 X89.212 Y96.713
G0 X90.776 Y95.646
G0 X91.855 Y95.646
G0 X102.556 Y95.06
;TYPE:WALL-INNER
G1 F1500 E55.47485
G1 F1800 X102.556 Y84.941 E55.98979
G1 X92.44 Y84.941 E56.50457
G1 X92.44 Y95.06 E57.01951
G1 X102.556 Y95.06 E57.53429
G0 F3600 X102.956 Y95.46
G1 F1800 X102.956 Y84.541 E58.08994
G1 X92.04 Y84.541 E58.64543
G1 X92.04 Y95.46 E59.20107
G1 X102.956 Y95.46 E59.75657
G0 F3600 X103.356 Y95.86
;TYPE:WALL-OUTER
G1 F1800 X103.356 Y84.141 E60.34123
G1 X91.64 Y84.141 E60.92575
G1 X91.64 Y95.86 E61.51041
G1 X103.356 Y95.86 E62.09492
G0 F3600 X103.356 Y95.66
G0 X102.689 Y95.19
G0 X102.176 Y94.68
;TYPE:SKIN
G1 F1800 X92.82 Y94.68 E62.56169
G1 X92.82 Y85.321 E63.02862
G1 X102.176 Y85.321 E63.49539
G1 X102.176 Y94.68 E63.96231
G0 F3600 X93.021 Y94.152
G1 F1800 X93.349 Y94.48 E63.98545
G0 F3600 X93.914 Y94.48
G1 F1800 X93.021 Y93.586 E64.0485
G0 F3600 X93.021 Y93.021
G1 F1800 X94.48 Y94.48 E64.15144
G0 F3600 X95.046 Y94.48
G1 F1800 X93.021 Y92.455 E64.29431
G0 F3600 X93.021 Y91.889
G1 F1800 X95.611 Y94.48 E64.47708
G0 F3600 X96.177 Y94.48
G1 F1800 X93.021 Y91.324 E64.69976
G0 F3600 X93.021 Y90.758
G1 F1800 X96.743 Y94.48 E64.96236
G0 F3600 X97.308 Y94.48
G1 F1800 X93.021 Y90.192 E65.26487
G0 F3600 X93.021 Y89.626
G1 F1800 X97.874 Y94.48 E65.60731
G0 F3600 X98.44 Y94.48
G1 F1800 X93.021 Y89.061 E65.98965
G0 F3600 X93.021 Y88.495
G1 F1800 X99.006 Y94.48 E66.41193
G0 F3600 X99.571 Y94.48
G1 F1800 X93.021 Y87.929 E66.8741
G0 F3600 X93.021 Y87.364
G1 F1800 X100.137 Y94.48 E67.37617
G0 F3600 X100.703 Y94.48
G1 F1800 X93.021 Y86.798 E67.91818
G0 F3600 X93.021 Y86.232
G1 F1800 X101.268 Y94.48 E68.50008
G0 F3600 X101.834 Y94.48
G1 F1800 X93.021 Y85.667 E69.12189
G0 F3600 X93.441 Y85.521
G1 F1800 X101.975 Y94.056 E69.72404
G0 F3600 X101.975 Y93.49
G1 F1800 X94.006 Y85.521 E70.2863
G0 F3600 X94.572 Y85.521
G1 F1800 X101.975 Y92.924 E70.80862
G0 F3600 X101.975 Y92.359
G1 F1800 X95.138 Y85.521 E71.29104
G0 F3600 X95.703 Y85.521
G1 F1800 X101.975 Y91.793 E71.73357
G0 F3600 X101.975 Y91.227
G1 F1800 X96.269 Y85.521 E72.13616
G0 F3600 X96.835 Y85.521
G1 F1800 X101.975 Y90.662 E72.49885
G0 F3600 X101.975 Y90.096
G1 F1800 X97.4 Y85.521 E72.82164
G0 F3600 X97.966 Y85.521
G1 F1800 X101.975 Y89.53 E73.10449
G0 F3600 X101.975 Y88.965
G1 F1800 X98.532 Y85.521 E73.34745
G0 F3600 X99.097 Y85.521
G1 F1800 X101.975 Y88.399 E73.55051
G0 F3600 X101.975 Y87.833
G1 F1800 X99.663 Y85.521 E73.71363
G0 F3600 X100.229 Y85.521
G1 F1800 X101.975 Y87.268 E73.83686
G0 F3600 X101.975 Y86.702
G1 F1800 X100.795 Y85.521 E73.92015
G0 F3600 X101.36 Y85.521
G1 F1800 X101.975 Y86.136 E73.96354
G1 X102.003 Y86.164
G1 F1500 E69.96354
G0 F3600 X103.139 Y95.06
G0 X104.224 Y95.06
G0 X105.776 Y95.06
G0 X106.861 Y95.06
G0 X117.56 Y95.06
;TYPE:WALL-INNER
G1 F1500 E73.96354
G1 F1800 X117.56 Y84.94 E74.47853
G1 X107.44 Y84.94 E74.99351
G1 X107.44 Y95.06 E75.5085
G1 X117.56 Y95.06 E76.02349
G0 F3600 X117.96 Y95.46
G1 F1800 X117.96 Y84.54 E76.57918
G1 X107.04 Y84.54 E77.13488
G1 X107.04 Y95.46 E77.69058
G1 X117.96 Y95.46 E78.24628
G0 F3600 X118.36 Y95.86
;TYPE:WALL-OUTER
G1 F1800 X118.36 Y84.14 E78.83099
G1 X106.64 Y84.14 E79.4157
G1 X106.64 Y95.86 E80.00041
G1 X118.36 Y95.86 E80.58513
G0 F3600 X118.36 Y95.66
G0 X117.69 Y95.19
G0 X117.18 Y94.68
;TYPE:SKIN
G1 F1800 X107.82 Y94.68 E81.0521
G1 X107.82 Y85.32 E81.51907
G1 X117.18 Y85.32 E81.98604
G1 X117.18 Y94.68 E82.45302
G0 F3600 X116.632 Y85.52
G1 F1800 X116.98 Y85.868 E82.47757
G0 F3600 X116.98 Y86.433
G1 F1800 X116.067 Y85.52 E82.54199
G0 F3600 X115.501 Y85.52
G1 F1800 X116.98 Y86.999 E82.64634
G0 F3600 X116.98 Y87.565
G1 F1800 X114.935 Y85.52 E82.79062
G0 F3600 X114.37 Y85.52
G1 F1800 X116.98 Y88.13 E82.97477
G0 F3600 X116.98 Y88.696
G1 F1800 X113.804 Y85.52 E83.19886
G0 F3600 X113.238 Y85.52
G1 F1800 X116.98 Y89.262 E83.46288
G0 F3600 X116.98 Y89.827
G1 F1800 X112.673 Y85.52 E83.76676
G0 F3600 X112.107 Y85.52
G1 F1800 X116.98 Y90.393 E84.11058
G0 F3600 X116.98 Y90.959
G1 F1800 X111.541 Y85.52 E84.49433
G0 F3600 X110.975 Y85.52
G1 F1800 X116.98 Y91.524 E84.91798
G0 F3600 X116.98 Y92.09
G1 F1800 X110.41 Y85.52 E85.38152
G0 F3600 X109.844 Y85.52
G1 F1800 X116.98 Y92.656 E85.88501
G0 F3600 X116.98 Y93.221
G1 F1800 X109.278 Y85.52 E86.42839
G0 F3600 X108.713 Y85.52
G1 F1800 X116.98 Y93.787 E87.01167
G0 F3600 X116.98 Y94.353
G1 F1800 X108.147 Y85.52 E87.63489
G0 F3600 X108.02 Y85.958
G1 F1800 X116.542 Y94.48 E88.23616
G0 F3600 X115.976 Y94.48
G1 F1800 X108.02 Y86.524 E88.7975
G0 F3600 X108.02 Y87.089
G1 F1800 X115.41 Y94.48 E89.31894
G0 F3600 X114.845 Y94.48
G1 F1800 X108.02 Y87.655 E89.80048
G0 F3600 X108.02 Y88.221
G1 F1800 X114.279 Y94.48 E90.24209
G0 F3600 X113.713 Y94.48
G1 F1800 X108.02 Y88.786 E90.64379
G0 F3600 X108.02 Y89.352
G1 F1800 X113.148 Y94.48 E91.0056
G0 F3600 X112.582 Y94.48
G1 F1800 X108.02 Y89.918 E91.32748
G0 F3600 X108.02 Y90.484
G1 F1800 X112.016 Y94.48 E91.60941
G0 F3600 X111.451 Y94.48
G1 F1800 X108.02 Y91.049 E91.85149
G0 F3600 X108.02 Y91.615
G1 F1800 X110.885 Y94.48 E92.05363
G0 F3600 X110.319 Y94.48
G1 F1800 X108.02 Y92.181 E92.21584
G0 F3600 X108.02 Y92.746
G1 F1800 X109.754 Y94.48 E92.33818
G0 F3600 X109.188 Y94.48
G1 F1800 X108.02 Y93.312 E92.42059
G0 F3600 X108.02 Y93.878
G1 F1800 X108.622 Y94.48 E92.46306
G1 X108.65 Y94.508
G1 F1500 E88.46306
G0 F3600 X117.559 Y84.36
G0 X117.559 Y83.275
G0 X117.559 Y81.724
G0 X117.559 Y80.639
G0 X117.559 Y80.056
;TYPE:WALL-INNER
G1 F1500 E92.46306
G1 F1800 X117.559 Y69.94 E92.97785
G1 X107.44 Y69.94 E93.49278
G1 X107.44 Y80.056 E94.00757
G1 X117.559 Y80.056 E94.5225
G0 F3600 X117.959 Y80.456
G1 F1800 X117.959 Y69.54 E95.078
G1 X107.04 Y69.54 E95.63364
G1 X107.04 Y80.456 E96.18914
G1 X117.959 Y80.456 E96.74478
G0 F3600 X118.359 Y80.856
;TYPE:WALL-OUTER
G1 F1800 X118.359 Y69.14 E97.3293
G1 X106.64 Y69.14 E97.91396
G1 X106.64 Y80.856 E98.49847
G1 X118.359 Y80.856 E99.08314
G0 F3600 X118.359 Y80.656
G0 X117.69 Y80.189
G0 X117.176 Y79.676
;TYPE:SKIN
G1 F1800 X107.82 Y79.676 E99.54991
G1 X107.82 Y70.32 E100.01668
G1 X117.176 Y70.32 E100.48345
G1 X117.176 Y79.676 E100.95023
G0 F3600 X108.02 Y79.171
G1 F1800 X108.326 Y79.476 E100.97178
G0 F3600 X108.892 Y79.476
G1 F1800 X108.02 Y78.605 E101.03327
G0 F3600 X108.02 Y78.039
G1 F1800 X109.457 Y79.476 E101.13466
G0 F3600 X110.023 Y79.476
G1 F1800 X108.02 Y77.473 E101.27598
G0 F3600 X108.02 Y76.908
G1 F1800 X110.589 Y79.476 E101.4572
G0 F3600 X111.154 Y79.476
G1 F1800 X108.02 Y76.342 E101.67832
G0 F3600 X108.02 Y75.776
G1 F1800 X111.72 Y79.476 E101.93938
G0 F3600 X112.286 Y79.476
G1 F1800 X108.02 Y75.211 E102.24033
G0 F3600 X108.02 Y74.645
G1 F1800 X112.851 Y79.476 E102.58118
G0 F3600 X113.417 Y79.476
G1 F1800 X108.02 Y74.079 E102.96197
G0 F3600 X108.02 Y73.514
G1 F1800 X113.983 Y79.476 E103.38266
G0 F3600 X114.548 Y79.476
G1 F1800 X108.02 Y72.948 E103.84324
G0 F3600 X108.02 Y72.382
G1 F1800 X115.114 Y79.476 E104.34376
G0 F3600 X115.68 Y79.476
G1 F1800 X108.02 Y71.817 E104.88418
G0 F3600 X108.02 Y71.251
G1 F1800 X116.246 Y79.476 E105.46454
G0 F3600 X116.811 Y79.476
G1 F1800 X108.02 Y70.685 E106.08479
G0 F3600 X108.421 Y70.52
G1 F1800 X116.977 Y79.076 E106.68846
G0 F3600 X116.977 Y78.51
G1 F1800 X108.987 Y70.52 E107.2522
G0 F3600 X109.553 Y70.52
