;FLAVOR:Marlin
;TIME:6666
;Filament used: 0m
;Layer height: 0.1
;MINX:2.14748e+06
;MINY:2.14748e+06
;MINZ:2.14748e+06
;MAXX:-2.14748e+06
;MAXY:-2.14748e+06
;MAXZ:-2.14748e+06
;TARGET_MACHINE.NAME:Kingroon KP3S

;Generated with Cura_SteamEngine 5.7.1
M140 S60
M105
M190 S60
M104 S215
M105
M109 S215
M82 ;absolute extrusion mode
G28 ; home all axes
 M117 Purge extruder
 G92 E0 ; reset extruder
 G1 Z1.0 F3000 ; move z up little to prevent scratching of surface
 G1 X2 Y20 Z0.3 F5000.0 ; move to start-line position
 G1 X2 Y175.0 Z0.3 F1500.0 E15 ; draw 1st line
 G1 X2 Y175.0 Z0.4 F5000.0 ; move to side a little
 G1 X2 Y20 Z0.4 F1500.0 E30 ; draw 2nd line
 G92 E0 ; reset extruder
 G1 Z1.0 F3000 ; move z up little to prevent scratching of surface
G92 E0
G92 E0
G1 F1500 E-4
;LAYER_COUNT:128
;LAYER:0
M107
;MESH:C:\Users\Haruki\Documents\GitHub\BanteringPrinter\M_S\output_1.stl
G0 F3600 X110.06 Y110.06 Z0.3
;TYPE:WALL-INNER
G1 F1500 E0
G1 F1800 X110.06 Y99.94 E0.51499
G1 X99.94 Y99.94 E1.02997
G1 X99.94 Y110.06 E1.54496
G1 X110.06 Y110.06 E2.05995
G0 F3600 X110.46 Y110.46
G1 F1800 X110.46 Y99.54 E2.61564
G1 X99.54 Y99.54 E3.17134
G1 X99.54 Y110.46 E3.72704
G1 X110.46 Y110.46 E4.28273
G0 F3600 X110.86 Y110.86
;TYPE:WALL-OUTER
G1 F1800 X110.86 Y99.14 E4.86745
G1 X99.14 Y99.14 E5.45216
G1 X99.14 Y110.86 E6.03687
G1 X110.86 Y110.86 E6.62159
G0 F3600 X110.86 Y110.66
G0 X110.19 Y110.19
G0 X109.68 Y109.68
;TYPE:SKIN
G1 F1800 X100.32 Y109.68 E7.08856
G1 X100.32 Y100.32 E7.55553
G1 X109.68 Y100.32 E8.0225
G1 X109.68 Y109.68 E8.48948
G0 F3600 X109.005 Y100.52
G1 F1800 X109.48 Y100.995 E8.52299
G0 F3600 X109.48 Y101.56
G1 F1800 X108.44 Y100.52 E8.59637
G0 F3600 X107.874 Y100.52
G1 F1800 X109.48 Y102.126 E8.70968
G0 F3600 X109.48 Y102.692
G1 F1800 X107.308 Y100.52 E8.86293
G0 F3600 X106.743 Y100.52
G1 F1800 X109.48 Y103.257 E9.05604
G0 F3600 X109.48 Y103.823
G1 F1800 X106.177 Y100.52 E9.28908
G0 F3600 X105.611 Y100.52
G1 F1800 X109.48 Y104.389 E9.56206
G0 F3600 X109.48 Y104.954
G1 F1800 X105.046 Y100.52 E9.8749
G0 F3600 X104.48 Y100.52
G1 F1800 X109.48 Y105.52 E10.22768
G0 F3600 X109.48 Y106.086
G1 F1800 X103.914 Y100.52 E10.62039
G0 F3600 X103.349 Y100.52
G1 F1800 X109.48 Y106.652 E11.053
G0 F3600 X109.48 Y107.217
G1 F1800 X102.783 Y100.52 E11.52551
G0 F3600 X102.217 Y100.52
G1 F1800 X109.48 Y107.783 E12.03795
G0 F3600 X109.48 Y108.349
G1 F1800 X101.652 Y100.52 E12.5903
G0 F3600 X101.086 Y100.52
G1 F1800 X109.48 Y108.914 E13.18254
G0 F3600 X109.48 Y109.48
G1 F1800 X100.52 Y100.52 E13.81472
G0 F3600 X100.519 Y101.085
G1 F1800 X108.914 Y109.48 E14.40703
G0 F3600 X108.349 Y109.48
G1 F1800 X100.519 Y101.651 E14.95944
G0 F3600 X100.519 Y102.217
G1 F1800 X107.783 Y109.48 E15.47192
G0 F3600 X107.217 Y109.48
G1 F1800 X100.519 Y102.782 E15.9445
G0 F3600 X100.519 Y103.348
G1 F1800 X106.652 Y109.48 E16.37718
G0 F3600 X106.086 Y109.48
G1 F1800 X100.519 Y103.914 E16.76993
G0 F3600 X100.519 Y104.479
G1 F1800 X105.52 Y109.48 E17.12278
G0 F3600 X104.954 Y109.48
G1 F1800 X100.519 Y105.045 E17.43569
G0 F3600 X100.519 Y105.611
G1 F1800 X104.389 Y109.48 E17.7087
G0 F3600 X103.823 Y109.48
G1 F1800 X100.519 Y106.176 E17.94182
G0 F3600 X100.519 Y106.742
G1 F1800 X103.257 Y109.48 E18.135
G0 F3600 X102.692 Y109.48
G1 F1800 X100.519 Y107.308 E18.28828
G0 F3600 X100.519 Y107.873
G1 F1800 X102.126 Y109.48 E18.40166
G0 F3600 X101.56 Y109.48
G1 F1800 X100.519 Y108.439 E18.47511
G0 F3600 X100.519 Y109.005
G1 F1800 X100.995 Y109.48 E18.50866
G1 F1500 E14.50866
G0 F3600 X110.059 Y110.64
G0 X110.059 Y111.725
G0 X110.059 Y113.275
G0 X110.059 Y114.36
G0 X110.059 Y125.056
;TYPE:WALL-INNER
G1 F1500 E18.50866
G1 F1800 X110.059 Y114.94 E19.02344
G1 X99.94 Y114.94 E19.53838
G1 X99.94 Y125.056 E20.05316
G1 X110.059 Y125.056 E20.5681
G0 F3600 X110.459 Y125.456
G1 F1800 X110.459 Y114.54 E21.12359
G1 X99.54 Y114.54 E21.67924
G1 X99.54 Y125.456 E22.23473
G1 X110.459 Y125.456 E22.79038
G0 F3600 X110.859 Y125.856
;TYPE:WALL-OUTER
G1 F1800 X110.859 Y114.14 E23.37489
G1 X99.14 Y114.14 E23.95955
G1 X99.14 Y125.856 E24.54407
G1 X110.859 Y125.856 E25.12873
G0 F3600 X110.859 Y125.656
G0 X110.19 Y125.189
G0 X109.676 Y124.676
;TYPE:SKIN
G1 F1800 X100.32 Y124.676 E25.5955
G1 X100.32 Y115.32 E26.06228
G1 X109.676 Y115.32 E26.52905
G1 X109.676 Y124.676 E26.99582
G0 F3600 X100.717 Y124.476
G1 F1800 X100.519 Y124.278 E27.00979
G0 F3600 X100.519 Y123.713
G1 F1800 X101.282 Y124.476 E27.06363
G0 F3600 X101.848 Y124.476
G1 F1800 X100.519 Y123.147 E27.15739
G0 F3600 X100.519 Y122.581
G1 F1800 X102.414 Y124.476 E27.2911
G0 F3600 X102.979 Y124.476
G1 F1800 X100.519 Y122.016 E27.46466
G0 F3600 X100.519 Y121.45
G1 F1800 X103.545 Y124.476 E27.67816
G0 F3600 X104.111 Y124.476
G1 F1800 X100.519 Y120.884 E27.9316
G0 F3600 X100.519 Y120.318
G1 F1800 X104.677 Y124.476 E28.22497
G0 F3600 X105.242 Y124.476
G1 F1800 X100.519 Y119.753 E28.5582
G0 F3600 X100.519 Y119.187
G1 F1800 X105.808 Y124.476 E28.93137
G0 F3600 X106.374 Y124.476
G1 F1800 X100.519 Y118.621 E29.34447
G0 F3600 X100.519 Y118.056
G1 F1800 X106.939 Y124.476 E29.79744
G0 F3600 X107.505 Y124.476
G1 F1800 X100.519 Y117.49 E30.29034
G0 F3600 X100.519 Y116.924
G1 F1800 X108.071 Y124.476 E30.82317
G0 F3600 X108.636 Y124.476
G1 F1800 X100.519 Y116.359 E31.39587
G0 F3600 X100.519 Y115.793
G1 F1800 X109.202 Y124.476 E32.0085
G0 F3600 X109.476 Y124.184
G1 F1800 X100.812 Y115.52 E32.61979
G0 F3600 X101.378 Y115.52
G1 F1800 X109.476 Y123.618 E33.19115
G0 F3600 X109.476 Y123.052
G1 F1800 X101.944 Y115.52 E33.72257
G0 F3600 X102.509 Y115.52
G1 F1800 X109.476 Y122.486 E34.2141
G0 F3600 X109.476 Y121.921
G1 F1800 X103.075 Y115.52 E34.66572
G0 F3600 X103.641 Y115.52
G1 F1800 X109.476 Y121.355 E35.07741
G0 F3600 X109.476 Y120.789
G1 F1800 X104.206 Y115.52 E35.44921
G0 F3600 X104.772 Y115.52
G1 F1800 X109.476 Y120.224 E35.7811
G0 F3600 X109.476 Y119.658
G1 F1800 X105.338 Y115.52 E36.07306
G0 F3600 X105.903 Y115.52
G1 F1800 X109.476 Y119.092 E36.32512
G0 F3600 X109.476 Y118.527
G1 F1800 X106.469 Y115.52 E36.53728
G0 F3600 X107.035 Y115.52
G1 F1800 X109.476 Y117.961 E36.7095
G0 F3600 X109.476 Y117.395
G1 F1800 X107.6 Y115.52 E36.84183
G0 F3600 X108.166 Y115.52
G1 F1800 X109.476 Y116.83 E36.93426
G0 F3600 X109.476 Y116.264
G1 F1800 X108.732 Y115.52 E36.98675
G0 F3600 X109.297 Y115.52
G1 F1800 X109.476 Y115.698 E36.99934
G1 F1500 E32.99934
G0 F3600 X99.361 Y125.056
G0 X98.276 Y125.056
G0 X96.725 Y125.056
G0 X95.64 Y125.056
G0 X95.059 Y125.056
;TYPE:WALL-INNER
G1 F1500 E36.99934
G1 F1800 X95.059 Y114.94 E37.51413
G1 X84.94 Y114.94 E38.02906
G1 X84.94 Y125.056 E38.54385
G1 X95.059 Y125.056 E39.05878
G0 F3600 X95.459 Y125.456
G1 F1800 X95.459 Y114.54 E39.61427
G1 X84.54 Y114.54 E40.16992
G1 X84.54 Y125.456 E40.72541
G1 X95.459 Y125.456 E41.28106
G0 F3600 X95.859 Y125.856
;TYPE:WALL-OUTER
G1 F1800 X95.859 Y114.14 E41.86557
G1 X84.14 Y114.14 E42.45024
G1 X84.14 Y125.856 E43.03475
G1 X95.859 Y125.856 E43.61941
G0 F3600 X95.859 Y125.656
G0 X95.19 Y125.189
G0 X94.676 Y124.676
;TYPE:SKIN
G1 F1800 X85.32 Y124.676 E44.08619
G1 X85.32 Y115.32 E44.55296
G1 X94.676 Y115.32 E45.01973
G1 X94.676 Y124.676 E45.48651
G0 F3600 X85.52 Y123.987
G1 F1800 X86.009 Y124.476 E45.52101
G0 F3600 X86.575 Y124.476
G1 F1800 X85.52 Y123.421 E45.59544
G0 F3600 X85.52 Y122.856
G1 F1800 X87.14 Y124.476 E45.70974
G0 F3600 X87.706 Y124.476
G1 F1800 X85.52 Y122.29 E45.86398
G0 F3600 X85.52 Y121.724
G1 F1800 X88.272 Y124.476 E46.05815
G0 F3600 X88.837 Y124.476
G1 F1800 X85.52 Y121.159 E46.29218
G0 F3600 X85.52 Y120.593
G1 F1800 X89.403 Y124.476 E46.56614
G0 F3600 X89.969 Y124.476
G1 F1800 X85.52 Y120.027 E46.88005
G0 F3600 X85.52 Y119.461
G1 F1800 X90.534 Y124.476 E47.23385
G0 F3600 X91.1 Y124.476
G1 F1800 X85.52 Y118.896 E47.62754
G0 F3600 X85.52 Y118.33
G1 F1800 X91.666 Y124.476 E48.06118
G0 F3600 X92.231 Y124.476
G1 F1800 X85.52 Y117.764 E48.53471
G0 F3600 X85.52 Y117.199
G1 F1800 X92.797 Y124.476 E49.04814
G0 F3600 X93.363 Y124.476
G1 F1800 X85.52 Y116.633 E49.60151
G0 F3600 X85.52 Y116.067
G1 F1800 X93.929 Y124.476 E50.19481
G0 F3600 X94.477 Y124.458
G1 F1800 X85.539 Y115.52 E50.82543
G0 F3600 X86.104 Y115.52
G1 F1800 X94.477 Y123.892 E51.41616
G0 F3600 X94.477 Y123.326
G1 F1800 X86.67 Y115.52 E51.96695
G0 F3600 X87.236 Y115.52
G1 F1800 X94.477 Y122.761 E52.47784
G0 F3600 X94.477 Y122.195
G1 F1800 X87.801 Y115.52 E52.94883
G0 F3600 X88.367 Y115.52
G1 F1800 X94.477 Y121.629 E53.37989
G0 F3600 X94.477 Y121.064
G1 F1800 X88.933 Y115.52 E53.77105
G0 F3600 X89.499 Y115.52
G1 F1800 X94.477 Y120.498 E54.12227
G0 F3600 X94.477 Y119.932
G1 F1800 X90.064 Y115.52 E54.4336
G0 F3600 X90.63 Y115.52
G1 F1800 X94.477 Y119.367 E54.70503
G0 F3600 X94.477 Y118.801
G1 F1800 X91.196 Y115.52 E54.93652
G0 F3600 X91.761 Y115.52
G1 F1800 X94.477 Y118.235 E55.12811
G0 F3600 X94.477 Y117.67
G1 F1800 X92.327 Y115.52 E55.27981
G0 F3600 X92.893 Y115.52
G1 F1800 X94.477 Y117.104 E55.39157
G0 F3600 X94.477 Y116.538
G1 F1800 X93.458 Y115.52 E55.46343
G0 F3600 X94.024 Y115.52
G1 F1800 X94.477 Y115.973 E55.49539
G1 F1500 E51.49539
G0 F3600 X95.646 Y114.354
G0 X96.725 Y114.354
G0 X98.288 Y113.287
G0 X111.713 Y111.713
G0 X113.275 Y110.646
G0 X114.354 Y110.646
G0 X125.056 Y110.06
;TYPE:WALL-INNER
G1 F1500 E55.49539
G1 F1800 X125.056 Y99.941 E56.01032
G1 X114.94 Y99.941 E56.52511
G1 X114.94 Y110.06 E57.04004
G1 X125.056 Y110.06 E57.55483
G0 F3600 X125.456 Y110.46
G1 F1800 X125.456 Y99.541 E58.11047
G1 X114.54 Y99.541 E58.66597
G1 X114.54 Y110.46 E59.22161
G1 X125.456 Y110.46 E59.77711
G0 F3600 X125.856 Y110.86
;TYPE:WALL-OUTER
G1 F1800 X125.856 Y99.141 E60.36177
G1 X114.14 Y99.141 E60.94628
G1 X114.14 Y110.86 E61.53095
G1 X125.856 Y110.86 E62.11546
G0 F3600 X125.856 Y110.66
G0 X125.189 Y110.19
G0 X124.676 Y109.68
;TYPE:SKIN
G1 F1800 X115.32 Y109.68 E62.58223
G1 X115.32 Y100.321 E63.04915
G1 X124.676 Y100.321 E63.51593
G1 X124.676 Y109.68 E63.98285
G0 F3600 X115.702 Y109.48
G1 F1800 X115.52 Y109.297 E63.99573
G0 F3600 X115.52 Y108.732
G1 F1800 X116.268 Y109.48 E64.0485
G0 F3600 X116.834 Y109.48
G1 F1800 X115.52 Y108.166 E64.14121
G0 F3600 X115.52 Y107.6
G1 F1800 X117.4 Y109.48 E64.27386
G0 F3600 X117.965 Y109.48
G1 F1800 X115.52 Y107.035 E64.44636
G0 F3600 X115.52 Y106.469
G1 F1800 X118.531 Y109.48 E64.65881
G0 F3600 X119.097 Y109.48
G1 F1800 X115.52 Y105.903 E64.91118
G0 F3600 X115.52 Y105.338
G1 F1800 X119.662 Y109.48 E65.20342
G0 F3600 X120.228 Y109.48
G1 F1800 X115.52 Y104.772 E65.5356
G0 F3600 X115.52 Y104.206
G1 F1800 X120.794 Y109.48 E65.90771
G0 F3600 X121.359 Y109.48
G1 F1800 X115.52 Y103.641 E66.31968
G0 F3600 X115.52 Y103.075
G1 F1800 X121.925 Y109.48 E66.77159
G0 F3600 X122.491 Y109.48
G1 F1800 X115.52 Y102.509 E67.26343
G0 F3600 X115.52 Y101.944
G1 F1800 X123.056 Y109.48 E67.79513
G0 F3600 X123.622 Y109.48
G1 F1800 X115.52 Y101.378 E68.36677
G0 F3600 X115.52 Y100.812
G1 F1800 X124.188 Y109.48 E68.97835
G0 F3600 X124.476 Y109.203
G1 F1800 X115.794 Y100.521 E69.59091
G0 F3600 X116.36 Y100.521
G1 F1800 X124.476 Y108.637 E70.16354
G0 F3600 X124.476 Y108.071
G1 F1800 X116.926 Y100.521 E70.69623
G0 F3600 X117.491 Y100.521
G1 F1800 X124.476 Y107.506 E71.18906
G0 F3600 X124.476 Y106.94
G1 F1800 X118.057 Y100.521 E71.64196
G0 F3600 X118.623 Y100.521
G1 F1800 X124.476 Y106.374 E72.05492
G0 F3600 X124.476 Y105.809
G1 F1800 X119.189 Y100.521 E72.42798
G0 F3600 X119.754 Y100.521
G1 F1800 X124.476 Y105.243 E72.76114
G0 F3600 X124.476 Y104.677
G1 F1800 X120.32 Y100.521 E73.05437
G0 F3600 X120.886 Y100.521
G1 F1800 X124.476 Y104.112 E73.3077
G0 F3600 X124.476 Y103.546
G1 F1800 X121.451 Y100.521 E73.52113
G0 F3600 X122.017 Y100.521
G1 F1800 X124.476 Y102.98 E73.69462
G0 F3600 X124.476 Y102.415
G1 F1800 X122.583 Y100.521 E73.82822
G0 F3600 X123.148 Y100.521
G1 F1800 X124.476 Y101.849 E73.92192
G0 F3600 X124.476 Y101.283
G1 F1800 X123.714 Y100.521 E73.97568
G0 F3600 X124.28 Y100.521
G1 F1800 X124.476 Y100.717 E73.98951
G1 F1500 E69.98951
G0 F3600 X125.056 Y99.361
G0 X125.056 Y98.276
G0 X125.056 Y96.725
G0 X125.056 Y95.64
G0 X125.056 Y95.06
;TYPE:WALL-INNER
G1 F1500 E73.98951
G1 F1800 X125.056 Y84.941 E74.50445
G1 X114.94 Y84.941 E75.01923
G1 X114.94 Y95.06 E75.53417
G1 X125.056 Y95.06 E76.04895
G0 F3600 X125.456 Y95.46
G1 F1800 X125.456 Y84.541 E76.60459
G1 X114.54 Y84.541 E77.16009
G1 X114.54 Y95.46 E77.71573
G1 X125.456 Y95.46 E78.27123
G0 F3600 X125.856 Y95.86
;TYPE:WALL-OUTER
G1 F1800 X125.856 Y84.141 E78.85589
G1 X114.14 Y84.141 E79.4404
G1 X114.14 Y95.86 E80.02507
G1 X125.856 Y95.86 E80.60958
G0 F3600 X125.856 Y95.66
G0 X125.189 Y95.19
G0 X124.676 Y94.68
;TYPE:SKIN
G1 F1800 X115.32 Y94.68 E81.07635
G1 X115.32 Y85.321 E81.54328
G1 X124.676 Y85.321 E82.01005
G1 X124.676 Y94.68 E82.47697
G0 F3600 X115.975 Y94.479
G1 F1800 X115.519 Y94.023 E82.50914
G0 F3600 X115.519 Y93.458
G1 F1800 X116.541 Y94.479 E82.58122
G0 F3600 X117.107 Y94.479
G1 F1800 X115.519 Y92.892 E82.69322
G0 F3600 X115.519 Y92.326
G1 F1800 X117.672 Y94.479 E82.84513
G0 F3600 X118.238 Y94.479
G1 F1800 X115.519 Y91.761 E83.03693
G0 F3600 X115.519 Y91.195
G1 F1800 X118.804 Y94.479 E83.26867
G0 F3600 X119.37 Y94.479
G1 F1800 X115.519 Y90.629 E83.54035
G0 F3600 X115.519 Y90.063
G1 F1800 X119.935 Y94.479 E83.85192
G0 F3600 X120.501 Y94.479
G1 F1800 X115.519 Y89.498 E84.20339
G0 F3600 X115.519 Y88.932
G1 F1800 X121.067 Y94.479 E84.5948
G0 F3600 X121.632 Y94.479
G1 F1800 X115.519 Y88.366 E85.0261
G0 F3600 X115.519 Y87.801
G1 F1800 X122.198 Y94.479 E85.49731
G0 F3600 X122.764 Y94.479
G1 F1800 X115.519 Y87.235 E86.00845
G0 F3600 X115.519 Y86.669
G1 F1800 X123.329 Y94.479 E86.55948
G0 F3600 X123.895 Y94.479
G1 F1800 X115.519 Y86.104 E87.15042
G0 F3600 X115.519 Y85.538
G1 F1800 X124.461 Y94.479 E87.78129
G0 F3600 X124.476 Y93.929
G1 F1800 X116.068 Y85.521 E88.37452
G0 F3600 X116.634 Y85.521
G1 F1800 X124.476 Y93.363 E88.92782
G0 F3600 X124.476 Y92.797
G1 F1800 X117.199 Y85.521 E89.44121
G0 F3600 X117.765 Y85.521
M104 S220
G1 F1800 X124.476 Y92.231 E89.91468
G0 F3600 X124.476 Y91.666
G1 F1800 X118.331 Y85.521 E90.34824
G0 F3600 X118.896 Y85.521
G1 F1800 X124.476 Y91.1 E90.7419
G0 F3600 X124.476 Y90.534
G1 F1800 X119.462 Y85.521 E91.09563
G0 F3600 X120.028 Y85.521
G1 F1800 X124.476 Y89.969 E91.40946
G0 F3600 X124.476 Y89.403
G1 F1800 X120.594 Y85.521 E91.68336
G0 F3600 X121.159 Y85.521
G1 F1800 X124.476 Y88.837 E91.91735
G0 F3600 X124.476 Y88.272
G1 F1800 X121.725 Y85.521 E92.11145
G0 F3600 X122.291 Y85.521
G1 F1800 X124.476 Y87.706 E92.26562
G0 F3600 X124.476 Y87.14
G1 F1800 X122.856 Y85.521 E92.37988
G0 F3600 X123.422 Y85.521
G1 F1800 X124.476 Y86.575 E92.45425
G0 F3600 X124.476 Y86.009
G1 F1800 X123.988 Y85.521 E92.48868
G1 F1500 E88.48868
;MESH:NONMESH
G0 F600 X123.988 Y85.521 Z0.4
G0 F3600 X114.354 Y95.646
G0 X113.275 Y95.646
G0 X110.646 Y98.276
G0 X110.646 Y99.355
G0 X110.16 Y110.18
G0 X110.18 Y110.18
;TIME_ELAPSED:89.195187
;LAYER:1
M106 S255
;TYPE:WALL-INNER
;MESH:C:\Users\Haruki\Documents\GitHub\BanteringPrinter\M_S\output_1.stl
G1 F1500 E92.48868
G1 F2700 X110.18 Y99.816 E92.66448
G1 X99.816 Y99.816 E92.84028
G1 X99.816 Y110.18 E93.01608
G1 X110.18 Y110.18 E93.19188
G0 F5400 X110.58 Y110.58
G1 F2700 X110.58 Y99.416 E93.38125
G1 X99.416 Y99.416 E93.57062
G1 X99.416 Y110.58 E93.76
G1 X110.58 Y110.58 E93.94937
G0 F5400 X110.98 Y110.98
;TYPE:WALL-OUTER
G1 F1800 X110.98 Y99.016 E94.14833
G1 X99.016 Y99.016 E94.34729
G1 X99.016 Y110.98 E94.54625
G1 X110.98 Y110.98 E94.74522
G0 F5400 X110.98 Y110.78
G0 X110.313 Y110.313
G0 X109.8 Y109.8
;TYPE:SKIN
G1 F1800 X100.196 Y109.8 E94.90493
G1 X100.196 Y100.196 E95.06465
G1 X109.8 Y100.196 E95.22436
G1 X109.8 Y109.8 E95.38408
G0 F5400 X109.32 Y109.6
G1 F1800 X109.6 Y109.32 E95.39066
G0 F5400 X109.6 Y108.754
G1 F1800 X108.754 Y109.6 E95.41056
G0 F5400 X108.189 Y109.6
G1 F1800 X109.6 Y108.189 E95.44374
G0 F5400 X109.6 Y107.623
G1 F1800 X107.623 Y109.6 E95.49024
G0 F5400 X107.057 Y109.6
G1 F1800 X109.6 Y107.057 E95.55005
G0 F5400 X109.6 Y106.492
G1 F1800 X106.492 Y109.6 E95.62314
G0 F5400 X105.926 Y109.6
G1 F1800 X109.6 Y105.926 E95.70955
G0 F5400 X109.6 Y105.36
G1 F1800 X105.36 Y109.6 E95.80927
G0 F5400 X104.795 Y109.6
