;FLAVOR:Marlin
;TIME:1182
;Filament used: 0.802721m
;Layer height: 0.2
;MINX:74.451
;MINY:69.45
;MINZ:0.2
;MAXX:105.55
;MAXY:110.55
;MAXZ:10.4
;TARGET_MACHINE.NAME:Kingroon KP3S
;Generated with Cura_SteamEngine 5.6.0
M140 S60
M104 S220
M190 S60
M109 S220
M82 ;absolute extrusion mode
G28 ; home all axes
G90
 M117 Purge extruder
 G92 E0 ; reset extruder
 G1 Z1.0 F3000 ; move z up little to prevent scratching of surface
 G1 X2 Y20 Z0.3 F5000.0 ; move to start-line position
 G1 X2 Y175.0 Z0.3 F1500.0 E15 ; draw 1st line
 G1 X2 Y175.0 Z0.4 F5000.0 ; move to side a little
 G1 X2 Y20 Z0.4 F1500.0 E30 ; draw 2nd line
 G92 E0 ; reset extruder
 G1 Z1.0 F3000 ; move z up little to prevent scratching of surface
G92 E0
G92 E0
G1 F2400 E-4
;LAYER_COUNT:50
;LAYER:0
M107
G1 F240 Z0.6
;MESH:Frantic Albar (15).stl 3
G0 F6000 X78.048 Y69.45 Z0.6
;TYPE:WALL-OUTER
G1 F240 Z0.2
G1 F2400 E0
G1 F900 X76.45 Y69.45 E0.05581
G1 X76.448 Y71.837 E0.13917
G1 X76.362 Y72.054 E0.14732
G1 X76.296 Y72.139 E0.15108
G1 X76.145 Y72.222 E0.1571
G1 X76.062 Y72.245 E0.1601
G1 X75.889 Y72.232 E0.16616
G1 X75.831 Y72.218 E0.16825
G1 X74.451 Y71.665 E0.22017
G1 X74.451 Y74.335 E0.31341
G1 X75.832 Y73.78 E0.36539
G1 X75.894 Y73.766 E0.36761
G1 F902.1 X76.145 Y73.776 E0.37636
G1 X76.23 Y73.818 E0.37966
G1 F900 X76.336 Y73.906 E0.38447
G1 F902.1 X76.382 Y73.961 E0.38697
G1 X76.45 Y74.183 E0.39506
G1 F900 X76.45 Y76.55 E0.47773
G1 X105.55 Y76.55 E1.49399
G1 X105.55 Y74.866 E1.5528
G1 X104.124 Y75.434 E1.6064
G1 X103.898 Y75.432 E1.6143
G1 X103.768 Y75.384 E1.61914
G1 X103.662 Y75.296 E1.62395
G1 X103.595 Y75.194 E1.62821
G1 X103.548 Y75.014 E1.63471
G1 X103.548 Y70.997 E1.77499
G1 F902.1 X103.565 Y70.916 E1.77788
G1 X103.641 Y70.732 E1.78481
G1 X103.733 Y70.639 E1.78937
G1 X103.854 Y70.576 E1.79412
G1 X103.914 Y70.555 E1.79634
G1 F900 X104.109 Y70.565 E1.80316
G1 X104.168 Y70.58 E1.80528
G1 X105.55 Y71.133 E1.85727
G1 X105.55 Y69.45 E1.91604
G1 X101.954 Y69.451 E2.04163
G1 X101.953 Y73.519 E2.18369
G1 X101.918 Y73.876 E2.19622
G1 F902.1 X101.867 Y74.07 E2.20321
G1 X101.8 Y74.258 E2.21016
G1 F900 X101.734 Y74.4 E2.21563
G1 X101.624 Y74.583 E2.22309
G1 X101.512 Y74.714 E2.22911
G1 X101.511 Y74.726 E2.22953
G1 X101.26 Y74.991 E2.24228
G1 X101.047 Y75.136 E2.25127
G1 X101.041 Y75.148 E2.25174
G1 X100.749 Y75.304 E2.2633
G1 F902.1 X100.574 Y75.366 E2.26977
G1 X100.372 Y75.419 E2.27705
G1 F900 X100.2 Y75.443 E2.28311
G1 X100.009 Y75.452 E2.28979
G1 X79.982 Y75.452 E2.9892
G1 X79.802 Y75.443 E2.99549
G1 X79.642 Y75.421 E3.00113
G1 F902.1 X79.454 Y75.375 E3.00787
G1 X79.26 Y75.307 E3.01504
G1 F900 X79.05 Y75.208 E3.02314
G1 X78.909 Y75.121 E3.02893
G1 X78.747 Y74.998 E3.03603
G1 X78.506 Y74.768 E3.04767
G1 X78.469 Y74.72 E3.04978
G1 X78.47 Y74.704 E3.05034
G1 X78.367 Y74.573 E3.05616
G1 X78.284 Y74.432 E3.06188
G1 X78.193 Y74.24 E3.0693
G1 F902.1 X78.133 Y74.072 E3.07551
G1 X78.082 Y73.871 E3.08274
G1 F900 X78.056 Y73.697 E3.08888
G1 F902.1 X78.049 Y73.506 E3.09554
G1 X78.048 Y69.45 E3.23685
G1 F2400 E-0.76315
G1 F240 Z0.6
G0 F6000 X102.374 Y69.871 Z0.6
;TYPE:WALL-INNER
G1 F240 Z0.2
G1 F2400 E3.23685
G1 F895.7 X102.375 Y70.592 E3.26266
G1 F747 X102.457 Y70.997 E3.28039
G1 F644 X102.457 Y73.547 E3.40734
G1 F683.5 X102.412 Y73.707 E3.41514
G1 F806 X102.334 Y73.928 E3.42446
G1 F902.1 X102.281 Y74.152 E3.43264
G1 X102.203 Y74.382 E3.44127
G1 F900 X102.114 Y74.578 E3.44894
G1 X102.009 Y74.763 E3.45652
G1 X101.792 Y75.045 E3.46919
G1 X101.563 Y75.283 E3.48096
G1 X101.453 Y75.373 E3.48602
G1 X101.196 Y75.547 E3.49708
G1 X100.893 Y75.699 E3.50915
G1 F910.8 X100.735 Y75.751 E3.51501
G1 F969.2 X100.497 Y75.796 E3.52302
G1 F1055.9 X100.253 Y75.822 E3.53047
G1 F1105.3 X100.039 Y75.831 E3.53668
G1 F1115 X79.964 Y75.831 E4.11387
G1 F1105.3 X79.75 Y75.822 E4.12009
G1 F1058.8 X79.526 Y75.799 E4.1269
G1 F976.7 X79.295 Y75.759 E4.1346
G1 F915.3 X79.119 Y75.703 E4.14107
G1 F900 X78.832 Y75.567 E4.15238
G1 X78.658 Y75.458 E4.15969
G1 X78.457 Y75.302 E4.16876
G1 X78.216 Y75.072 E4.18063
G1 X78.005 Y74.786 E4.19329
G1 X77.922 Y74.646 E4.19908
G1 X77.798 Y74.383 E4.20944
G1 F902.1 X77.719 Y74.153 E4.21808
G1 X77.666 Y73.931 E4.22619
G1 F900 X77.64 Y73.757 E4.23246
G1 F902.1 X77.628 Y73.506 E4.24139
G1 X77.628 Y72.392 E4.28098
G1 F744.1 X77.54 Y71.975 E4.29934
G1 F638.5 X77.544 Y69.954 E4.40081
G1 F641.8 X76.954 Y69.954 E4.43029
G1 F638.5 X76.949 Y71.924 E4.5292
G1 F744.1 X76.75 Y72.216 E4.54443
G1 F900 X76.551 Y72.473 E4.556
G1 X76.339 Y72.595 E4.56472
G1 F836.3 X76.235 Y72.671 E4.56965
G1 F728.3 X76.097 Y72.73 E4.57626
G1 F678.6 X75.843 Y72.72 E4.58827
G1 F771.4 X75.533 Y72.551 E4.60294
G1 F900 X74.871 Y72.286 E4.62834
G1 X74.871 Y73.713 E4.67918
G1 X75.533 Y73.447 E4.70459
G1 F771.4 X75.843 Y73.278 E4.71926
G1 F678.6 X76.111 Y73.283 E4.73193
G1 F728.3 X76.251 Y73.336 E4.73852
G1 F836.3 X76.427 Y73.443 E4.74641
G1 F900 X76.604 Y73.583 E4.75445
G1 F902.1 X76.744 Y73.747 E4.76211
G1 X76.795 Y73.857 E4.76642
G1 X76.858 Y74.071 E4.77435
G1 F900 X76.87 Y74.153 E4.7773
G1 X76.87 Y76.13 E4.84773
G1 X79.046 Y76.13 E4.92524
G1 F992.1 X79.793 Y76.169 E4.94941
G1 F1102 X100.208 Y76.169 E5.5433
G1 F1073.9 X100.476 Y76.16 E5.55131
G1 F981.8 X100.803 Y76.134 E5.56202
G1 F910.8 X103.348 Y76.13 E5.6516
G1 F984.4 X103.886 Y76.166 E5.66916
G1 F1076.9 X104.22 Y76.164 E5.6791
G1 F919.7 X104.87 Y76.105 E5.70185
G1 F804.3 X105.105 Y76.105 E5.71122
G1 X105.105 Y75.523 E5.73442
G1 X104.783 Y75.652 E5.74825
G1 F895.7 X104.314 Y75.79 E5.76574
G1 F1038.5 X104.19 Y75.814 E5.76964
G1 F1076.9 X103.889 Y75.816 E5.7786
G1 F984.4 X103.5 Y75.708 E5.79175
G1 F900 X103.394 Y75.62 E5.79666
G1 X103.192 Y75.314 E5.80972
G1 X103.144 Y75.148 E5.81588
G1 X103.128 Y75.035 E5.81994
G1 X103.128 Y73.983 E5.85742
G1 F750 X103.044 Y73.563 E5.87572
G1 F644 X103.045 Y70.997 E6.00347
G1 F747 X103.174 Y70.752 E6.01536
G1 F895.7 X103.264 Y70.546 E6.0234
G1 F908.7 X103.54 Y70.269 E6.0372
G1 F945 X103.667 Y70.217 E6.04185
G1 F1030 X103.848 Y70.177 E6.04762
G1 F1098.8 X104.007 Y70.173 E6.05226
G1 F1095.7 X104.145 Y70.183 E6.05631
G1 F1044.2 X104.316 Y70.21 E6.06163
G1 F893.6 X104.783 Y70.347 E6.07909
G1 F804.3 X105.105 Y70.476 E6.09292
G1 X105.105 Y69.895 E6.11608
G1 X104.87 Y69.895 E6.12544
G1 F924.2 X104.161 Y69.834 E6.15013
G1 F1086.2 X103.819 Y69.833 E6.16022
G1 F994.7 X103.442 Y69.867 E6.17242
G1 F908.7 X102.374 Y69.871 E6.2101
G1 F2400 E2.2101
G1 F240 Z0.6
G0 F6000 X75.387 Y72.941 Z0.6
G1 F240 Z0.2
G1 F2400 E6.2101
G1 F692.3 X75.321 Y72.941 E6.21316
G1 X75.286 Y72.999 E6.2163
G1 X75.32 Y73.057 E6.21941
G1 X75.387 Y73.057 E6.22251
G1 X75.422 Y72.999 E6.22565
G1 F2400 E2.22565
G1 F240 Z0.6
G0 F6000 X77.188 Y72.307 Z0.6
G1 F240 Z0.2
G1 F2400 E6.22565
G1 F820 X77.156 Y72.386 E6.22898
G1 X76.817 Y72.823 E6.25061
G1 X76.663 Y72.922 E6.25777
G1 X76.513 Y72.996 E6.26431
G1 X76.658 Y73.069 E6.27065
G1 X76.885 Y73.244 E6.28186
G1 F828.9 X77.119 Y73.526 E6.29603
G1 F857.1 X77.197 Y73.715 E6.30368
G1 F887.3 X77.224 Y73.817 E6.30749
G1 F867 X77.193 Y73.506 E6.31905
G1 F828.9 X77.188 Y72.307 E6.36542
G1 F2400 E2.36542
G1 F240 Z0.6
G0 F6000 X77.224 Y73.817 Z0.6
G1 F240 Z0.2
G1 F2400 E6.36542
G1 F908.7 X77.284 Y74.123 E6.37642
G1 F830.8 X77.331 Y74.546 E6.39285
G1 F756 X77.33 Y75.67 E6.44051
G1 X78.18 Y75.669 E6.47656
G1 X77.899 Y75.405 E6.49291
G1 X77.78 Y75.27 E6.50054
G1 X77.609 Y75.019 E6.51342
G1 X77.526 Y74.879 E6.52032
G1 X77.365 Y74.54 E6.53624
G1 F806 X77.301 Y74.257 E6.54778
G1 F891.5 X77.284 Y74.123 E6.55263
G1 F2400 E2.55263
G1 F240 Z0.6
G0 F6000 X102.656 Y74.514 Z0.6
G1 F240 Z0.2
G1 F2400 E6.55263
G1 F721.4 X102.542 Y74.778 E6.56541
G1 X102.417 Y75 E6.57674
G1 X102.302 Y75.164 E6.58564
G1 X102.132 Y75.372 E6.59758
G1 X101.903 Y75.61 E6.61226
G1 X101.846 Y75.657 E6.61554
G1 X102.877 Y75.657 E6.66136
G1 X102.74 Y75.449 E6.67243
G1 X102.685 Y75.257 E6.6813
G1 X102.656 Y75.058 E6.69024
G1 X102.656 Y74.514 E6.71442
G1 F2400 E2.71442
G1 F240 Z0.6
G0 F6000 X102.907 Y70.34 Z0.6
G1 F240 Z0.2
G1 F2400 E6.71442
G1 F729.7 X102.874 Y70.395 E6.71724
G1 X102.811 Y70.395 E6.72
G1 X102.779 Y70.34 E6.7228
G1 X102.812 Y70.285 E6.72562
G1 X102.874 Y70.285 E6.72834
G1 F2400 E2.72834
G1 F240 Z0.6
G0 F6000 X83.855 Y81.45 Z0.6
;TYPE:WALL-OUTER
G1 F240 Z0.2
G1 F2400 E6.72834
G1 F900 X83.855 Y82.79 E6.77514
G1 X85.249 Y82.79 E6.82382
G1 X85.745 Y82.8 E6.84115
G1 X85.807 Y82.81 E6.84334
G1 X85.818 Y82.826 E6.84402
G1 X86.098 Y82.86 E6.85387
G1 X86.471 Y82.953 E6.86729
G1 X86.784 Y83.089 E6.87921
G1 X87.015 Y83.24 E6.88885
G1 X87.181 Y83.382 E6.89648
G1 X87.288 Y83.496 E6.90194
G1 X87.411 Y83.654 E6.90893
G1 X87.536 Y83.844 E6.91687
G1 X87.733 Y84.222 E6.93176
G1 X87.755 Y84.291 E6.93429
G1 X87.734 Y84.315 E6.9354
G1 X87.822 Y84.586 E6.94535
G1 X87.876 Y84.818 E6.95367
G1 X87.919 Y85.087 E6.96319
G1 X87.963 Y85.645 E6.98273
G1 X87.963 Y106.336 E7.70533
G1 X87.917 Y106.892 E7.72481
G1 X87.879 Y107.126 E7.73309
G1 X87.822 Y107.383 E7.74228
G1 X87.735 Y107.656 E7.75229
G1 X87.755 Y107.679 E7.75335
G1 X87.732 Y107.748 E7.75589
G1 X87.523 Y108.144 E7.77153
G1 X87.424 Y108.299 E7.77796
G1 X87.261 Y108.502 E7.78705
G1 X87.004 Y108.738 E7.79923
G1 X86.784 Y108.881 E7.8084
G1 X86.411 Y109.039 E7.82254
G1 X86.137 Y109.112 E7.83245
G1 X85.768 Y109.179 E7.84554
G1 X85.45 Y109.205 E7.85669
G1 X83.855 Y109.211 E7.91239
G1 X83.855 Y110.55 E7.95915
G1 X98.145 Y110.55 E8.4582
G1 X98.145 Y109.211 E8.50496
G1 X96.53 Y109.205 E8.56137
G1 X96.206 Y109.176 E8.57273
G1 F902.1 X95.888 Y109.115 E8.58401
G1 X95.566 Y109.034 E8.59557
G1 F900 X95.413 Y108.983 E8.60121
G1 X95.234 Y108.905 E8.60803
G1 X95.093 Y108.826 E8.61367
G1 X94.942 Y108.72 E8.62011
G1 X94.789 Y108.589 E8.62715
G1 X94.666 Y108.457 E8.63345
G1 X94.562 Y108.324 E8.63934
G1 X94.443 Y108.14 E8.647
G1 X94.342 Y107.945 E8.65467
G1 X94.278 Y107.793 E8.66043
G1 X94.206 Y107.582 E8.66821
G1 X94.149 Y107.356 E8.67635
G1 X94.104 Y107.115 E8.68491
G1 X94.072 Y106.86 E8.69389
G1 X94.036 Y106.319 E8.71282
G1 X94.035 Y85.663 E9.4342
G1 X94.073 Y85.097 E9.45401
G1 X94.106 Y84.839 E9.46309
G1 X94.223 Y84.328 E9.4814
G1 X94.35 Y84.009 E9.49339
G1 X94.476 Y83.779 E9.50255
G1 X94.642 Y83.547 E9.51251
G1 X94.639 Y83.527 E9.51322
G1 X94.69 Y83.464 E9.51605
G1 X94.98 Y83.221 E9.52926
G1 X95.235 Y83.066 E9.53968
G1 X95.566 Y82.936 E9.5521
G1 X96.095 Y82.811 E9.57109
G1 X96.157 Y82.809 E9.57325
G1 X96.173 Y82.827 E9.57409
G1 X96.396 Y82.8 E9.58194
G1 X98.145 Y82.789 E9.64302
G1 X98.145 Y81.45 E9.68978
G1 X83.855 Y81.45 E10.18883
G1 F2400 E6.18883
G1 F240 Z0.6
G0 F6000 X86.615 Y81.871 Z0.6
;TYPE:WALL-INNER
G1 F240 Z0.2
G1 F2400 E10.18883
G1 F827.1 X86.154 Y81.908 E10.20676
G1 F787.5 X85.758 Y81.892 E10.22289
G1 F818.2 X84.295 Y81.89 E10.28022
G1 F821.7 X84.295 Y82.35 E10.29817
G1 F818.2 X85.754 Y82.358 E10.35534
G1 F787.5 X86.126 Y82.402 E10.37059
G1 F827.1 X86.635 Y82.566 E10.39131
G1 F900 X86.916 Y82.685 E10.40218
G1 X87.012 Y82.736 E10.40606
G1 X87.286 Y82.919 E10.41779
G1 X87.485 Y83.092 E10.42719
G1 X87.618 Y83.236 E10.43417
G1 X87.762 Y83.423 E10.44258
G1 X87.92 Y83.67 E10.45302
G1 X88.106 Y84.029 E10.46742
G1 X88.172 Y84.237 E10.4752
G1 X88.157 Y84.254 E10.476
G1 X88.223 Y84.459 E10.48367
G1 X88.282 Y84.707 E10.49276
G1 X88.335 Y85.028 E10.50435
G1 X88.383 Y85.609 E10.52511
G1 X88.381 Y106.37 E11.26465
G1 X88.335 Y106.936 E11.28488
G1 X88.296 Y107.182 E11.29375
G1 X88.222 Y107.51 E11.30573
G1 X88.155 Y107.719 E11.31355
G1 X88.171 Y107.737 E11.31441
G1 X88.104 Y107.944 E11.32216
G1 X87.877 Y108.37 E11.33935
G1 X87.741 Y108.577 E11.34817
G1 X87.548 Y108.809 E11.35892
G1 X87.32 Y109.022 E11.37004
G1 X87.233 Y109.09 E11.37397
G1 X87.013 Y109.233 E11.38332
G1 X86.913 Y109.286 E11.38735
G1 X86.519 Y109.445 E11.40248
G1 X86.245 Y109.518 E11.41259
G1 X85.864 Y109.59 E11.4264
G1 F838.1 X85.864 Y109.621 E11.42758
G1 F799.2 X85.486 Y109.645 E11.44278
G1 F818.2 X84.295 Y109.649 E11.48945
G1 F820 X84.295 Y110.11 E11.50747
G1 F800.8 X85.905 Y110.1 E11.57192
G1 F838.1 X85.913 Y110.129 E11.57307
G1 F889.4 X95.71 Y110.125 E11.92621
G1 F827.1 X96.057 Y110.097 E11.93971
G1 F797.5 X96.47 Y110.108 E11.95632
G1 F818.2 X97.705 Y110.11 E12.00471
G1 F820 X97.705 Y109.649 E12.02273
G1 F818.2 X96.49 Y109.645 E12.07034
G1 F797.5 X96.101 Y109.618 E12.08602
G1 F836.3 X95.301 Y109.39 E12.11791
G1 F900 X95.028 Y109.272 E12.1285
G1 X94.833 Y109.158 E12.13655
G1 X94.671 Y109.041 E12.14367
G1 X94.483 Y108.877 E12.15255
G1 X94.335 Y108.716 E12.16034
G1 X94.231 Y108.583 E12.16636
G1 X94.071 Y108.334 E12.1769
G1 X93.956 Y108.11 E12.18587
G1 X93.881 Y107.93 E12.19282
G1 X93.799 Y107.685 E12.20202
G1 X93.736 Y107.434 E12.21124
G1 X93.693 Y107.205 E12.21954
G1 X93.656 Y106.925 E12.2296
G1 X93.617 Y106.362 E12.2497
G1 X93.615 Y85.671 E12.98675
G1 X93.656 Y85.044 E13.00913
G1 X93.7 Y84.727 E13.02053
G1 X93.804 Y84.266 E13.03736
G1 X93.832 Y84.175 E13.04076
G1 X93.98 Y83.809 E13.05482
G1 X94.135 Y83.533 E13.06609
G1 X94.268 Y83.347 E13.07424
G1 X94.267 Y83.333 E13.07474
G1 X94.418 Y83.144 E13.08336
G1 X94.762 Y82.862 E13.0992
G1 X95.017 Y82.707 E13.10983
G1 X95.116 Y82.658 E13.11377
G1 X95.386 Y82.553 E13.12409
G1 F843.7 X96.018 Y82.369 E13.1491
G1 F797.5 X96.215 Y82.372 E13.15702
G1 F804.3 X96.325 Y82.36 E13.16143
G1 F814.7 X97.705 Y82.349 E13.21574
G1 F821.7 X97.705 Y81.89 E13.23365
G1 F807.7 X95.978 Y81.898 E13.3022
G1 F843.7 X95.392 Y81.871 E13.32448
G1 F900 X86.615 Y81.871 E13.63714
G0 F6000 X87.081 Y82.295
G1 F900 X87.24 Y82.383 E13.64361
G1 X87.449 Y82.518 E13.65247
G1 X87.707 Y82.724 E13.66423
G1 X87.949 Y82.977 E13.6767
G1 X88.113 Y83.192 E13.68634
G1 X88.293 Y83.476 E13.69831
G1 X88.479 Y83.835 E13.71272
G1 X88.588 Y84.183 E13.72571
G1 X88.579 Y84.193 E13.72619
G1 X88.64 Y84.394 E13.73367
G1 X88.691 Y84.611 E13.74161
G1 X88.747 Y84.936 E13.75336
G1 X88.802 Y85.585 E13.77656
G1 X88.8 Y106.404 E14.51816
G1 X88.752 Y106.987 E14.539
G1 X88.7 Y107.306 E14.55051
G1 X88.622 Y107.638 E14.56266
G1 X88.576 Y107.783 E14.56808
G1 X88.587 Y107.795 E14.56866
G1 X88.475 Y108.14 E14.58158
G1 X88.275 Y108.521 E14.59691
G1 X88.132 Y108.751 E14.60656
G1 X87.941 Y109.001 E14.61777
G1 X87.834 Y109.116 E14.62336
G1 X87.606 Y109.329 E14.63447
G1 X87.462 Y109.442 E14.641
G1 X87.241 Y109.585 E14.65037
G1 X87.075 Y109.674 E14.65708
G1 X86.988 Y109.71 E14.66044
G1 X94.975 Y109.709 E14.94495
G1 X94.823 Y109.638 E14.95092
G1 X94.591 Y109.502 E14.9605
G1 X94.4 Y109.362 E14.96894
G1 X94.177 Y109.165 E14.97954
G1 X94.066 Y109.047 E14.98531
G1 X93.9 Y108.842 E14.9947
G1 X93.746 Y108.612 E15.00456
G1 X93.605 Y108.349 E15.01519
G1 X93.484 Y108.067 E15.02612
G1 X93.392 Y107.789 E15.03655
G1 X93.337 Y107.576 E15.04439
G1 X93.28 Y107.282 E15.05506
G1 X93.235 Y106.935 E15.06752
G1 X93.198 Y106.391 E15.08695
G1 X93.195 Y85.667 E15.82517
G1 X93.235 Y85.032 E15.84783
G1 X93.29 Y84.634 E15.86214
G1 X93.394 Y84.173 E15.87898
G1 X93.441 Y84.021 E15.88465
G1 X93.556 Y83.725 E15.89596
G1 X93.723 Y83.402 E15.90891
G1 X93.894 Y83.138 E15.92012
G1 X94.146 Y82.824 E15.93446
G1 X94.41 Y82.599 E15.94681
G1 X94.544 Y82.503 E15.95269
G1 X94.799 Y82.348 E15.96332
G1 X94.917 Y82.291 E15.96798
G1 X87.081 Y82.295 E16.24711
G0 F6000 X88.181 Y82.669
;TYPE:SKIN
G1 F900 X88.252 Y82.747 E16.2508
G1 X88.432 Y82.986 E16.26125
G1 X88.621 Y83.288 E16.27369
G1 X88.825 Y83.687 E16.28934
G1 X88.957 Y84.114 E16.30495
G1 X88.951 Y84.129 E16.30551
G1 X88.992 Y84.248 E16.30991
G1 X89.077 Y84.612 E16.32296
G1 X89.127 Y84.923 E16.33396
G1 X89.181 Y85.574 E16.35677
G1 X89.177 Y106.435 E17.08531
G1 X89.126 Y107.041 E17.10654
G1 X89.071 Y107.378 E17.11847
G1 X89.013 Y107.643 E17.12794
