;FLAVOR:Marlin
;TIME:1476
;Filament used: 0.975421m
;Layer height: 0.2
;MINX:74.451
;MINY:69.45
;MINZ:0.2
;MAXX:105.55
;MAXY:110.55
;MAXZ:10.4
;TARGET_MACHINE.NAME:Kingroon KP3S
;Generated with Cura_SteamEngine 5.6.0
M140 S60
M104 S220
M190 S60
M109 S220
M82 ;absolute extrusion mode
G28 ; home all axes
G90
 M117 Purge extruder
 G92 E0 ; reset extruder
 G1 Z1.0 F3000 ; move z up little to prevent scratching of surface
 G1 X2 Y20 Z0.3 F5000.0 ; move to start-line position
 G1 X2 Y175.0 Z0.3 F1500.0 E15 ; draw 1st line
 G1 X2 Y175.0 Z0.4 F5000.0 ; move to side a little
 G1 X2 Y20 Z0.4 F1500.0 E30 ; draw 2nd line
 G92 E0 ; reset extruder
 G1 Z1.0 F3000 ; move z up little to prevent scratching of surface
G92 E0
G92 E0
G1 F2400 E-4
;LAYER_COUNT:50
;LAYER:0
M107
G1 F240 Z0.6
;MESH:Frantic Albar (15).stl 5
G0 F6000 X78.048 Y69.45 Z0.6
;TYPE:WALL-OUTER
G1 F240 Z0.2
G1 F2400 E0
G1 F900 X76.45 Y69.45 E0.05581
G1 X76.448 Y71.837 E0.13917
G1 X76.362 Y72.054 E0.14732
G1 X76.296 Y72.139 E0.15108
G1 X76.145 Y72.222 E0.1571
G1 X76.062 Y72.245 E0.1601
G1 X75.889 Y72.232 E0.16616
G1 X75.831 Y72.218 E0.16825
G1 X74.451 Y71.665 E0.22017
G1 X74.451 Y74.335 E0.31341
G1 X75.832 Y73.78 E0.36539
G1 X75.894 Y73.766 E0.36761
G1 F902.1 X76.145 Y73.776 E0.37636
G1 X76.23 Y73.818 E0.37966
G1 F900 X76.336 Y73.906 E0.38447
G1 F902.1 X76.382 Y73.961 E0.38697
G1 X76.451 Y74.181 E0.39501
G1 F900 X76.451 Y76.549 E0.4777
G1 X105.55 Y76.55 E1.49393
G1 X105.55 Y74.866 E1.55274
G1 X104.124 Y75.434 E1.60635
G1 X103.898 Y75.432 E1.61424
G1 X103.768 Y75.384 E1.61908
G1 X103.662 Y75.296 E1.62389
G1 X103.595 Y75.194 E1.62815
G1 X103.55 Y75.039 E1.63379
G1 X103.548 Y70.997 E1.77495
G1 F902.1 X103.565 Y70.916 E1.77783
G1 X103.641 Y70.732 E1.78477
G1 X103.733 Y70.639 E1.78933
G1 X103.854 Y70.576 E1.79408
G1 X103.914 Y70.555 E1.79629
G1 F900 X104.109 Y70.565 E1.80311
G1 X104.168 Y70.58 E1.80524
G1 X105.55 Y71.133 E1.85722
G1 X105.55 Y69.45 E1.916
G1 X101.954 Y69.451 E2.04158
G1 X101.953 Y73.519 E2.18365
G1 X101.92 Y73.863 E2.19572
G1 F902.1 X101.875 Y74.045 E2.20225
G1 X101.805 Y74.245 E2.20963
G1 F900 X101.719 Y74.43 E2.21676
G1 X101.631 Y74.576 E2.22271
G1 X101.489 Y74.762 E2.23088
G1 X101.306 Y74.956 E2.2402
G1 X101.262 Y74.991 E2.24216
G1 X101.247 Y74.991 E2.24269
G1 X101.083 Y75.125 E2.25008
G1 X100.913 Y75.226 E2.25699
G1 X100.755 Y75.302 E2.26311
G1 F902.1 X100.575 Y75.366 E2.26977
G1 X100.372 Y75.419 E2.27708
G1 F900 X100.2 Y75.443 E2.28314
G1 X100.008 Y75.452 E2.28985
G1 X79.983 Y75.452 E2.98919
G1 X79.806 Y75.443 E2.99538
G1 X79.652 Y75.422 E3.00081
G1 F902.1 X79.435 Y75.369 E3.00859
G1 X79.279 Y75.315 E3.01434
G1 F900 X79.001 Y75.183 E3.02509
G1 X78.755 Y75.005 E3.03569
G1 X78.627 Y74.89 E3.0417
G1 X78.485 Y74.733 E3.04909
G1 X78.369 Y74.576 E3.05591
G1 X78.293 Y74.452 E3.06099
G1 X78.198 Y74.254 E3.06866
G1 F902.1 X78.133 Y74.071 E3.07543
G1 X78.082 Y73.872 E3.08258
G1 F900 X78.056 Y73.697 E3.08876
G1 F902.1 X78.049 Y73.506 E3.09542
G1 X78.048 Y69.45 E3.23673
G1 F2400 E-0.76327
G1 F240 Z0.6
G0 F6000 X102.374 Y69.871 Z0.6
;TYPE:WALL-INNER
G1 F240 Z0.2
G1 F2400 E3.23673
G1 F895.7 X102.375 Y70.592 E3.26254
G1 F747 X102.457 Y70.997 E3.28027
G1 F644 X102.457 Y73.547 E3.40722
G1 F683.5 X102.412 Y73.707 E3.41502
G1 F806 X102.336 Y73.914 E3.42379
G1 F902.1 X102.283 Y74.144 E3.43218
G1 X102.186 Y74.422 E3.44264
G1 F900 X102.1 Y74.607 E3.44991
G1 X101.967 Y74.828 E3.4591
G1 X101.795 Y75.05 E3.4691
G1 X101.612 Y75.244 E3.4786
G1 X101.299 Y75.486 E3.49269
G1 X101.095 Y75.605 E3.50111
G1 X100.877 Y75.706 E3.50966
G1 F913 X100.733 Y75.751 E3.51496
G1 F969.2 X100.496 Y75.796 E3.52294
G1 F1055.9 X100.253 Y75.822 E3.53036
G1 F1105.3 X100.037 Y75.831 E3.53663
G1 F1115 X79.964 Y75.831 E4.11377
G1 F1105.3 X79.754 Y75.822 E4.11986
G1 F1058.8 X79.541 Y75.8 E4.12635
G1 F974.2 X79.297 Y75.76 E4.13448
G1 F913 X79.139 Y75.711 E4.14029
G1 F900 X78.82 Y75.562 E4.15283
G1 X78.653 Y75.454 E4.15992
G1 X78.474 Y75.318 E4.16793
G1 X78.3 Y75.156 E4.17639
G1 X78.148 Y74.984 E4.18457
G1 X78.011 Y74.796 E4.19286
G1 X77.903 Y74.613 E4.20043
G1 X77.794 Y74.375 E4.20975
G1 X77.742 Y74.229 E4.21527
G1 X77.681 Y74.005 E4.22354
G1 X77.64 Y73.757 E4.2325
G1 F902.1 X77.629 Y73.534 E4.24043
G1 X77.628 Y72.392 E4.28101
G1 F744.1 X77.54 Y71.975 E4.29938
G1 F638.5 X77.544 Y69.954 E4.40085
G1 F641.8 X76.954 Y69.954 E4.43032
G1 F638.5 X76.949 Y71.924 E4.52924
G1 F744.1 X76.75 Y72.216 E4.54446
G1 F900 X76.551 Y72.473 E4.55604
G1 X76.339 Y72.595 E4.56475
G1 F836.3 X76.235 Y72.671 E4.56969
G1 F728.3 X76.097 Y72.73 E4.5763
G1 F678.6 X75.843 Y72.72 E4.5883
G1 F771.4 X75.533 Y72.551 E4.60298
G1 F900 X74.871 Y72.286 E4.62838
G1 X74.871 Y73.713 E4.67921
G1 X75.533 Y73.447 E4.70462
G1 F771.4 X75.843 Y73.278 E4.7193
G1 F678.6 X76.111 Y73.283 E4.73196
G1 F728.3 X76.251 Y73.336 E4.73855
G1 F836.3 X76.427 Y73.443 E4.74645
G1 F900 X76.604 Y73.583 E4.75448
G1 F902.1 X76.743 Y73.748 E4.76215
G1 X76.795 Y73.857 E4.76644
G1 X76.858 Y74.071 E4.77437
G1 F900 X76.871 Y74.145 E4.77705
G1 X76.871 Y76.129 E4.84772
G1 F913 X79.233 Y76.135 E4.93066
G1 F989.5 X79.576 Y76.162 E4.9418
G1 F1080 X79.797 Y76.169 E4.94837
G1 F1102 X100.208 Y76.169 E5.54214
G1 F992.1 X100.95 Y76.129 E5.56616
G1 F900 X103.348 Y76.13 E5.65158
G1 F984.4 X103.886 Y76.166 E5.66914
G1 F1076.9 X104.22 Y76.164 E5.67908
G1 F919.7 X104.87 Y76.105 E5.70183
G1 F804.3 X105.105 Y76.105 E5.7112
G1 X105.105 Y75.523 E5.7344
G1 X104.783 Y75.652 E5.74823
G1 F895.7 X104.314 Y75.79 E5.76572
G1 F1038.5 X104.19 Y75.814 E5.76962
G1 F1076.9 X103.889 Y75.816 E5.77858
G1 F984.4 X103.5 Y75.708 E5.79173
G1 F900 X103.394 Y75.62 E5.79664
G1 X103.192 Y75.314 E5.8097
G1 X103.136 Y75.11 E5.81724
G1 X103.129 Y75.051 E5.81935
G1 X103.128 Y73.969 E5.8579
G1 F750 X103.044 Y73.563 E5.87562
G1 F644 X103.045 Y70.997 E6.00337
G1 F747 X103.174 Y70.752 E6.01525
G1 F895.7 X103.264 Y70.546 E6.0233
G1 F908.7 X103.54 Y70.269 E6.03709
G1 F945 X103.667 Y70.217 E6.04175
G1 F1030 X103.848 Y70.177 E6.04752
G1 F1098.8 X104.007 Y70.173 E6.05216
G1 F1095.7 X104.145 Y70.183 E6.05621
G1 F1044.2 X104.316 Y70.21 E6.06152
G1 F893.6 X104.783 Y70.347 E6.07898
G1 F804.3 X105.105 Y70.476 E6.09281
G1 X105.105 Y69.895 E6.11597
G1 X104.87 Y69.895 E6.12534
G1 F924.2 X104.161 Y69.834 E6.15002
G1 F1086.2 X103.819 Y69.833 E6.16012
G1 F994.7 X103.442 Y69.867 E6.17232
G1 F908.7 X102.374 Y69.871 E6.21
G1 F2400 E2.21
G1 F240 Z0.6
G0 F6000 X75.387 Y72.941 Z0.6
G1 F240 Z0.2
G1 F2400 E6.21
G1 F692.3 X75.321 Y72.941 E6.21305
G1 X75.286 Y72.999 E6.21619
G1 X75.32 Y73.057 E6.2193
G1 X75.387 Y73.057 E6.22241
G1 X75.422 Y72.999 E6.22554
G1 F2400 E2.22554
G1 F240 Z0.6
G0 F6000 X77.188 Y72.307 Z0.6
G1 F240 Z0.2
G1 F2400 E6.22554
G1 F820 X77.156 Y72.386 E6.22888
G1 X76.817 Y72.823 E6.2505
G1 X76.663 Y72.922 E6.25766
G1 X76.513 Y72.996 E6.2642
G1 X76.658 Y73.069 E6.27055
G1 X76.885 Y73.244 E6.28175
G1 F828.9 X77.119 Y73.526 E6.29593
G1 F857.1 X77.197 Y73.715 E6.30357
G1 F887.3 X77.224 Y73.816 E6.30735
G1 F891.5 X77.213 Y73.767 E6.30916
G1 F863 X77.193 Y73.506 E6.31888
G1 F828.9 X77.188 Y72.307 E6.36525
G1 F2400 E2.36525
G1 F240 Z0.6
G0 F6000 X77.224 Y73.816 Z0.6
G1 F240 Z0.2
G1 F2400 E6.36525
G1 F915.3 X77.283 Y74.11 E6.37576
G1 F834.4 X77.331 Y74.534 E6.39215
G1 F753 X77.332 Y75.668 E6.44043
G1 X78.176 Y75.668 E6.47637
G1 X78.038 Y75.546 E6.48421
G1 X77.844 Y75.34 E6.49626
G1 X77.673 Y75.118 E6.50819
G1 X77.542 Y74.913 E6.51854
G1 X77.402 Y74.632 E6.53191
G1 X77.36 Y74.529 E6.53665
G1 F799.2 X77.306 Y74.288 E6.54656
G1 F891.5 X77.283 Y74.11 E6.55301
G1 F2400 E2.55301
G1 F240 Z0.6
G0 F6000 X102.654 Y74.526 Z0.6
G1 F240 Z0.2
G1 F2400 E6.55301
G1 F724.1 X102.528 Y74.806 E6.5666
G1 X102.403 Y75.024 E6.57773
G1 X102.138 Y75.373 E6.59713
G1 X101.955 Y75.567 E6.60894
G1 X101.842 Y75.658 E6.61536
G1 X102.879 Y75.658 E6.66127
G1 X102.741 Y75.449 E6.67236
G1 X102.672 Y75.19 E6.68422
G1 X102.659 Y75.086 E6.68886
G1 X102.654 Y74.526 E6.71366
G1 F2400 E2.71366
G1 F240 Z0.6
G0 F6000 X102.907 Y70.34 Z0.6
G1 F240 Z0.2
G1 F2400 E6.71366
G1 F729.7 X102.874 Y70.395 E6.71648
G1 X102.811 Y70.395 E6.71924
G1 X102.779 Y70.34 E6.72204
G1 X102.812 Y70.285 E6.72486
G1 X102.874 Y70.285 E6.72758
G1 F2400 E2.72758
G1 F240 Z0.6
G0 F6000 X83.871 Y81.45 Z0.6
;TYPE:WALL-OUTER
G1 F240 Z0.2
G1 F2400 E6.72758
G1 F900 X83.871 Y82.79 E6.77438
G1 X85.238 Y82.79 E6.82212
G1 X85.615 Y82.801 E6.83529
G1 X86.086 Y82.855 E6.85185
G1 X86.469 Y82.946 E6.86559
G1 X86.759 Y83.065 E6.87654
G1 X87.057 Y83.258 E6.88894
G1 X87.188 Y83.374 E6.89505
G1 X87.312 Y83.505 E6.90135
G1 X87.414 Y83.635 E6.90712
G1 X87.537 Y83.823 E6.91497
G1 X87.634 Y84.008 E6.92226
G1 X87.704 Y84.173 E6.92852
G1 X87.838 Y84.588 E6.94375
G1 X87.896 Y84.842 E6.95285
G1 X87.937 Y85.103 E6.96208
G1 X87.981 Y85.643 E6.981
G1 X87.985 Y108.425 E7.77662
G1 X87.961 Y108.565 E7.78158
G1 X87.917 Y108.657 E7.78514
G1 X87.829 Y108.763 E7.78995
G1 F902.1 X87.727 Y108.829 E7.79418
G1 X87.573 Y108.875 E7.79978
G1 F900 X83.637 Y108.871 E7.93724
G1 X83.038 Y108.822 E7.95823
G1 F902.1 X82.57 Y108.744 E7.97476
G1 X82.563 Y108.732 E7.97524
G1 X82.458 Y108.714 E7.97896
G1 X82.198 Y108.642 E7.98835
G1 F900 X81.733 Y108.459 E8.00581
G1 X81.531 Y108.355 E8.01374
G1 X81.337 Y108.237 E8.02167
G1 X81.115 Y108.075 E8.03127
G1 X80.716 Y107.707 E8.05022
G1 X80.517 Y107.455 E8.06144
G1 X80.393 Y107.258 E8.06957
G1 X80.299 Y107.073 E8.07681
G1 X80.139 Y106.647 E8.09271
G1 X80.015 Y106.195 E8.10907
G1 X79.933 Y105.733 E8.12546
G1 X79.636 Y103.276 E8.21189
G1 X77.637 Y103.276 E8.2817
G1 X77.637 Y110.55 E8.53573
G1 X104.363 Y110.55 E9.46909
G1 X104.363 Y103.276 E9.72312
G1 X102.364 Y103.276 E9.79293
G1 X102.094 Y105.497 E9.87107
G1 X101.972 Y106.184 E9.89544
G1 X101.861 Y106.624 E9.91128
G1 X101.786 Y106.863 E9.92003
G1 X101.711 Y107.052 E9.92713
G1 X101.61 Y107.252 E9.93496
G1 X101.49 Y107.445 E9.94289
G1 X101.346 Y107.634 E9.95119
G1 X101.191 Y107.801 E9.95915
G1 X100.878 Y108.079 E9.97377
G1 X100.679 Y108.226 E9.98241
G1 X100.476 Y108.351 E9.99073
G1 X100.254 Y108.465 E9.99945
G1 X100.064 Y108.545 E10.00665
G1 X99.77 Y108.652 E10.01758
G1 F902.1 X99.526 Y108.719 E10.02639
G1 X99.252 Y108.777 E10.03615
G1 F900 X98.954 Y108.824 E10.04669
G1 X98.367 Y108.871 E10.06725
G1 X94.496 Y108.877 E10.20244
G1 X94.357 Y108.853 E10.20736
G1 X94.267 Y108.809 E10.21086
G1 X94.161 Y108.721 E10.21567
G1 X94.094 Y108.619 E10.21994
G1 X94.055 Y108.488 E10.22471
G1 X94.047 Y108.428 E10.22682
G1 X94.051 Y85.658 E11.02202
G1 X94.065 Y85.359 E11.03248
G1 X94.12 Y84.853 E11.05025
G1 X94.165 Y84.613 E11.05878
G1 X94.238 Y84.342 E11.06858
G1 X94.219 Y84.323 E11.06952
G1 X94.252 Y84.222 E11.07323
G1 X94.476 Y83.802 E11.08985
G1 X94.561 Y83.67 E11.09534
G1 X94.696 Y83.498 E11.10297
G1 X94.84 Y83.348 E11.11023
G1 X94.985 Y83.237 E11.11661
G1 X95.272 Y83.063 E11.12833
G1 X95.589 Y82.935 E11.14027
G1 X95.776 Y82.888 E11.14701
G1 X96.089 Y82.832 E11.15811
G1 X96.41 Y82.8 E11.16938
G1 X96.74 Y82.79 E11.18091
G1 X98.161 Y82.79 E11.23053
G1 X98.161 Y81.45 E11.27733
G1 X83.871 Y81.45 E11.77638
G1 F2400 E7.77638
G1 F240 Z0.6
G0 F6000 X86.61 Y81.87 Z0.6
;TYPE:WALL-INNER
G1 F240 Z0.2
G1 F2400 E11.77638
G1 F827.1 X86.166 Y81.908 E11.79365
G1 F789.1 X85.616 Y81.892 E11.81601
G1 F818.2 X84.311 Y81.89 E11.86714
G1 F821.7 X84.311 Y82.35 E11.88509
G1 X85.251 Y82.35 E11.92176
G1 F816.4 X85.666 Y82.36 E11.93806
G1 F787.5 X86.138 Y82.4 E11.95735
G1 F827.1 X86.629 Y82.558 E11.97734
G1 F900 X86.919 Y82.677 E11.9885
G1 X87.023 Y82.732 E11.9927
G1 X87.335 Y82.944 E12.00613
G1 X87.505 Y83.097 E12.01428
G1 X87.642 Y83.245 E12.02146
G1 X87.776 Y83.42 E12.02931
G1 X87.909 Y83.628 E12.03811
G1 X88.006 Y83.813 E12.04555
G1 X88.104 Y84.043 E12.05446
G1 X88.248 Y84.494 E12.07132
G1 X88.311 Y84.776 E12.08161
G1 X88.35 Y85.021 E12.09045
G1 X88.399 Y85.592 E12.11086
G1 X88.405 Y108.425 E12.92421
G1 X88.373 Y108.651 E12.93234
G1 X88.241 Y108.925 E12.94318
G1 X88.153 Y109.031 E12.94809
G1 F902.1 X87.847 Y109.231 E12.96108
G1 X87.645 Y109.289 E12.96854
G1 F900 X87.534 Y109.297 E12.97251
G1 X83.603 Y109.29 E13.11254
G1 X83.019 Y109.243 E13.13341
G1 X82.555 Y109.174 E13.15012
G1 X82.084 Y109.046 E13.1675
G1 X81.542 Y108.833 E13.18825
G1 X81.313 Y108.714 E13.19744
G1 X81.076 Y108.567 E13.20738
G1 X80.886 Y108.43 E13.21572
G1 X80.456 Y108.042 E13.23635
G1 X80.387 Y107.969 E13.23993
G1 X80.201 Y107.735 E13.25058
G1 X80.048 Y107.5 E13.26057
G1 X79.896 Y107.199 E13.27258
G1 X79.734 Y106.758 E13.28931
G1 X79.597 Y106.249 E13.30809
G1 X79.516 Y105.783 E13.32494
G1 X79.264 Y103.696 E13.39982
G1 X78.057 Y103.696 E13.44282
G1 X78.057 Y110.13 E13.67201
G1 X103.943 Y110.13 E14.59411
G1 X103.943 Y103.696 E14.8233
G1 X102.736 Y103.696 E14.86629
G1 X102.508 Y105.57 E14.93354
G1 X102.389 Y106.242 E14.95785
G1 X102.262 Y106.75 E14.9765
G1 X102.176 Y107.018 E14.98653
G1 X102.101 Y107.207 E14.99377
G1 X101.995 Y107.425 E15.00241
G1 X101.825 Y107.699 E15.01389
G1 X101.694 Y107.872 E15.02162
G1 X101.47 Y108.115 E15.03339
G1 X101.157 Y108.393 E15.04831
G1 X100.944 Y108.554 E15.05782
G1 X100.711 Y108.701 E15.06763
G1 X100.46 Y108.832 E15.07772
G1 X100.239 Y108.928 E15.0863
G1 X99.885 Y109.056 E15.09971
G1 F902.1 X99.612 Y109.131 E15.10977
G1 X99.318 Y109.192 E15.12044
G1 F900 X98.988 Y109.243 E15.13233
G1 X98.401 Y109.29 E15.15331
G1 X94.497 Y109.297 E15.29238
G1 X94.362 Y109.284 E15.29721
G1 X94.269 Y109.264 E15.3006
G1 X93.999 Y109.132 E15.3113
G1 X93.893 Y109.044 E15.31621
G1 X93.692 Y108.739 E15.32922
G1 X93.653 Y108.608 E15.33409
G1 X93.627 Y108.428 E15.34057
G1 X93.631 Y85.639 E16.15235
G1 X93.644 Y85.353 E16.16255
G1 X93.707 Y84.777 E16.18319
G1 X93.749 Y84.55 E16.19141
G1 X93.808 Y84.309 E16.20025
G1 X93.813 Y84.236 E16.20286
G1 X93.881 Y84.024 E16.21079
G1 X94.097 Y83.619 E16.22714
G1 X94.229 Y83.412 E16.23588
G1 X94.352 Y83.254 E16.24302
G1 X94.581 Y83.017 E16.25476
G1 X94.768 Y82.877 E16.26308
G1 X95.055 Y82.703 E16.27503
G1 F861 X95.48 Y82.511 E16.2924
G1 F777.8 X95.694 Y82.428 E16.30186
G1 F754.5 X95.992 Y82.388 E16.31463
G1 F792.5 X96.366 Y82.359 E16.32981
G1 F816.4 X96.74 Y82.35 E16.3445
G1 F821.7 X97.721 Y82.35 E16.38277
G1 X97.721 Y81.89 E16.40072
G1 F816.4 X96.343 Y81.893 E16.45483
G1 F771.4 X95.649 Y81.918 E16.48369
G1 F802.5 X95.274 Y81.874 E16.49878
G1 F891.5 X86.61 Y81.87 E16.81034
G0 F6000 X87.078 Y82.29
G1 F900 X87.253 Y82.38 E16.81735
G1 X87.491 Y82.536 E16.82749
G1 X87.614 Y82.629 E16.83298
G1 X87.81 Y82.807 E16.84241
G1 X87.973 Y82.986 E16.85104
G1 X88.128 Y83.19 E16.86016
G1 X88.281 Y83.433 E16.87039
G1 X88.378 Y83.618 E16.87783
G1 X88.469 Y83.821 E16.88576
G1 X88.632 Y84.31 E16.90412
G1 X88.725 Y84.71 E16.91875
G1 X88.765 Y84.955 E16.92759
G1 X88.82 Y85.604 E16.95079
G1 X88.825 Y108.425 E17.76371
G1 X88.804 Y108.641 E17.77144
G1 X88.784 Y108.737 E17.77493
G1 X88.564 Y109.193 E17.79297
G1 X88.476 Y109.3 E17.7979
G1 F897.9 X87.968 Y109.636 E17.81965
G1 F887.3 X87.718 Y109.707 E17.82904
G1 F889.4 X93.639 Y109.71 E18.04247
G1 F883.2 X94.272 Y109.702 E18.06545
G1 F871 X94.179 Y109.681 E18.06896
G1 F887.3 X93.731 Y109.456 E18.08707
G1 F900 X93.624 Y109.367 E18.09203
G1 X93.289 Y108.859 E18.1137
G1 X93.25 Y108.728 E18.11857
G1 X93.207 Y108.428 E18.12937
G1 X93.211 Y85.62 E18.94183
G1 X93.224 Y85.334 E18.95203
G1 X93.294 Y84.7 E18.97475
G1 X93.35 Y84.407 E18.98537
G1 X93.392 Y84.242 E18.99144
G1 X93.397 Y84.18 E18.99365
G1 X93.51 Y83.827 E19.00686
G1 X93.726 Y83.421 E19.02324
G1 X93.898 Y83.154 E19.03455
G1 X94.083 Y82.923 E19.04509
G1 X94.203 Y82.795 E19.05134
G1 X94.322 Y82.686 E19.05709
G1 X94.551 Y82.517 E19.06723
G1 X94.838 Y82.343 E19.07919
