;FLAVOR:Marlin
;TIME:1576
;Filament used: 1.05837m
;Layer height: 0.2
;MINX:74.451
;MINY:69.45
;MINZ:0.2
;MAXX:105.55
;MAXY:110.55
;MAXZ:10.4
;TARGET_MACHINE.NAME:Kingroon KP3S
;Generated with Cura_SteamEngine 5.6.0
M140 S60
M104 S220
M190 S60
M109 S220
M82 ;absolute extrusion mode
G28 ; home all axes
G90
 M117 Purge extruder
 G92 E0 ; reset extruder
 G1 Z1.0 F3000 ; move z up little to prevent scratching of surface
 G1 X2 Y20 Z0.3 F5000.0 ; move to start-line position
 G1 X2 Y175.0 Z0.3 F1500.0 E15 ; draw 1st line
 G1 X2 Y175.0 Z0.4 F5000.0 ; move to side a little
 G1 X2 Y20 Z0.4 F1500.0 E30 ; draw 2nd line
 G92 E0 ; reset extruder
 G1 Z1.0 F3000 ; move z up little to prevent scratching of surface
G92 E0
G92 E0
G1 F2400 E-4
;LAYER_COUNT:50
;LAYER:0
M107
G1 F240 Z0.6
;MESH:Frantic Albar (15).stl
G0 F6000 X78.048 Y69.45 Z0.6
;TYPE:WALL-OUTER
G1 F240 Z0.2
G1 F2400 E0
G1 F900 X76.45 Y69.45 E0.05581
G1 X76.448 Y71.837 E0.13917
G1 X76.362 Y72.054 E0.14732
G1 X76.296 Y72.139 E0.15108
G1 X76.145 Y72.222 E0.1571
G1 X76.062 Y72.245 E0.1601
G1 X75.889 Y72.232 E0.16616
G1 X75.831 Y72.218 E0.16825
G1 X74.451 Y71.665 E0.22017
G1 X74.451 Y74.335 E0.31341
G1 X75.832 Y73.78 E0.36539
G1 X75.894 Y73.766 E0.36761
G1 F902.1 X76.145 Y73.776 E0.37636
G1 X76.23 Y73.818 E0.37966
G1 F900 X76.336 Y73.906 E0.38447
G1 F902.1 X76.382 Y73.961 E0.38697
G1 X76.45 Y74.183 E0.39506
G1 F900 X76.451 Y76.549 E0.47769
G1 X105.55 Y76.55 E1.49392
G1 X105.55 Y74.866 E1.55273
G1 X104.124 Y75.434 E1.60633
G1 X103.898 Y75.432 E1.61423
G1 X103.768 Y75.384 E1.61907
G1 X103.662 Y75.296 E1.62388
G1 X103.595 Y75.194 E1.62814
G1 X103.548 Y75.021 E1.6344
G1 X103.548 Y70.997 E1.77493
G1 F902.1 X103.565 Y70.916 E1.77782
G1 X103.641 Y70.732 E1.78475
G1 X103.733 Y70.639 E1.78931
G1 X103.854 Y70.576 E1.79406
G1 X103.914 Y70.555 E1.79628
G1 F900 X104.109 Y70.565 E1.8031
G1 X104.168 Y70.58 E1.80522
G1 X105.55 Y71.133 E1.85721
G1 X105.55 Y69.45 E1.91598
G1 X101.954 Y69.451 E2.04157
G1 X101.953 Y73.519 E2.18363
G1 X101.918 Y73.876 E2.19616
G1 F902.1 X101.867 Y74.07 E2.20315
G1 X101.807 Y74.24 E2.20943
G1 F900 X101.718 Y74.43 E2.21676
G1 X101.637 Y74.566 E2.22228
G1 X101.488 Y74.762 E2.23088
G1 X101.27 Y74.992 E2.24195
G1 X101.219 Y75.031 E2.24419
G1 X101.203 Y75.03 E2.24475
G1 X101.07 Y75.133 E2.25063
G1 X100.949 Y75.207 E2.25558
G1 X100.749 Y75.304 E2.26334
G1 F902.1 X100.55 Y75.374 E2.27069
G1 X100.361 Y75.42 E2.27747
G1 F900 X100.2 Y75.443 E2.28315
G1 X100.008 Y75.452 E2.28986
G1 X79.982 Y75.452 E2.98923
G1 X79.803 Y75.443 E2.99549
G1 X79.63 Y75.419 E3.00159
G1 X79.44 Y75.371 E3.00844
G1 X79.254 Y75.304 E3.01534
G1 X79 Y75.182 E3.02518
G1 X78.753 Y75.003 E3.03583
G1 X78.613 Y74.874 E3.04248
G1 X78.479 Y74.727 E3.04943
G1 X78.38 Y74.592 E3.05527
G1 X78.249 Y74.369 E3.06431
G1 F902.1 X78.127 Y74.051 E3.07617
G1 X78.082 Y73.871 E3.08264
G1 F900 X78.056 Y73.697 E3.08878
G1 F902.1 X78.049 Y73.506 E3.09544
G1 X78.048 Y69.45 E3.23675
G1 F2400 E-0.76325
G1 F240 Z0.6
G0 F6000 X102.374 Y69.871 Z0.6
;TYPE:WALL-INNER
G1 F240 Z0.2
G1 F2400 E3.23675
G1 F895.7 X102.375 Y70.592 E3.26256
G1 F747 X102.457 Y70.997 E3.28029
G1 F644 X102.457 Y73.547 E3.40724
G1 F683.5 X102.412 Y73.707 E3.41504
G1 F806 X102.334 Y73.928 E3.42436
G1 F902.1 X102.281 Y74.152 E3.43254
G1 X102.203 Y74.382 E3.44117
G1 F900 X102.098 Y74.61 E3.45011
G1 X101.96 Y74.837 E3.45958
G1 X101.793 Y75.051 E3.46925
G1 X101.575 Y75.281 E3.48053
G1 X101.288 Y75.492 E3.49322
G1 X101.167 Y75.566 E3.49828
G1 X100.891 Y75.7 E3.5092
G1 F924.2 X100.71 Y75.753 E3.51575
G1 F1000 X100.416 Y75.805 E3.52532
G1 F1086.2 X100.037 Y75.831 E3.53653
G1 F1115 X79.963 Y75.831 E4.11369
G1 F1105.3 X79.75 Y75.822 E4.11988
G1 F1055.9 X79.508 Y75.797 E4.12726
G1 F976.7 X79.302 Y75.759 E4.13414
G1 F917.5 X79.114 Y75.7 E4.14102
G1 F900 X78.816 Y75.56 E4.15275
G1 X78.673 Y75.468 E4.15881
G1 X78.47 Y75.313 E4.16791
G1 X78.304 Y75.159 E4.17597
G1 X78.14 Y74.975 E4.18475
G1 X78.008 Y74.791 E4.19282
G1 X77.858 Y74.523 E4.20376
G1 F902.1 X77.719 Y74.153 E4.21781
G1 X77.666 Y73.931 E4.22592
G1 F900 X77.64 Y73.757 E4.23218
G1 F902.1 X77.628 Y73.506 E4.24111
G1 X77.628 Y72.392 E4.2807
G1 F744.1 X77.54 Y71.975 E4.29906
G1 F638.5 X77.544 Y69.954 E4.40054
G1 F641.8 X76.954 Y69.954 E4.43001
G1 F638.5 X76.949 Y71.924 E4.52892
G1 F744.1 X76.75 Y72.216 E4.54415
G1 F900 X76.551 Y72.473 E4.55573
G1 X76.339 Y72.595 E4.56444
G1 F836.3 X76.235 Y72.671 E4.56938
G1 F728.3 X76.097 Y72.73 E4.57599
G1 F678.6 X75.843 Y72.72 E4.58799
G1 F771.4 X75.533 Y72.551 E4.60267
G1 F900 X74.871 Y72.286 E4.62807
G1 X74.871 Y73.713 E4.6789
G1 X75.533 Y73.447 E4.70431
G1 F771.4 X75.843 Y73.278 E4.71899
G1 F678.6 X76.111 Y73.283 E4.73165
G1 F728.3 X76.251 Y73.336 E4.73824
G1 F836.3 X76.427 Y73.443 E4.74614
G1 F900 X76.604 Y73.583 E4.75417
G1 F902.1 X76.744 Y73.747 E4.76184
G1 X76.795 Y73.857 E4.76615
G1 X76.858 Y74.071 E4.77407
G1 F900 X76.87 Y74.153 E4.77703
G1 X76.871 Y76.129 E4.84741
G1 X79.04 Y76.129 E4.92468
G1 F992.1 X79.794 Y76.169 E4.94908
G1 F1108.5 X100.045 Y76.171 E5.53476
G1 F1080 X100.465 Y76.161 E5.54723
G1 F969.2 X100.966 Y76.13 E5.56384
G1 F900 X103.348 Y76.13 E5.64869
G1 F984.4 X103.886 Y76.166 E5.66625
G1 F1076.9 X104.22 Y76.164 E5.67619
G1 F919.7 X104.87 Y76.105 E5.69894
G1 F804.3 X105.105 Y76.105 E5.70831
G1 X105.105 Y75.523 E5.73151
G1 X104.783 Y75.652 E5.74534
G1 F895.7 X104.314 Y75.79 E5.76283
G1 F1038.5 X104.19 Y75.814 E5.76673
G1 F1076.9 X103.889 Y75.816 E5.77569
G1 F984.4 X103.5 Y75.708 E5.78884
G1 F900 X103.394 Y75.62 E5.79375
G1 X103.192 Y75.314 E5.80681
G1 X103.138 Y75.117 E5.81409
G1 X103.13 Y75.055 E5.81631
G1 X103.128 Y73.983 E5.8545
G1 F750 X103.044 Y73.563 E5.87281
G1 F644 X103.045 Y70.997 E6.00056
G1 F747 X103.174 Y70.752 E6.01244
G1 F895.7 X103.264 Y70.546 E6.02049
G1 F908.7 X103.54 Y70.269 E6.03428
G1 F945 X103.667 Y70.217 E6.03894
G1 F1030 X103.848 Y70.177 E6.04471
G1 F1098.8 X104.007 Y70.173 E6.04935
G1 F1095.7 X104.145 Y70.183 E6.0534
G1 F1044.2 X104.316 Y70.21 E6.05871
G1 F893.6 X104.783 Y70.347 E6.07617
G1 F804.3 X105.105 Y70.476 E6.09
G1 X105.105 Y69.895 E6.11316
G1 X104.87 Y69.895 E6.12253
G1 F924.2 X104.161 Y69.834 E6.14721
G1 F1086.2 X103.819 Y69.833 E6.15731
G1 F994.7 X103.442 Y69.867 E6.16951
G1 F908.7 X102.374 Y69.871 E6.20719
G1 F2400 E2.20719
G1 F240 Z0.6
G0 F6000 X75.387 Y72.941 Z0.6
G1 F240 Z0.2
G1 F2400 E6.20719
G1 F692.3 X75.321 Y72.941 E6.21025
G1 X75.286 Y72.999 E6.21338
G1 X75.32 Y73.057 E6.2165
G1 X75.387 Y73.057 E6.2196
G1 X75.422 Y72.999 E6.22274
G1 F2400 E2.22274
G1 F240 Z0.6
G0 F6000 X77.188 Y72.307 Z0.6
G1 F240 Z0.2
G1 F2400 E6.22274
G1 F820 X77.156 Y72.386 E6.22607
G1 X76.817 Y72.823 E6.24769
G1 X76.663 Y72.922 E6.25485
G1 X76.513 Y72.996 E6.26139
G1 X76.658 Y73.069 E6.26774
G1 X76.885 Y73.244 E6.27895
G1 F828.9 X77.119 Y73.526 E6.29312
G1 F857.1 X77.197 Y73.715 E6.30077
G1 F887.3 X77.224 Y73.817 E6.30458
G1 F867 X77.193 Y73.506 E6.31613
G1 F828.9 X77.188 Y72.307 E6.36251
G1 F2400 E2.36251
G1 F240 Z0.6
G0 F6000 X77.224 Y73.817 Z0.6
G1 F240 Z0.2
G1 F2400 E6.36251
G1 F908.7 X77.284 Y74.123 E6.37351
G1 F861 X77.315 Y74.398 E6.38381
G1 F779.4 X77.33 Y74.711 E6.3967
G1 F754.5 X77.332 Y75.668 E6.43737
G1 X78.18 Y75.67 E6.4734
G1 X78.032 Y75.537 E6.48185
G1 X77.769 Y75.248 E6.49846
G1 X77.613 Y75.027 E6.50995
G1 X77.508 Y74.85 E6.5187
G1 X77.43 Y74.692 E6.52618
G1 F779.4 X77.33 Y74.396 E6.53904
G1 F861 X77.284 Y74.123 E6.54934
G1 F2400 E2.54934
G1 F240 Z0.6
G0 F6000 X102.657 Y74.508 Z0.6
G1 F240 Z0.2
G1 F2400 E6.54934
G1 F724.1 X102.524 Y74.812 E6.56403
G1 X102.397 Y75.031 E6.57524
G1 X102.213 Y75.283 E6.58906
G1 X101.917 Y75.605 E6.60842
G1 X101.847 Y75.659 E6.61234
G1 X102.879 Y75.658 E6.65802
G1 X102.741 Y75.449 E6.66911
G1 X102.674 Y75.202 E6.68044
G1 X102.66 Y75.094 E6.68526
G1 X102.657 Y74.508 E6.71121
G1 F2400 E2.71121
G1 F240 Z0.6
G0 F6000 X102.907 Y70.34 Z0.6
G1 F240 Z0.2
G1 F2400 E6.71121
G1 F729.7 X102.874 Y70.395 E6.71403
G1 X102.811 Y70.395 E6.71679
G1 X102.779 Y70.34 E6.71959
G1 X102.812 Y70.285 E6.72241
G1 X102.874 Y70.285 E6.72513
G1 F2400 E2.72513
G1 F240 Z0.6
G0 F6000 X90.963 Y80.47 Z0.6
;TYPE:WALL-OUTER
G1 F240 Z0.2
G1 F2400 E6.72513
G1 F900 X90.018 Y80.526 E6.75819
G1 X89.161 Y80.612 E6.78827
G1 X88.31 Y80.74 E6.81833
G1 X87.467 Y80.908 E6.84834
G1 X86.678 Y81.107 E6.87676
G1 X85.944 Y81.336 E6.90361
G1 X85.251 Y81.59 E6.92939
G1 X84.593 Y81.873 E6.9544
G1 X83.925 Y82.208 E6.9805
G1 X83.337 Y82.549 E7.00424
G1 X82.772 Y82.925 E7.02794
G1 X82.269 Y83.309 E7.05004
G1 X81.801 Y83.726 E7.07193
G1 X81.343 Y84.201 E7.09498
G1 X80.955 Y84.676 E7.1164
G1 X80.621 Y85.161 E7.13696
G1 X80.313 Y85.696 E7.15852
G1 X80.056 Y86.222 E7.17897
G1 X79.828 Y86.816 E7.20119
G1 X79.672 Y87.354 E7.22075
G1 X79.545 Y87.983 E7.24316
G1 X79.479 Y88.557 E7.26334
G1 X79.451 Y89.24 E7.28721
G1 X79.464 Y89.713 E7.30373
G1 X79.503 Y90.166 E7.31961
G1 X79.569 Y90.611 E7.33532
G1 X79.662 Y91.046 E7.35086
G1 X79.789 Y91.489 E7.36695
G1 X79.928 Y91.878 E7.38138
G1 X80.092 Y92.238 E7.39519
G1 X80.307 Y92.63 E7.41081
G1 X80.544 Y93.001 E7.42618
G1 X80.793 Y93.334 E7.4407
G1 X81.107 Y93.704 E7.45765
G1 X81.427 Y94.035 E7.47373
G1 X81.788 Y94.369 E7.4909
G1 X82.178 Y94.693 E7.50861
G1 X82.631 Y95.035 E7.52843
G1 X83.088 Y95.347 E7.54776
G1 X83.593 Y95.663 E7.56856
G1 X84.138 Y95.978 E7.59055
G1 X84.701 Y96.262 E7.61257
G1 X85.331 Y96.562 E7.63694
G1 X86.029 Y96.872 E7.66361
G1 X86.726 Y97.164 E7.69
G1 X87.6 Y97.51 E7.72283
G1 X88.983 Y98.021 E7.77432
G1 X89.742 Y98.316 E7.80276
G1 X90.456 Y98.608 E7.8297
G1 X91.073 Y98.874 E7.85316
G1 X91.651 Y99.139 E7.87537
G1 X92.676 Y99.643 E7.91526
G1 X93.146 Y99.897 E7.93391
G1 X93.605 Y100.169 E7.95255
G1 X94.005 Y100.434 E7.9693
G1 X94.352 Y100.69 E7.98436
G1 X94.68 Y100.963 E7.99927
G1 X94.974 Y101.241 E8.0134
G1 X95.228 Y101.512 E8.02637
G1 X95.449 Y101.779 E8.03847
G1 X95.676 Y102.1 E8.0522
G1 X95.833 Y102.364 E8.06293
G1 X95.981 Y102.669 E8.07477
G1 X96.089 Y102.963 E8.08571
G1 X96.176 Y103.252 E8.09625
G1 X96.242 Y103.562 E8.10732
G1 X96.289 Y103.859 E8.11782
G1 X96.317 Y104.181 E8.1291
G1 X96.325 Y104.478 E8.13948
G1 X96.316 Y104.83 E8.15178
G1 X96.285 Y105.157 E8.16325
G1 X96.233 Y105.478 E8.17461
G1 X96.161 Y105.785 E8.18562
G1 X96.06 Y106.104 E8.1973
G1 X95.956 Y106.354 E8.20676
G1 X95.852 Y106.546 E8.21439
G1 X95.852 Y106.56 E8.21487
G1 X95.617 Y106.921 E8.22992
G1 X95.447 Y107.139 E8.23957
G1 X95.148 Y107.461 E8.25492
G1 X95.021 Y107.576 E8.2609
G1 X94.774 Y107.776 E8.272
G1 X94.545 Y107.937 E8.28178
G1 X94.251 Y108.116 E8.2938
G1 X94.016 Y108.238 E8.30304
G1 X93.743 Y108.362 E8.31352
G1 X93.433 Y108.481 E8.32511
G1 X92.838 Y108.66 E8.34681
G1 X92.529 Y108.732 E8.35789
G1 X92.212 Y108.789 E8.36914
G1 X91.873 Y108.833 E8.38108
G1 X91.542 Y108.857 E8.39267
G1 X91.2 Y108.864 E8.40461
G1 X90.733 Y108.847 E8.42093
G1 X90.277 Y108.795 E8.43696
G1 X89.822 Y108.704 E8.45317
G1 X89.441 Y108.589 E8.46707
G1 X89.004 Y108.411 E8.48354
G1 X88.68 Y108.237 E8.49639
G1 X88.317 Y108.002 E8.51149
G1 X88.003 Y107.765 E8.52523
G1 X87.71 Y107.51 E8.53879
G1 X87.434 Y107.237 E8.55235
G1 X87.189 Y106.954 E8.56542
G1 X86.95 Y106.636 E8.57932
G1 X86.746 Y106.307 E8.59283
G1 X86.566 Y105.982 E8.60581
G1 X86.397 Y105.623 E8.61967
G1 X86.266 Y105.303 E8.63174
G1 X86.13 Y104.918 E8.646
G1 X86.025 Y104.555 E8.6592
G1 X85.826 Y103.691 E8.69016
G1 X85.754 Y103.036 E8.71317
G1 X85.274 Y103.056 E8.72995
G1 X84.715 Y103.109 E8.74956
G1 X84.704 Y103.099 E8.75008
G1 X84.106 Y103.205 E8.77129
G1 X83.39 Y103.373 E8.79697
G1 X83.093 Y103.464 E8.80782
G1 X82.812 Y103.566 E8.81826
G1 X82.512 Y103.695 E8.82967
G1 X82.274 Y103.816 E8.83899
G1 X82.048 Y103.95 E8.84817
G1 X81.855 Y104.09 E8.85649
G1 X81.656 Y104.255 E8.86552
G1 X81.493 Y104.412 E8.87343
G1 X81.34 Y104.582 E8.88141
G1 X81.215 Y104.744 E8.88856
G1 X81.099 Y104.925 E8.89607
G1 X81.011 Y105.103 E8.903
G1 X80.934 Y105.305 E8.91055
G1 X80.892 Y105.453 E8.91592
G1 X80.845 Y105.681 E8.92405
G1 X80.822 Y105.871 E8.93074
G1 X80.815 Y106.063 E8.93745
G1 X80.832 Y106.38 E8.94853
G1 X80.87 Y106.633 E8.95747
G1 X80.949 Y106.937 E8.96844
G1 X81.047 Y107.198 E8.97817
G1 X81.179 Y107.46 E8.98842
G1 X81.348 Y107.731 E8.99957
G1 X81.552 Y108.017 E9.01184
G1 X81.749 Y108.244 E9.02234
G1 X82.028 Y108.509 E9.03578
G1 X82.312 Y108.739 E9.04854
G1 X82.633 Y108.959 E9.06213
G1 X82.998 Y109.173 E9.07691
G1 X83.4 Y109.363 E9.09243
G1 X83.85 Y109.546 E9.1094
G1 X84.334 Y109.717 E9.12733
G1 X84.859 Y109.878 E9.1465
G1 X85.452 Y110.034 E9.16792
G1 X86.024 Y110.166 E9.18842
G1 X86.652 Y110.281 E9.21071
G1 X87.326 Y110.377 E9.23449
G1 X88.108 Y110.457 E9.26194
G1 X88.783 Y110.505 E9.28558
G1 X89.622 Y110.539 E9.3149
G1 X90.453 Y110.55 E9.34392
G1 X91.25 Y110.532 E9.37176
G1 X92.08 Y110.478 E9.40081
G1 X92.819 Y110.398 E9.42677
G1 X93.551 Y110.284 E9.45264
G1 X94.293 Y110.131 E9.4791
G1 X94.983 Y109.954 E9.50398
G1 X95.632 Y109.749 E9.52775
G1 X96.273 Y109.512 E9.55161
G1 X96.879 Y109.246 E9.57473
G1 X97.454 Y108.958 E9.59718
G1 X97.974 Y108.654 E9.61822
G1 X98.466 Y108.327 E9.63885
G1 X98.959 Y107.949 E9.66055
G1 X99.385 Y107.571 E9.68044
G1 X99.797 Y107.149 E9.70103
G1 X100.163 Y106.716 E9.72083
G1 X100.505 Y106.242 E9.74125
G1 X100.794 Y105.767 E9.76066
G1 X101.035 Y105.283 E9.77955
G1 X101.245 Y104.741 E9.79985
G1 X101.388 Y104.247 E9.81781
G1 X101.507 Y103.657 E9.83883
G1 X101.57 Y103.103 E9.8583
G1 X101.594 Y102.47 E9.88042
G1 X101.583 Y102.004 E9.8967
G1 X101.546 Y101.527 E9.91341
G1 X101.49 Y101.072 E9.92942
G1 X101.406 Y100.62 E9.94547
G1 X101.301 Y100.196 E9.96073
G1 X101.18 Y99.809 E9.97489
G1 X101.022 Y99.396 E9.99033
G1 X100.851 Y99.032 E10.00437
G1 X100.628 Y98.638 E10.02019
G1 X100.379 Y98.261 E10.03596
G1 X100.092 Y97.889 E10.05237
G1 X99.766 Y97.519 E10.06959
G1 X99.449 Y97.2 E10.0853
G1 X99.047 Y96.841 E10.10412
G1 X98.659 Y96.531 E10.12147
G1 X98.181 Y96.187 E10.14203
G1 X97.695 Y95.868 E10.16234
G1 X97.162 Y95.548 E10.18405
G1 X96.572 Y95.234 E10.20739
G1 X95.932 Y94.918 E10.23231
G1 X95.274 Y94.616 E10.2576
G1 X94.606 Y94.326 E10.28303
G1 X93.801 Y94.001 E10.31335
G1 X91.172 Y93 E10.41159
G1 X90.17 Y92.592 E10.44937
G1 X89.04 Y92.088 E10.49258
G1 X88.568 Y91.857 E10.51094
G1 X88.142 Y91.627 E10.52784
G1 X87.73 Y91.39 E10.54444
G1 X87.343 Y91.142 E10.56049
G1 X86.99 Y90.894 E10.57556
G1 X86.652 Y90.64 E10.59033
G1 X86.344 Y90.378 E10.60445
G1 X86.073 Y90.117 E10.61759
G1 X85.815 Y89.83 E10.63107
G1 X85.581 Y89.523 E10.64455
G1 X85.399 Y89.238 E10.65636
G1 X85.222 Y88.91 E10.66937
G1 X85.079 Y88.574 E10.68212
G1 X84.967 Y88.224 E10.69496
G1 X84.883 Y87.838 E10.70875
G1 X84.837 Y87.469 E10.72174
G1 X84.823 Y87.085 E10.73516
G1 X84.845 Y86.633 E10.75096
G1 X84.83 Y86.62 E10.75166
G1 X84.963 Y85.915 E10.77671
G1 X84.974 Y85.907 E10.77719
G1 X85.037 Y85.678 E10.78548
G1 X85.135 Y85.414 E10.79532
G1 X85.273 Y85.103 E10.8072
G1 X85.451 Y84.767 E10.82048
G1 X85.625 Y84.494 E10.83178
G1 X85.825 Y84.217 E10.84372
G1 X86.056 Y83.951 E10.85602
G1 X86.287 Y83.717 E10.8675
G1 X86.554 Y83.485 E10.87985
G1 X86.832 Y83.275 E10.89202
G1 X87.14 Y83.072 E10.9049
G1 X87.457 Y82.891 E10.91765
G1 X87.801 Y82.722 E10.93104
G1 X88.176 Y82.563 E10.94526
G1 X88.537 Y82.433 E10.95866
G1 X88.943 Y82.32 E10.97338
G1 X89.371 Y82.23 E10.98865
G1 X89.799 Y82.161 E11.00379
G1 X90.251 Y82.111 E11.01968
G1 X90.689 Y82.084 E11.035
G1 X91.173 Y82.075 E11.05191
G1 X91.651 Y82.088 E11.06861
G1 X92.145 Y82.13 E11.08592
G1 X92.357 Y82.16 E11.0934
G1 X92.365 Y82.152 E11.09379
G1 X93.046 Y82.289 E11.11805
G1 X93.508 Y82.417 E11.13479
G1 X93.928 Y82.563 E11.15032
