;FLAVOR:Marlin
;TIME:1512
;Filament used: 1.09135m
;Layer height: 0.2
;MINX:73.989
;MINY:69.45
;MINZ:0.2
;MAXX:106.012
;MAXY:110.55
;MAXZ:10.4
;TARGET_MACHINE.NAME:Kingroon KP3S
;Generated with Cura_SteamEngine 5.6.0
M140 S60
M104 S220
M190 S60
M109 S220
M82 ;absolute extrusion mode
G28 ; home all axes
G90
 M117 Purge extruder
 G92 E0 ; reset extruder
 G1 Z1.0 F3000 ; move z up little to prevent scratching of surface
 G1 X2 Y20 Z0.3 F5000.0 ; move to start-line position
 G1 X2 Y175.0 Z0.3 F1500.0 E15 ; draw 1st line
 G1 X2 Y175.0 Z0.4 F5000.0 ; move to side a little
 G1 X2 Y20 Z0.4 F1500.0 E30 ; draw 2nd line
 G92 E0 ; reset extruder
 G1 Z1.0 F3000 ; move z up little to prevent scratching of surface
G92 E0
G92 E0
G1 F2400 E-4
;LAYER_COUNT:50
;LAYER:0
M107
G1 F240 Z0.6
;MESH:Frantic Albar (15).stl 1
G0 F6000 X101.492 Y69.451 Z0.6
;TYPE:WALL-OUTER
G1 F240 Z0.2
G1 F2400 E0
G1 F900 X101.491 Y73.519 E0.14207
G1 X101.458 Y73.863 E0.15414
G1 X101.409 Y74.063 E0.16133
G1 X101.35 Y74.233 E0.16761
G1 X101.255 Y74.43 E0.17525
G1 X101.171 Y74.573 E0.18104
G1 X101.034 Y74.754 E0.18897
G1 X100.829 Y74.998 E0.2001
G1 X100.74 Y75.06 E0.20389
G1 X100.716 Y75.055 E0.20474
G1 X100.611 Y75.133 E0.20931
G1 X100.47 Y75.216 E0.21502
G1 X100.278 Y75.307 E0.22244
G1 F902.1 X100.088 Y75.374 E0.22946
G1 X99.899 Y75.42 E0.23624
G1 F900 X99.739 Y75.443 E0.24189
G1 X99.544 Y75.452 E0.2487
G1 X79.519 Y75.452 E0.94804
G1 X79.34 Y75.443 E0.9543
G1 X79.18 Y75.421 E0.95994
G1 X78.973 Y75.37 E0.96738
G1 X78.804 Y75.311 E0.97364
G1 X78.628 Y75.228 E0.98043
G1 X78.462 Y75.13 E0.98716
G1 X78.321 Y75.026 E0.99328
G1 X78.151 Y74.876 E1.0012
G1 X78.046 Y74.759 E1.00669
G1 X77.913 Y74.583 E1.01439
G1 X77.816 Y74.421 E1.02099
G1 X77.729 Y74.24 E1.028
G1 F902.1 X77.669 Y74.064 E1.03448
G1 X77.624 Y73.893 E1.04064
G1 F900 X77.594 Y73.696 E1.0476
G1 F902.1 X77.586 Y73.507 E1.05419
G1 X77.585 Y69.451 E1.1955
G1 F900 X75.989 Y69.451 E1.25124
G1 X75.986 Y71.837 E1.33457
G1 X75.9 Y72.054 E1.34272
G1 X75.834 Y72.14 E1.3465
G1 X75.683 Y72.222 E1.3525
G1 X75.6 Y72.245 E1.35551
G1 X75.427 Y72.232 E1.36157
G1 X75.369 Y72.218 E1.36365
G1 X73.989 Y71.665 E1.41557
G1 X73.989 Y74.335 E1.50882
G1 X75.37 Y73.78 E1.5608
G1 X75.432 Y73.766 E1.56302
G1 F902.1 X75.683 Y73.776 E1.57177
G1 X75.768 Y73.818 E1.57507
G1 F900 X75.874 Y73.906 E1.57988
G1 F902.1 X75.925 Y73.971 E1.58276
G1 X75.989 Y74.182 E1.59044
G1 F900 X75.989 Y76.549 E1.67311
G1 X105.088 Y76.55 E2.68933
G1 X105.088 Y74.866 E2.74814
G1 X103.662 Y75.434 E2.80175
G1 X103.436 Y75.432 E2.80964
G1 X103.306 Y75.384 E2.81448
G1 X103.2 Y75.296 E2.81929
G1 X103.133 Y75.194 E2.82356
G1 X103.088 Y75.039 E2.82919
G1 X103.086 Y70.997 E2.97035
G1 F902.1 X103.103 Y70.916 E2.97324
G1 X103.179 Y70.732 E2.98017
G1 X103.271 Y70.639 E2.98473
G1 X103.392 Y70.576 E2.98948
G1 X103.452 Y70.555 E2.9917
G1 F900 X103.647 Y70.565 E2.99852
G1 X103.706 Y70.58 E3.00064
G1 X105.088 Y71.133 E3.05263
G1 X105.088 Y69.45 E3.1114
G1 X101.492 Y69.451 E3.23698
G0 F6000 X101.912 Y69.871
;TYPE:WALL-INNER
G1 F895.7 X101.913 Y70.592 E3.26279
G1 F747 X101.995 Y70.997 E3.28052
G1 F644 X101.995 Y73.547 E3.40748
G1 F683.5 X101.95 Y73.707 E3.41527
G1 F806 X101.874 Y73.914 E3.42404
G1 F900 X101.807 Y74.197 E3.4344
G1 X101.729 Y74.414 E3.44262
G1 X101.618 Y74.642 E3.45165
G1 X101.507 Y74.825 E3.45927
G1 X101.378 Y74.997 E3.46693
G1 X101.151 Y75.268 E3.47953
G1 X100.916 Y75.443 E3.48996
G1 X100.683 Y75.578 E3.49956
G1 X100.421 Y75.702 E3.50988
G1 F924.2 X100.25 Y75.752 E3.51606
G1 F1000 X99.955 Y75.805 E3.52567
G1 F1073.9 X99.794 Y75.822 E3.5305
G1 F1105.3 X99.573 Y75.831 E3.53692
G1 F1115 X79.5 Y75.831 E4.11405
G1 F1105.3 X79.288 Y75.822 E4.12021
G1 F1058.8 X79.064 Y75.8 E4.12702
G1 F976.7 X78.837 Y75.76 E4.13459
G1 F915.3 X78.666 Y75.708 E4.14085
G1 F900 X78.398 Y75.581 E4.15141
G1 X78.212 Y75.468 E4.15916
G1 X78.071 Y75.364 E4.16541
G1 X77.838 Y75.156 E4.17653
G1 X77.733 Y75.039 E4.18213
G1 X77.538 Y74.777 E4.19377
G1 X77.437 Y74.603 E4.20093
G1 X77.351 Y74.422 E4.20807
G1 F902.1 X77.262 Y74.169 E4.2176
G1 X77.217 Y73.997 E4.22392
G1 F900 X77.178 Y73.756 E4.23262
G1 F902.1 X77.166 Y73.539 E4.24034
G1 X77.165 Y72.392 E4.2811
G1 F745.6 X77.078 Y71.975 E4.29942
G1 F639.6 X77.081 Y69.955 E4.40067
G1 F642.9 X76.493 Y69.955 E4.42999
G1 X76.493 Y71.8 E4.522
G1 F639.6 X76.486 Y71.924 E4.52823
G1 F745.6 X76.287 Y72.216 E4.54342
G1 F900 X76.089 Y72.474 E4.55501
G1 X75.877 Y72.595 E4.5637
G1 F836.3 X75.773 Y72.671 E4.56864
G1 F728.3 X75.635 Y72.73 E4.57525
G1 F678.6 X75.381 Y72.72 E4.58726
G1 F771.4 X75.071 Y72.551 E4.60193
G1 F900 X74.409 Y72.286 E4.62733
G1 X74.409 Y73.713 E4.67816
G1 X75.071 Y73.447 E4.70358
G1 F771.4 X75.381 Y73.278 E4.71825
G1 F678.6 X75.649 Y73.283 E4.73091
G1 F728.3 X75.789 Y73.336 E4.7375
G1 F836.3 X75.965 Y73.443 E4.7454
G1 F900 X76.142 Y73.583 E4.75344
G1 F902.1 X76.281 Y73.748 E4.7611
G1 X76.334 Y73.861 E4.76554
G1 X76.41 Y74.149 E4.77612
G1 F900 X76.409 Y76.129 E4.84666
G1 X78.595 Y76.128 E4.92452
G1 F992.1 X79.331 Y76.169 E4.94834
G1 F1108.5 X99.581 Y76.171 E5.534
G1 F1080 X100.003 Y76.161 E5.54653
G1 F969.2 X100.496 Y76.129 E5.56287
G1 F900 X102.886 Y76.13 E5.64801
G1 F984.4 X103.424 Y76.166 E5.66557
G1 F1076.9 X103.758 Y76.164 E5.67551
G1 F919.7 X104.408 Y76.105 E5.69826
G1 F804.3 X104.643 Y76.105 E5.70763
G1 X104.643 Y75.523 E5.73083
G1 X104.321 Y75.652 E5.74466
G1 F895.7 X103.852 Y75.79 E5.76216
G1 F1038.5 X103.728 Y75.814 E5.76606
G1 F1076.9 X103.427 Y75.816 E5.77502
G1 F984.4 X103.038 Y75.708 E5.78816
G1 F900 X102.932 Y75.62 E5.79307
G1 X102.73 Y75.314 E5.80613
G1 X102.674 Y75.109 E5.8137
G1 X102.666 Y75.035 E5.81635
G1 X102.666 Y73.969 E5.85433
G1 F750 X102.582 Y73.563 E5.87205
G1 F644 X102.583 Y70.997 E5.9998
G1 F747 X102.712 Y70.752 E6.01168
G1 F895.7 X102.802 Y70.546 E6.01973
G1 F908.7 X103.078 Y70.269 E6.03352
G1 F945 X103.205 Y70.217 E6.03818
G1 F1030 X103.386 Y70.177 E6.04395
G1 F1098.8 X103.545 Y70.173 E6.04859
G1 F1095.7 X103.683 Y70.183 E6.05264
G1 F1044.2 X103.854 Y70.21 E6.05795
G1 F893.6 X104.321 Y70.347 E6.07541
G1 F804.3 X104.643 Y70.476 E6.08924
G1 X104.643 Y69.895 E6.1124
G1 X104.408 Y69.895 E6.12177
G1 F924.2 X103.699 Y69.834 E6.14645
G1 F1086.2 X103.357 Y69.833 E6.15655
G1 F994.7 X102.98 Y69.867 E6.16875
G1 F908.7 X101.912 Y69.871 E6.20643
G1 F2400 E2.20643
G1 F240 Z0.6
G0 F6000 X74.925 Y72.941 Z0.6
G1 F240 Z0.2
G1 F2400 E6.20643
G1 F692.3 X74.859 Y72.941 E6.20949
G1 X74.824 Y72.999 E6.21262
G1 X74.858 Y73.057 E6.21574
G1 X74.925 Y73.057 E6.21884
G1 X74.96 Y72.999 E6.22198
G1 F2400 E2.22198
G1 F240 Z0.6
G0 F6000 X76.725 Y72.309 Z0.6
G1 F240 Z0.2
G1 F2400 E6.22198
G1 F821.7 X76.693 Y72.386 E6.22523
G1 X76.356 Y72.824 E6.24679
G1 X76.201 Y72.922 E6.25394
G1 X76.051 Y72.996 E6.26047
G1 X76.196 Y73.069 E6.2668
G1 X76.422 Y73.245 E6.27798
G1 F830.8 X76.656 Y73.527 E6.29212
G1 F863 X76.751 Y73.767 E6.30171
G1 F891.5 X76.762 Y73.816 E6.30351
G1 F867 X76.73 Y73.507 E6.315
G1 F830.8 X76.725 Y72.309 E6.36123
G1 F2400 E2.36123
G1 F240 Z0.6
G0 F6000 X76.762 Y73.816 Z0.6
G1 F240 Z0.2
G1 F2400 E6.36123
G1 F915.3 X76.823 Y74.117 E6.37199
G1 F840 X76.866 Y74.508 E6.387
G1 F757.5 X76.87 Y75.668 E6.4361
G1 F751.5 X77.718 Y75.668 E6.47227
G1 X77.588 Y75.556 E6.47959
G1 X77.39 Y75.348 E6.49185
G1 X77.14 Y75.011 E6.50975
G1 X77.022 Y74.803 E6.51995
G1 X76.935 Y74.621 E6.52855
G1 F757.5 X76.891 Y74.504 E6.53384
G1 F807.7 X76.842 Y74.276 E6.5431
G1 F895.7 X76.823 Y74.117 E6.54883
G1 F2400 E2.54883
G1 F240 Z0.6
G0 F6000 X102.195 Y74.516 Z0.6
G1 F240 Z0.2
G1 F2400 E6.54883
G1 F724.1 X102.026 Y74.879 E6.56656
G1 X101.885 Y75.108 E6.57847
G1 X101.717 Y75.327 E6.59069
G1 X101.512 Y75.571 E6.6048
G1 X101.395 Y75.657 E6.61122
G1 X102.417 Y75.658 E6.65647
G1 X102.279 Y75.449 E6.66756
G1 X102.209 Y75.187 E6.67956
G1 X102.195 Y75.059 E6.68527
G1 X102.195 Y74.516 E6.70931
G1 F2400 E2.70931
G1 F240 Z0.6
G0 F6000 X102.445 Y70.34 Z0.6
G1 F240 Z0.2
G1 F2400 E6.70931
G1 F729.7 X102.412 Y70.395 E6.71212
G1 X102.349 Y70.395 E6.71489
G1 X102.317 Y70.34 E6.71769
G1 X102.35 Y70.285 E6.7205
G1 X102.412 Y70.285 E6.72323
G1 F2400 E2.72323
G1 F240 Z0.6
G0 F6000 X90.46 Y80.951 Z0.6
;TYPE:WALL-OUTER
G1 F240 Z0.2
G1 F2400 E6.72323
G1 F900 X89.542 Y80.968 E6.75529
G1 X88.654 Y81.019 E6.78636
G1 X87.849 Y81.102 E6.81462
G1 X87.14 Y81.207 E6.83965
G1 X86.378 Y81.361 E6.8668
G1 X85.687 Y81.542 E6.89174
G1 X85.035 Y81.766 E6.91582
G1 X84.468 Y82.002 E6.93727
G1 X83.921 Y82.272 E6.95857
G1 X83.403 Y82.576 E6.97955
G1 X82.923 Y82.914 E7.00005
G1 X82.502 Y83.264 E7.01917
G1 X82.134 Y83.609 E7.03679
G1 X81.747 Y84.034 E7.05686
G1 X81.414 Y84.474 E7.07613
G1 X81.129 Y84.928 E7.09485
G1 X80.876 Y85.421 E7.1142
G1 X80.658 Y85.949 E7.13415
G1 X80.423 Y86.65 E7.15997
G1 X80.433 Y86.662 E7.16052
G1 X80.333 Y87.047 E7.17441
G1 X80.22 Y87.626 E7.19501
G1 X80.134 Y88.273 E7.21781
G1 X80.085 Y88.896 E7.23963
G1 X80.068 Y89.663 E7.26642
G1 X80.063 Y106.357 E7.84943
G1 F902.1 X80.024 Y106.912 E7.86881
G1 X79.993 Y107.144 E7.87697
G1 F900 X79.898 Y107.594 E7.89303
G1 X79.821 Y107.821 E7.9014
G1 X79.737 Y108.019 E7.90891
G1 X79.599 Y108.269 E7.91888
G1 X79.581 Y108.276 E7.91956
G1 X79.451 Y108.468 E7.92766
G1 X79.319 Y108.611 E7.93445
G1 X79.008 Y108.848 E7.94811
G1 X78.884 Y108.919 E7.9531
G1 X78.524 Y109.064 E7.96665
G1 X77.894 Y109.225 E7.98936
G1 X77.828 Y109.227 E7.99167
G1 X77.815 Y109.211 E7.99239
G1 X77.601 Y109.231 E7.99989
G1 X75.988 Y109.236 E8.05622
G1 X75.988 Y110.55 E8.10211
G1 X86.424 Y110.55 E8.46657
G1 X86.424 Y109.236 E8.51246
G1 X85.079 Y109.235 E8.55943
G1 X84.73 Y109.219 E8.57163
G1 X84.43 Y109.177 E8.58221
G1 X83.966 Y109.061 E8.59891
G1 X83.781 Y108.996 E8.60576
G1 X83.51 Y108.868 E8.61623
G1 X83.265 Y108.709 E8.62643
G1 X83.078 Y108.533 E8.6354
G1 X82.93 Y108.33 E8.64417
G1 X82.754 Y108.044 E8.6559
G1 X82.565 Y107.598 E8.67282
G1 X82.584 Y107.577 E8.6738
G1 X82.547 Y107.463 E8.67799
G1 X82.493 Y107.238 E8.68607
G1 X82.457 Y107.027 E8.69355
G1 X82.427 Y106.746 E8.70342
G1 X82.406 Y106.212 E8.72208
G1 X82.406 Y89.629 E9.30121
G1 X82.419 Y89.116 E9.31913
G1 X82.465 Y88.539 E9.33935
G1 X82.525 Y88.107 E9.35458
G1 X82.624 Y87.613 E9.37217
G1 X82.751 Y87.143 E9.38917
G1 X82.894 Y86.735 E9.40427
G1 X83.057 Y86.328 E9.41958
G1 X83.257 Y85.92 E9.43545
G1 X83.478 Y85.544 E9.45068
G1 X83.703 Y85.223 E9.46437
G1 X83.978 Y84.891 E9.47943
G1 X84.267 Y84.598 E9.4938
G1 X84.565 Y84.34 E9.50757
G1 X84.897 Y84.094 E9.522
G1 X85.232 Y83.886 E9.53577
G1 X85.605 Y83.689 E9.5505
G1 X85.988 Y83.522 E9.56509
G1 X86.399 Y83.378 E9.5803
G1 X86.84 Y83.265 E9.5962
G1 X87.265 Y83.178 E9.61135
G1 X87.731 Y83.11 E9.6278
G1 X88.195 Y83.06 E9.64409
G1 X88.65 Y83.033 E9.66001
G1 X89.148 Y83.024 E9.67741
G1 X89.644 Y83.033 E9.69473
G1 X90.133 Y83.058 E9.71183
G1 X90.583 Y83.102 E9.72762
G1 X91.039 Y83.163 E9.74369
G1 X91.258 Y83.202 E9.75146
G1 X91.266 Y83.195 E9.75183
G1 X91.905 Y83.341 E9.77472
G1 X92.338 Y83.478 E9.79058
G1 X92.732 Y83.635 E9.80539
G1 X93.092 Y83.807 E9.81933
G1 X93.451 Y84.011 E9.83375
G1 X93.791 Y84.241 E9.84808
G1 X94.115 Y84.5 E9.86257
G1 X94.405 Y84.774 E9.8765
G1 X94.695 Y85.102 E9.89179
G1 X94.948 Y85.442 E9.90659
G1 X95.156 Y85.777 E9.92036
G1 X95.369 Y86.18 E9.93628
G1 X95.56 Y86.624 E9.95316
G1 X95.689 Y87.035 E9.9682
G1 X95.81 Y87.53 E9.986
G1 X95.901 Y88.05 E10.00444
G1 X95.964 Y88.583 E10.02318
G1 X95.988 Y88.969 E10.03669
G1 X95.976 Y88.981 E10.03728
G1 X96 Y89.135 E10.04272
G1 X96.012 Y89.718 E10.06309
G1 X96.007 Y106.371 E10.64466
G1 X95.994 Y106.628 E10.65365
G1 X95.944 Y107.112 E10.67064
G1 X95.838 Y107.608 E10.68835
G1 X95.706 Y107.967 E10.70171
G1 X95.592 Y108.184 E10.71027
G1 X95.503 Y108.325 E10.7161
G1 X95.386 Y108.479 E10.72285
G1 X95.248 Y108.626 E10.72989
G1 X95.083 Y108.76 E10.73731
G1 X94.773 Y108.948 E10.74998
G1 X94.526 Y109.047 E10.75927
G1 X94.017 Y109.178 E10.77762
G1 X93.724 Y109.219 E10.78796
G1 X93.388 Y109.235 E10.7997
G1 X91.996 Y109.236 E10.84832
G1 X91.996 Y110.55 E10.89421
G1 X106.012 Y110.55 E11.38369
G1 X106.012 Y109.236 E11.42958
G1 X104.61 Y109.235 E11.47854
G1 X104.284 Y109.218 E11.48994
G1 X103.972 Y109.172 E11.50095
G1 X103.521 Y109.057 E11.51721
G1 X103.347 Y108.993 E11.52368
G1 X103.087 Y108.864 E11.53382
G1 X102.824 Y108.685 E11.54493
G1 X102.663 Y108.533 E11.55266
G1 X102.441 Y108.242 E11.56544
G1 X102.265 Y107.913 E11.57848
G1 X102.122 Y107.531 E11.59272
G1 X102.057 Y107.273 E11.60201
G1 X102.01 Y107.008 E11.61141
G1 X101.969 Y106.522 E11.62844
G1 X101.963 Y90.048 E12.20377
G1 X101.941 Y89.265 E12.23112
G1 X101.879 Y88.503 E12.25782
G1 X101.767 Y87.745 E12.28458
G1 X101.626 Y87.104 E12.3075
G1 X101.429 Y86.447 E12.33146
G1 X101.185 Y85.828 E12.35469
G1 X100.923 Y85.296 E12.3754
G1 X100.606 Y84.763 E12.39706
G1 X100.255 Y84.276 E12.41802
G1 X99.88 Y83.839 E12.43813
G1 X99.459 Y83.426 E12.45873
G1 X99.006 Y83.053 E12.47922
G1 X98.506 Y82.711 E12.50038
G1 X97.958 Y82.391 E12.52254
G1 X97.367 Y82.106 E12.54546
G1 X96.752 Y81.857 E12.56863
G1 X96.2 Y81.676 E12.58891
G1 X96.192 Y81.664 E12.58942
G1 X95.226 Y81.409 E12.62431
G1 X95.215 Y81.418 E12.62481
G1 X94.647 Y81.3 E12.64507
G1 X93.892 Y81.178 E12.67177
G1 X93.023 Y81.073 E12.70234
G1 X92.161 Y80.999 E12.73256
G1 X91.342 Y80.965 E12.76118
G1 X90.46 Y80.951 E12.79199
G0 F6000 X90.468 Y81.371
;TYPE:WALL-INNER
G1 F900 X89.565 Y81.387 E12.82416
G1 X88.696 Y81.437 E12.85517
G1 X87.911 Y81.518 E12.88328
G1 X87.174 Y81.628 E12.90982
G1 X86.473 Y81.77 E12.9353
G1 X85.808 Y81.944 E12.95979
G1 X85.195 Y82.154 E12.98287
G1 X84.625 Y82.393 E13.00489
G1 X84.121 Y82.642 E13.02491
G1 X83.63 Y82.929 E13.04517
G1 X83.179 Y83.248 E13.06485
G1 X82.766 Y83.592 E13.08399
G1 X82.402 Y83.935 E13.10181
G1 X82.071 Y84.302 E13.11942
G1 X81.76 Y84.712 E13.13775
G1 X81.495 Y85.136 E13.15556
G1 X81.258 Y85.597 E13.17402
G1 X81.052 Y86.096 E13.19325
G1 X80.84 Y86.728 E13.217
G1 X80.847 Y86.735 E13.21735
G1 X80.743 Y87.141 E13.23228
G1 X80.635 Y87.694 E13.25235
G1 X80.552 Y88.317 E13.27474
G1 X80.505 Y88.918 E13.29621
G1 X80.488 Y89.663 E13.32276
G1 X80.484 Y106.342 E13.91689
G1 F902.1 X80.444 Y106.927 E13.93773
G1 X80.405 Y107.23 E13.94858
G1 F900 X80.316 Y107.656 E13.96409
G1 X80.208 Y107.985 E13.97642
G1 X80.124 Y108.183 E13.98408
G1 X79.999 Y108.424 E13.99375
G1 X79.917 Y108.544 E13.99893
G1 X79.904 Y108.549 E13.99943
G1 X79.76 Y108.753 E14.00832
G1 X79.628 Y108.896 E14.01525
G1 X79.545 Y108.971 E14.01924
G1 X79.285 Y109.168 E14.03086
G1 X79.017 Y109.32 E14.04183
G1 X78.629 Y109.471 E14.05667
G1 F861 X77.969 Y109.658 E14.08221
G1 F828.9 X77.765 Y109.655 E14.0901
G1 F834.4 X77.64 Y109.665 E14.09492
G1 F840 X76.422 Y109.669 E14.1414
G1 F843.7 X76.422 Y110.116 E14.15839
G1 F834.4 X78.008 Y110.111 E14.21932
G1 F861 X78.712 Y110.13 E14.24554
G1 F900 X83.801 Y110.13 E14.42682
G1 F840 X84.335 Y110.1 E14.44723
G1 F809.4 X84.72 Y110.113 E14.46249
G1 F838.1 X85.991 Y110.117 E14.51111
G1 F845.6 X85.991 Y109.669 E14.52809
G1 X85.059 Y109.668 E14.56343
G1 F834.4 X84.669 Y109.654 E14.57842
G1 F806 X84.368 Y109.623 E14.59046
G1 F840 X83.828 Y109.458 E14.61201
G1 F900 X83.603 Y109.377 E14.62053
G1 X83.281 Y109.22 E14.63329
G1 X83.036 Y109.061 E14.64369
G1 X82.821 Y108.874 E14.65384
G1 X82.734 Y108.773 E14.65859
G1 X82.553 Y108.524 E14.66955
G1 X82.368 Y108.21 E14.68254
G1 X82.179 Y107.758 E14.69999
G1 X82.154 Y107.614 E14.70519
G1 X82.088 Y107.351 E14.71485
G1 X82.043 Y107.097 E14.72404
G1 X82.007 Y106.763 E14.73601
G1 X81.986 Y106.212 E14.75565
G1 X81.986 Y89.619 E15.34672
G1 X82 Y89.082 E15.36586
G1 X82.049 Y88.481 E15.38734
G1 X82.113 Y88.025 E15.40374
