;FLAVOR:Marlin
;TIME:1947
;Filament used: 1.42687m
;Layer height: 0.2
;MINX:73.451
;MINY:69.45
;MINZ:0.2
;MAXX:106.55
;MAXY:110.55
;MAXZ:10.4
;TARGET_MACHINE.NAME:Kingroon KP3S
;Generated with Cura_SteamEngine 5.6.0
M140 S60
M104 S220
M190 S60
M109 S220
M82 ;absolute extrusion mode
G28 ; home all axes
G90
 M117 Purge extruder
 G92 E0 ; reset extruder
 G1 Z1.0 F3000 ; move z up little to prevent scratching of surface
 G1 X2 Y20 Z0.3 F5000.0 ; move to start-line position
 G1 X2 Y175.0 Z0.3 F1500.0 E15 ; draw 1st line
 G1 X2 Y175.0 Z0.4 F5000.0 ; move to side a little
 G1 X2 Y20 Z0.4 F1500.0 E30 ; draw 2nd line
 G92 E0 ; reset extruder
 G1 Z1.0 F3000 ; move z up little to prevent scratching of surface
G92 E0
G92 E0
G1 F2400 E-4
;LAYER_COUNT:50
;LAYER:0
M107
G1 F240 Z0.6
;MESH:Frantic Albar (15).stl 4
G0 F6000 X100.953 Y69.45 Z0.6
;TYPE:WALL-OUTER
G1 F240 Z0.2
G1 F2400 E0
G1 F900 X100.954 Y73.507 E0.14168
G1 X100.942 Y73.698 E0.14837
G1 X100.916 Y73.879 E0.15475
G1 X100.871 Y74.064 E0.1614
G1 X100.822 Y74.209 E0.16675
G1 X100.73 Y74.406 E0.17434
G1 X100.647 Y74.551 E0.18017
G1 X100.517 Y74.731 E0.18793
G1 X100.375 Y74.888 E0.19532
G1 X100.242 Y75.009 E0.2016
G1 X100.072 Y75.133 E0.20895
G1 X99.899 Y75.235 E0.21596
G1 X99.758 Y75.301 E0.2214
G1 F902.1 X99.551 Y75.373 E0.22904
G1 X99.372 Y75.419 E0.23548
G1 F900 X99.2 Y75.443 E0.24154
G1 X99.009 Y75.452 E0.24822
G1 X78.982 Y75.452 E0.94762
G1 X78.819 Y75.445 E0.95332
G1 X78.643 Y75.421 E0.95952
G1 X78.433 Y75.369 E0.96708
G1 X78.242 Y75.3 E0.97417
G1 X78.1 Y75.234 E0.97964
G1 X77.886 Y75.103 E0.9884
G1 X77.773 Y75.01 E0.99351
G1 X77.486 Y74.734 E1.00742
G1 X77.35 Y74.539 E1.01572
G1 X77.201 Y74.263 E1.02668
G1 F902.1 X77.132 Y74.07 E1.03382
G1 X77.082 Y73.871 E1.04097
G1 F900 X77.056 Y73.697 E1.04711
G1 F902.1 X77.049 Y73.506 E1.05377
G1 X77.048 Y69.45 E1.19508
G1 F900 X75.45 Y69.45 E1.25089
G1 X75.448 Y71.837 E1.33425
G1 X75.362 Y72.054 E1.3424
G1 X75.296 Y72.139 E1.34616
G1 X75.145 Y72.222 E1.35218
G1 X75.062 Y72.245 E1.35518
G1 X74.889 Y72.232 E1.36124
G1 X74.831 Y72.218 E1.36333
G1 X73.451 Y71.665 E1.41525
G1 X73.451 Y74.335 E1.50849
G1 X74.832 Y73.78 E1.56047
G1 X74.894 Y73.766 E1.56269
G1 F902.1 X75.145 Y73.776 E1.57144
G1 X75.23 Y73.818 E1.57474
G1 F900 X75.336 Y73.906 E1.57955
G1 F902.1 X75.382 Y73.961 E1.58205
G1 X75.45 Y74.183 E1.59014
G1 F900 X75.451 Y76.549 E1.67277
G1 X106.55 Y76.55 E2.75884
G1 X106.55 Y74.866 E2.81766
G1 X105.124 Y75.434 E2.87126
G1 X104.898 Y75.432 E2.87915
G1 X104.768 Y75.384 E2.88399
G1 X104.662 Y75.296 E2.8888
G1 X104.595 Y75.194 E2.89307
G1 X104.556 Y75.063 E2.89784
G1 X104.548 Y75.003 E2.89995
G1 X104.548 Y70.997 E3.03986
G1 X104.564 Y70.915 E3.04277
G1 X104.636 Y70.743 E3.04929
G1 F902.1 X104.733 Y70.639 E3.05424
G1 X104.854 Y70.576 E3.05899
G1 X104.914 Y70.555 E3.06121
G1 F900 X105.109 Y70.565 E3.06803
G1 X105.168 Y70.58 E3.07015
G1 X106.55 Y71.133 E3.12214
G1 X106.55 Y69.45 E3.18091
G1 X100.953 Y69.45 E3.37638
G0 F6000 X101.373 Y69.87
;TYPE:WALL-INNER
G1 F900 X101.374 Y73.507 E3.50593
G1 X101.358 Y73.756 E3.51482
G1 X101.333 Y73.937 E3.52133
G1 X101.284 Y74.146 E3.52898
G1 X101.192 Y74.411 E3.53897
G1 X101.095 Y74.615 E3.54702
G1 X101.012 Y74.76 E3.55297
G1 X100.856 Y74.979 E3.56255
G1 X100.701 Y75.155 E3.5709
G1 X100.525 Y75.32 E3.57949
G1 X100.335 Y75.462 E3.58794
G1 X100.077 Y75.616 E3.59865
G1 X99.878 Y75.705 E3.60641
G1 F917.5 X99.705 Y75.758 E3.61273
G1 F976.7 X99.493 Y75.795 E3.6198
G1 F1055.9 X99.253 Y75.822 E3.62713
G1 F1105.3 X99.039 Y75.831 E3.63334
G1 F1115 X78.964 Y75.831 E4.21053
G1 F1105.3 X78.747 Y75.822 E4.21683
G1 F1058.8 X78.529 Y75.799 E4.22347
G1 F976.7 X78.293 Y75.759 E4.23133
G1 F915.3 X78.118 Y75.703 E4.23776
G1 F900 X77.922 Y75.615 E4.24542
G1 X77.704 Y75.488 E4.2544
G1 X77.457 Y75.292 E4.26564
G1 X77.151 Y74.988 E4.281
G1 X76.954 Y74.696 E4.29355
G1 X76.793 Y74.375 E4.30634
G1 F902.1 X76.719 Y74.153 E4.31466
G1 X76.666 Y73.931 E4.32277
G1 F900 X76.64 Y73.757 E4.32903
G1 F902.1 X76.628 Y73.506 E4.33796
G1 X76.628 Y72.392 E4.37755
G1 F744.1 X76.54 Y71.975 E4.39591
G1 F638.5 X76.544 Y69.954 E4.49739
G1 F641.8 X75.954 Y69.954 E4.52686
G1 F638.5 X75.949 Y71.924 E4.62577
G1 F744.1 X75.75 Y72.216 E4.641
G1 F900 X75.551 Y72.473 E4.65258
G1 X75.339 Y72.595 E4.66129
G1 F836.3 X75.235 Y72.671 E4.66623
G1 F728.3 X75.097 Y72.73 E4.67284
G1 F678.6 X74.843 Y72.72 E4.68484
G1 F771.4 X74.533 Y72.551 E4.69952
G1 F900 X73.871 Y72.286 E4.72492
G1 X73.871 Y73.713 E4.77575
G1 X74.533 Y73.447 E4.80116
G1 F771.4 X74.843 Y73.278 E4.81584
G1 F678.6 X75.111 Y73.283 E4.8285
G1 F728.3 X75.251 Y73.336 E4.83509
G1 F836.3 X75.427 Y73.443 E4.84299
G1 F900 X75.604 Y73.583 E4.85102
G1 F902.1 X75.744 Y73.747 E4.85869
G1 X75.795 Y73.857 E4.863
G1 X75.858 Y74.071 E4.87092
G1 F900 X75.87 Y74.153 E4.87388
G1 X75.871 Y76.129 E4.94426
G1 X78.044 Y76.13 E5.02167
G1 F974.2 X78.565 Y76.161 E5.03884
G1 F1086.2 X78.993 Y76.171 E5.05148
G1 F1108.5 X99.208 Y76.169 E5.63613
G1 F992.1 X100.035 Y76.129 E5.66288
G1 F900 X104.348 Y76.13 E5.81652
G1 F984.4 X104.886 Y76.166 E5.83408
G1 F1076.9 X105.22 Y76.164 E5.84402
G1 F919.7 X105.87 Y76.105 E5.86677
G1 F804.3 X106.105 Y76.105 E5.87614
G1 X106.105 Y75.523 E5.89934
G1 X105.783 Y75.652 E5.91317
G1 F895.7 X105.314 Y75.79 E5.93066
G1 F1038.5 X105.19 Y75.814 E5.93456
G1 F1076.9 X104.889 Y75.816 E5.94352
G1 F984.4 X104.5 Y75.708 E5.95667
G1 F900 X104.394 Y75.62 E5.96158
G1 X104.192 Y75.314 E5.97464
G1 X104.153 Y75.183 E5.97951
G1 X104.128 Y75.003 E5.98598
G1 X104.128 Y70.997 E6.12868
G1 X104.176 Y70.753 E6.13754
G1 X104.248 Y70.581 E6.14418
G1 F908.7 X104.54 Y70.269 E6.15926
G1 F945 X104.667 Y70.217 E6.16392
G1 F1030 X104.848 Y70.177 E6.16969
G1 F1098.8 X105.007 Y70.173 E6.17433
G1 F1095.7 X105.145 Y70.183 E6.17838
G1 F1044.2 X105.316 Y70.21 E6.18369
G1 F893.6 X105.783 Y70.347 E6.20115
G1 F804.3 X106.105 Y70.476 E6.21498
G1 X106.105 Y69.895 E6.23814
G1 X105.87 Y69.895 E6.24751
G1 F924.2 X105.161 Y69.834 E6.27219
G1 F1086.2 X104.819 Y69.833 E6.28228
G1 F994.7 X104.442 Y69.867 E6.29448
G1 F908.7 X101.373 Y69.87 E6.40277
G1 F2400 E2.40277
G1 F240 Z0.6
G0 F6000 X74.387 Y72.941 Z0.6
G1 F240 Z0.2
G1 F2400 E6.40277
G1 F692.3 X74.321 Y72.941 E6.40582
G1 X74.286 Y72.999 E6.40896
G1 X74.32 Y73.057 E6.41207
G1 X74.387 Y73.057 E6.41518
G1 X74.422 Y72.999 E6.41831
G1 F2400 E2.41831
G1 F240 Z0.6
G0 F6000 X76.188 Y72.307 Z0.6
G1 F240 Z0.2
G1 F2400 E6.41831
G1 F820 X76.156 Y72.386 E6.42164
G1 X75.817 Y72.823 E6.44327
G1 X75.663 Y72.922 E6.45043
G1 X75.513 Y72.996 E6.45697
G1 X75.658 Y73.069 E6.46331
G1 X75.885 Y73.244 E6.47452
G1 F828.9 X76.119 Y73.526 E6.48869
G1 F857.1 X76.197 Y73.715 E6.49634
G1 F887.3 X76.224 Y73.817 E6.50015
G1 F867 X76.193 Y73.506 E6.51171
G1 F828.9 X76.188 Y72.307 E6.55808
G1 F2400 E2.55808
G1 F240 Z0.6
G0 F6000 X76.224 Y73.817 Z0.6
G1 F240 Z0.2
G1 F2400 E6.55808
G1 F908.7 X76.284 Y74.123 E6.56908
G1 F830.8 X76.33 Y74.532 E6.58497
G1 F754.5 X76.332 Y75.668 E6.63324
G1 F753 X77.191 Y75.668 E6.66981
G1 X76.899 Y75.396 E6.6868
G1 X76.783 Y75.266 E6.69422
G1 X76.545 Y74.909 E6.71249
G1 X76.419 Y74.67 E6.72399
G1 F754.5 X76.359 Y74.528 E6.73054
G1 F806 X76.301 Y74.257 E6.74156
G1 F891.5 X76.284 Y74.123 E6.74642
G1 F2400 E2.74642
G1 F240 Z0.6
G0 F6000 X101.793 Y70.29 Z0.6
G1 F240 Z0.2
G1 F2400 E6.74642
G1 F900 X101.792 Y73.566 E6.86312
G1 X101.774 Y73.813 E6.87194
G1 X101.747 Y74.01 E6.87902
G1 X101.692 Y74.246 E6.88765
G1 X101.619 Y74.475 E6.89622
G1 X101.498 Y74.749 E6.90689
G1 X101.377 Y74.968 E6.9158
G1 X101.195 Y75.227 E6.92707
G1 X101.013 Y75.437 E6.93697
G1 X100.808 Y75.63 E6.947
G1 X100.706 Y75.71 E6.95162
G1 X103.971 Y75.709 E7.06793
G1 X103.79 Y75.434 E7.07965
G1 X103.751 Y75.303 E7.08452
G1 X103.708 Y75.003 E7.09532
G1 X103.708 Y70.997 E7.23802
G1 X103.789 Y70.591 E7.25276
G1 X103.86 Y70.418 E7.25943
G1 X103.979 Y70.291 E7.26563
G1 X101.793 Y70.29 E7.34349
G0 F6000 X102.171 Y70.668
;TYPE:SKIN
G1 F900 X102.17 Y73.59 E7.44554
G1 X102.15 Y73.855 E7.45482
G1 X102.117 Y74.084 E7.4629
G1 X102.054 Y74.359 E7.47275
G1 X101.978 Y74.593 E7.48135
G1 X101.918 Y74.744 E7.48702
G1 X101.787 Y75.015 E7.49753
G1 X101.697 Y75.172 E7.50385
G1 X101.587 Y75.33 E7.51058
G1 X103.374 Y75.326 E7.57298
G1 X103.331 Y75.025 E7.5836
G1 X103.334 Y70.955 E7.72574
G1 X103.392 Y70.669 E7.73593
G1 X102.171 Y70.668 E7.77857
G0 F6000 X103.119 Y71.045
G1 F900 X102.953 Y70.878 E7.7868
G0 F6000 X102.379 Y70.898
G1 F900 X103.119 Y71.639 E7.82337
G0 F6000 X103.119 Y72.233
G1 F900 X102.379 Y71.492 E7.85994
G0 F6000 X102.379 Y72.086
G1 F900 X103.119 Y72.827 E7.89651
G0 F6000 X103.119 Y73.421
G1 F900 X102.378 Y72.679 E7.93313
G0 F6000 X102.378 Y73.273
G1 F900 X103.119 Y74.014 E7.96973
G0 F6000 X103.119 Y74.608
G1 F900 X102.359 Y73.848 E8.00727
G0 F6000 X102.269 Y74.352
G1 F900 X103.032 Y75.115 E8.04495
G0 F6000 X102.439 Y75.117
G1 F900 X102.121 Y74.798 E8.06068
G1 F2400 E4.06068
G1 F240 Z0.6
G0 F6000 X91.156 Y81.451 Z0.6
;TYPE:WALL-OUTER
G1 F240 Z0.2
G1 F2400 E8.06068
G1 F900 X83.876 Y107.009 E8.98875
G1 X83.797 Y107.139 E8.99406
G1 X83.709 Y107.22 E8.99824
G1 X83.583 Y107.281 E9.00313
G1 X83.462 Y107.3 E9.00741
G1 X83.329 Y107.282 E9.01209
G1 X83.223 Y107.234 E9.01616
G1 X83.118 Y107.146 E9.02094
G1 X83.057 Y107.063 E9.02454
G1 X83.004 Y106.873 E9.03143
G1 X83.009 Y85.285 E9.78535
G1 X83.045 Y84.835 E9.80111
G1 X83.127 Y84.383 E9.81716
G1 X83.226 Y84.053 E9.82919
G1 X83.394 Y83.699 E9.84287
G1 X83.5 Y83.54 E9.84955
G1 X83.615 Y83.405 E9.85574
G1 X83.717 Y83.308 E9.86065
G1 X83.896 Y83.17 E9.86855
G1 X83.992 Y83.11 E9.8725
G1 X84.323 Y82.955 E9.88527
G1 X84.655 Y82.862 E9.89731
G1 X85.218 Y82.805 E9.91707
G1 X85.666 Y82.796 E9.93272
G1 X85.666 Y81.45 E9.97972
G1 X74.976 Y81.45 E10.35305
G1 X74.976 Y82.79 E10.39985
G1 X76.03 Y82.79 E10.43666
G1 X76.334 Y82.802 E10.44728
G1 F902.1 X76.771 Y82.867 E10.46268
G1 X77.046 Y82.948 E10.47266
G1 F900 X77.361 Y83.11 E10.48503
G1 X77.573 Y83.281 E10.49455
G1 X77.815 Y83.569 E10.50768
G1 X77.983 Y83.862 E10.51948
G1 X78.114 Y84.194 E10.53194
G1 X78.171 Y84.384 E10.53887
G1 X78.219 Y84.619 E10.54725
G1 X78.26 Y84.922 E10.55793
G1 X78.272 Y84.931 E10.55845
G1 X78.314 Y85.649 E10.58357
G1 X78.314 Y106.34 E11.30616
G1 X78.284 Y106.897 E11.32564
G1 X78.224 Y107.351 E11.34163
G1 X78.178 Y107.584 E11.34993
G1 X78.109 Y107.821 E11.35855
G1 X77.985 Y108.134 E11.37031
G1 X77.779 Y108.484 E11.38449
G1 X77.574 Y108.718 E11.39535
G1 X77.32 Y108.916 E11.4066
G1 X77.057 Y109.049 E11.41689
G1 F902.1 X76.799 Y109.134 E11.42636
G1 X76.498 Y109.203 E11.43712
G1 F900 X76.226 Y109.235 E11.44668
G1 X74.95 Y109.241 E11.49124
G1 X74.95 Y110.55 E11.53696
G1 X84.418 Y110.55 E11.86761
G1 X90.12 Y90.564 E12.59344
G1 F902.1 X90.161 Y90.488 E12.59644
G1 X90.287 Y90.335 E12.60335
G1 F900 X90.418 Y90.262 E12.60859
G1 X90.553 Y90.242 E12.61335
G1 X90.667 Y90.256 E12.61736
G1 X90.808 Y90.318 E12.62274
G1 X90.849 Y90.347 E12.6245
G1 X90.961 Y90.505 E12.63126
G1 X90.986 Y90.56 E12.63337
G1 X96.92 Y110.549 E13.36156
G1 X106.55 Y110.55 E13.69787
G1 X106.55 Y109.241 E13.74358
G1 X105.353 Y109.237 E13.78539
G1 X105.204 Y109.226 E13.7906
G1 X104.881 Y109.169 E13.80206
G1 X104.55 Y109.07 E13.81412
G1 X104.379 Y109.002 E13.82055
G1 X104.128 Y108.865 E13.83054
G1 X103.898 Y108.687 E13.84069
G1 X103.721 Y108.489 E13.84997
G1 X103.645 Y108.375 E13.85475
G1 X103.42 Y107.982 E13.87057
G1 X103.395 Y107.898 E13.87363
G1 X103.402 Y107.839 E13.87571
G1 X103.303 Y107.484 E13.88858
G1 X103.214 Y107.021 E13.90504
G1 X103.228 Y107.007 E13.90573
G1 X103.202 Y106.781 E13.91368
G1 X103.187 Y106.492 E13.92378
G1 X103.188 Y85.418 E14.65975
G1 X103.222 Y84.952 E14.67607
G1 F902.1 X103.256 Y84.704 E14.68479
G1 X103.3 Y84.484 E14.69261
G1 F900 X103.415 Y84.077 E14.70738
G1 X103.566 Y83.723 E14.72082
G1 X103.635 Y83.605 E14.72559
G1 X103.767 Y83.422 E14.73347
G1 X103.881 Y83.298 E14.73936
G1 X104.102 Y83.122 E14.74922
G1 X104.38 Y82.967 E14.76034
G1 X104.632 Y82.875 E14.76971
G1 X105.082 Y82.807 E14.7856
G1 X105.357 Y82.792 E14.79522
G1 X106.55 Y82.789 E14.83688
G1 X106.55 Y81.45 E14.88364
G1 X98.471 Y81.451 E15.16579
G1 X98.47 Y82.793 E15.21266
G1 X98.885 Y82.814 E15.22717
G1 X99.294 Y82.86 E15.24154
G1 X99.652 Y82.93 E15.25428
G1 X99.968 Y83.036 E15.26592
G1 X100.184 Y83.137 E15.27425
G1 X100.326 Y83.22 E15.27999
G1 X100.482 Y83.332 E15.2867
G1 X100.656 Y83.499 E15.29512
G1 X100.806 Y83.709 E15.30413
G1 X100.819 Y83.714 E15.30462
G1 X100.978 Y83.953 E15.31464
G1 X101.082 Y84.161 E15.32277
G1 X101.159 Y84.361 E15.33025
G1 X101.239 Y84.635 E15.34022
G1 X101.33 Y85.064 E15.35553
G1 X101.315 Y85.078 E15.35625
G1 X101.363 Y85.641 E15.37598
G1 X101.369 Y106.863 E16.11712
G1 F902.1 X101.326 Y107.031 E16.12316
G1 X101.299 Y107.094 E16.12555
G1 F900 X101.141 Y107.244 E16.13316
G1 X101.058 Y107.277 E16.13628
G1 X100.887 Y107.301 E16.14231
G1 X100.799 Y107.283 E16.14545
G1 X100.676 Y107.227 E16.15017
G1 X100.589 Y107.152 E16.15418
G1 X100.499 Y107.015 E16.1599
G1 X92.934 Y81.451 E17.09095
G1 X91.156 Y81.451 E17.15304
G0 F6000 X91.474 Y81.871
;TYPE:WALL-INNER
G1 F895.7 X89.196 Y89.881 E17.4511
G1 F784.2 X89.14 Y90.285 E17.46777
G1 F700 X84.31 Y107.219 E18.27427
G1 F744.1 X84.181 Y107.371 E18.28286
G1 F843.7 X83.892 Y107.598 E18.29682
G1 F900 X83.766 Y107.659 E18.30181
G1 X83.406 Y107.716 E18.31479
G1 X83.273 Y107.698 E18.31957
G1 X82.953 Y107.556 E18.33204
G1 X82.848 Y107.468 E18.33692
G1 X82.667 Y107.218 E18.34792
G1 X82.61 Y107.034 E18.35478
G1 X82.584 Y106.892 E18.35992
G1 X82.59 Y85.251 E19.13081
G1 X82.634 Y84.739 E19.14911
G1 X82.708 Y84.331 E19.16388
G1 X82.824 Y83.932 E19.17868
G1 X82.858 Y83.843 E19.18208
G1 X83.043 Y83.468 E19.19697
G1 X83.178 Y83.27 E19.20551
G1 X83.325 Y83.101 E19.21349
G1 X83.478 Y82.96 E19.2209
G1 X83.673 Y82.814 E19.22958
G1 X83.834 Y82.719 E19.23624
G1 X84.111 Y82.588 E19.24715
G1 F820 X84.576 Y82.408 E19.26665
G1 F771.4 X85.217 Y82.355 E19.29338
G1 F790.8 X85.217 Y81.899 E19.31186
G1 F771.4 X84.533 Y81.911 E19.34029
G1 F820 X84.115 Y81.87 E19.35672
G1 F891.5 X77.217 Y81.874 E19.60477
G1 F816.4 X76.844 Y81.909 E19.61949
G1 F784.2 X76.335 Y81.892 E19.64031
G1 F818.2 X75.416 Y81.89 E19.67632
G1 F821.7 X75.416 Y82.35 E19.69426
G1 X76.045 Y82.35 E19.7188
G1 F814.7 X76.398 Y82.362 E19.7327
G1 F781 X76.809 Y82.406 E19.74967
G1 F823.5 X77.233 Y82.572 E19.7674
G1 F900 X77.512 Y82.711 E19.7785
G1 X77.619 Y82.778 E19.783
G1 X77.801 Y82.921 E19.79124
G1 X77.893 Y83.008 E19.79575
G1 X78.111 Y83.264 E19.80773
G1 X78.179 Y83.36 E19.81192
G1 X78.388 Y83.738 E19.82731
G1 X78.516 Y84.073 E19.84008
G1 X78.587 Y84.32 E19.84923
G1 X78.635 Y84.561 E19.85799
G1 X78.672 Y84.828 E19.86759
G1 X78.681 Y84.836 E19.86802
G1 X78.697 Y84.944 E19.87191
G1 X78.734 Y85.614 E19.89581
G1 X78.734 Y106.362 E20.63489
G1 X78.703 Y106.922 E20.65487
G1 X78.639 Y107.419 E20.67272
G1 X78.59 Y107.666 E20.68169
G1 X78.501 Y107.973 E20.69307
G1 X78.349 Y108.344 E20.70735
G1 X78.167 Y108.66 E20.72034
G1 X78.095 Y108.761 E20.72476
G1 X77.89 Y108.995 E20.73584
G1 X77.804 Y109.076 E20.74005
G1 X77.611 Y109.226 E20.74876
G1 X77.512 Y109.29 E20.75296
G1 X77.279 Y109.41 E20.7623
G1 F881.1 X76.874 Y109.559 E20.778
G1 F828.9 X76.62 Y109.635 E20.78825
G1 F818.2 X76.277 Y109.667 E20.80175
G1 F843.7 X75.383 Y109.672 E20.83572
G1 F847.5 X75.383 Y110.117 E20.85255
G1 X76.204 Y110.117 E20.88361
G1 F821.7 X76.672 Y110.103 E20.90187
G1 F838.1 X77.028 Y110.125 E20.91552
G1 F891.5 X84.101 Y110.13 E21.16987
G1 F900 X84.642 Y108.229 E21.24027
G1 F843.7 X84.784 Y107.634 E21.26352
G1 F744.1 X84.813 Y107.411 E21.27321
G1 F700 X89.658 Y90.432 E22.08187
