;FLAVOR:Marlin
;TIME:1579
;Filament used: 1.08199m
;Layer height: 0.2
;MINX:74.451
;MINY:69.45
;MINZ:0.2
;MAXX:105.55
;MAXY:110.55
;MAXZ:10.4
;TARGET_MACHINE.NAME:Kingroon KP3S
;Generated with Cura_SteamEngine 5.6.0
M140 S60
M104 S220
M190 S60
M109 S220
M82 ;absolute extrusion mode
G28 ; home all axes
G90
 M117 Purge extruder
 G92 E0 ; reset extruder
 G1 Z1.0 F3000 ; move z up little to prevent scratching of surface
 G1 X2 Y20 Z0.3 F5000.0 ; move to start-line position
 G1 X2 Y175.0 Z0.3 F1500.0 E15 ; draw 1st line
 G1 X2 Y175.0 Z0.4 F5000.0 ; move to side a little
 G1 X2 Y20 Z0.4 F1500.0 E30 ; draw 2nd line
 G92 E0 ; reset extruder
 G1 Z1.0 F3000 ; move z up little to prevent scratching of surface
G92 E0
G92 E0
G1 F2400 E-4
;LAYER_COUNT:50
;LAYER:0
M107
G1 F240 Z0.6
;MESH:Frantic Albar (15).stl 6
G0 F6000 X78.048 Y69.45 Z0.6
;TYPE:WALL-OUTER
G1 F240 Z0.2
G1 F2400 E0
G1 F900 X76.45 Y69.45 E0.05581
G1 X76.448 Y71.837 E0.13917
G1 X76.362 Y72.054 E0.14732
G1 X76.296 Y72.139 E0.15108
G1 X76.145 Y72.222 E0.1571
G1 X76.062 Y72.245 E0.1601
G1 X75.889 Y72.232 E0.16616
G1 X75.831 Y72.218 E0.16825
G1 X74.451 Y71.665 E0.22017
G1 X74.451 Y74.335 E0.31341
G1 X75.832 Y73.78 E0.36539
G1 X75.894 Y73.766 E0.36761
G1 F902.1 X76.145 Y73.776 E0.37636
G1 X76.23 Y73.818 E0.37966
G1 F900 X76.336 Y73.906 E0.38447
G1 X76.382 Y73.961 E0.38698
G1 X76.45 Y74.182 E0.39505
G1 X76.451 Y76.549 E0.47772
G1 X105.55 Y76.55 E1.49395
G1 X105.55 Y74.866 E1.55276
G1 X104.124 Y75.434 E1.60636
G1 X103.898 Y75.432 E1.61425
G1 X103.768 Y75.384 E1.61909
G1 X103.662 Y75.296 E1.62391
G1 X103.595 Y75.194 E1.62817
G1 X103.548 Y75.023 E1.63436
G1 X103.548 Y70.997 E1.77496
G1 F902.1 X103.565 Y70.916 E1.77784
G1 X103.641 Y70.732 E1.78478
G1 X103.733 Y70.639 E1.78934
G1 X103.854 Y70.576 E1.79409
G1 X103.914 Y70.555 E1.79631
G1 F900 X104.109 Y70.565 E1.80312
G1 X104.168 Y70.58 E1.80525
G1 X105.55 Y71.133 E1.85724
G1 X105.55 Y69.45 E1.91601
G1 X101.954 Y69.451 E2.04159
G1 X101.953 Y73.519 E2.18366
G1 X101.918 Y73.876 E2.19619
G1 X101.868 Y74.071 E2.20322
G1 X101.804 Y74.246 E2.20973
G1 X101.724 Y74.417 E2.21632
G1 X101.626 Y74.583 E2.22305
G1 X101.507 Y74.743 E2.23002
G1 X101.375 Y74.886 E2.23681
G1 X101.248 Y75.002 E2.24282
G1 X101.089 Y75.121 E2.24975
G1 X100.942 Y75.211 E2.25577
G1 X100.74 Y75.307 E2.26358
G1 F902.1 X100.55 Y75.374 E2.2706
G1 X100.361 Y75.42 E2.27738
G1 F900 X100.2 Y75.443 E2.28306
G1 X100.008 Y75.452 E2.28977
G1 X79.982 Y75.452 E2.98914
G1 X79.819 Y75.445 E2.99484
G1 X79.64 Y75.42 E3.00115
G1 F902.1 X79.451 Y75.374 E3.00793
G1 X79.26 Y75.307 E3.01498
G1 F900 X79.05 Y75.208 E3.02309
G1 X78.934 Y75.137 E3.02784
G1 X78.738 Y74.99 E3.0364
G1 X78.61 Y74.872 E3.04248
G1 X78.484 Y74.732 E3.04905
G1 X78.371 Y74.577 E3.05575
G1 X78.253 Y74.376 E3.06389
G1 X78.189 Y74.235 E3.0693
G1 X78.086 Y73.892 E3.08181
G1 X78.056 Y73.696 E3.08873
G1 X78.048 Y73.507 E3.09534
G1 X78.048 Y69.45 E3.23702
G1 F2400 E-0.76298
G1 F240 Z0.6
G0 F6000 X102.374 Y69.871 Z0.6
;TYPE:WALL-INNER
G1 F240 Z0.2
G1 F2400 E3.23702
G1 F895.7 X102.375 Y70.592 E3.26283
G1 F747 X102.457 Y70.997 E3.28056
G1 F644 X102.457 Y73.547 E3.40751
G1 F683.5 X102.412 Y73.707 E3.41531
G1 F806 X102.334 Y73.928 E3.42463
G1 F900 X102.263 Y74.213 E3.43509
G1 X102.206 Y74.371 E3.44108
G1 X102.073 Y74.654 E3.45222
G1 X101.986 Y74.8 E3.45827
G1 X101.817 Y75.027 E3.46835
G1 X101.659 Y75.196 E3.47659
G1 X101.532 Y75.312 E3.48272
G1 X101.309 Y75.479 E3.49264
G1 X101.103 Y75.6 E3.50115
G1 X100.883 Y75.702 E3.50979
G1 F924.2 X100.712 Y75.752 E3.51597
G1 F1000 X100.416 Y75.805 E3.52561
G1 F1086.2 X100.037 Y75.831 E3.53682
G1 F1115 X79.964 Y75.831 E4.11396
G1 F1105.3 X79.745 Y75.822 E4.12032
G1 F1058.8 X79.527 Y75.799 E4.12695
G1 F976.7 X79.29 Y75.757 E4.13485
G1 F915.3 X79.118 Y75.703 E4.14117
G1 F900 X78.89 Y75.598 E4.15011
G1 X78.714 Y75.495 E4.15737
G1 X78.456 Y75.302 E4.16885
G1 X78.298 Y75.154 E4.17656
G1 X78.146 Y74.982 E4.18474
G1 X78.01 Y74.791 E4.19309
G1 X77.871 Y74.55 E4.203
G1 F902.1 X77.783 Y74.35 E4.21077
G1 X77.719 Y74.153 E4.21813
G1 X77.666 Y73.93 E4.22627
G1 F900 X77.64 Y73.756 E4.23254
G1 X77.628 Y73.507 E4.24142
G1 X77.628 Y72.392 E4.28114
G1 F744.1 X77.54 Y71.975 E4.2995
G1 F638.5 X77.544 Y69.954 E4.40097
G1 F641.8 X76.954 Y69.954 E4.43045
G1 F638.5 X76.949 Y71.924 E4.52936
G1 F744.1 X76.75 Y72.216 E4.54459
G1 F900 X76.551 Y72.473 E4.55616
G1 X76.339 Y72.595 E4.56488
G1 F836.3 X76.235 Y72.671 E4.56981
G1 F728.3 X76.097 Y72.73 E4.57642
G1 F678.6 X75.843 Y72.72 E4.58843
G1 F771.4 X75.533 Y72.551 E4.6031
G1 F900 X74.871 Y72.286 E4.6285
G1 X74.871 Y73.713 E4.67934
G1 X75.533 Y73.447 E4.70475
G1 F771.4 X75.843 Y73.278 E4.71942
G1 F678.6 X76.111 Y73.283 E4.73209
G1 F728.3 X76.251 Y73.336 E4.73867
G1 F836.3 X76.427 Y73.443 E4.74657
G1 F900 X76.604 Y73.583 E4.75461
G1 X76.744 Y73.748 E4.76232
G1 F902.1 X76.794 Y73.857 E4.76658
G1 X76.857 Y74.071 E4.77451
G1 F900 X76.87 Y74.15 E4.77736
G1 X76.871 Y76.129 E4.84785
G1 X79.044 Y76.13 E4.92526
G1 F971.7 X79.559 Y76.161 E4.94228
G1 F1086.2 X79.993 Y76.171 E4.95509
G1 F1108.5 X100.208 Y76.169 E5.53974
G1 F992.1 X100.958 Y76.129 E5.56401
G1 F900 X103.348 Y76.13 E5.64915
G1 F984.4 X103.886 Y76.166 E5.66671
G1 F1076.9 X104.22 Y76.164 E5.67665
G1 F919.7 X104.87 Y76.105 E5.6994
G1 F804.3 X105.105 Y76.105 E5.70877
G1 X105.105 Y75.523 E5.73197
G1 X104.783 Y75.652 E5.7458
G1 F895.7 X104.314 Y75.79 E5.76329
G1 F1038.5 X104.19 Y75.814 E5.76719
G1 F1076.9 X103.889 Y75.816 E5.77615
G1 F984.4 X103.5 Y75.708 E5.7893
G1 F900 X103.394 Y75.62 E5.79421
G1 X103.192 Y75.314 E5.80727
G1 X103.138 Y75.121 E5.81441
G1 X103.13 Y75.062 E5.81653
G1 X103.128 Y73.983 E5.85497
G1 F750 X103.044 Y73.563 E5.87327
G1 F644 X103.045 Y70.997 E6.00102
G1 F747 X103.174 Y70.752 E6.01291
G1 F895.7 X103.264 Y70.546 E6.02095
G1 F908.7 X103.54 Y70.269 E6.03475
G1 F945 X103.667 Y70.217 E6.0394
G1 F1030 X103.848 Y70.177 E6.04517
G1 F1098.8 X104.007 Y70.173 E6.04982
G1 F1095.7 X104.145 Y70.183 E6.05386
G1 F1044.2 X104.316 Y70.21 E6.05918
G1 F893.6 X104.783 Y70.347 E6.07664
G1 F804.3 X105.105 Y70.476 E6.09047
G1 X105.105 Y69.895 E6.11363
G1 X104.87 Y69.895 E6.12299
G1 F924.2 X104.161 Y69.834 E6.14768
G1 F1086.2 X103.819 Y69.833 E6.15777
G1 F994.7 X103.442 Y69.867 E6.16997
G1 F908.7 X102.374 Y69.871 E6.20765
G1 F2400 E2.20765
G1 F240 Z0.6
G0 F6000 X75.387 Y72.941 Z0.6
G1 F240 Z0.2
G1 F2400 E6.20765
G1 F692.3 X75.321 Y72.941 E6.21071
G1 X75.286 Y72.999 E6.21385
G1 X75.32 Y73.057 E6.21696
G1 X75.387 Y73.057 E6.22006
G1 X75.422 Y72.999 E6.2232
G1 F2400 E2.2232
G1 F240 Z0.6
G0 F6000 X77.188 Y72.307 Z0.6
G1 F240 Z0.2
G1 F2400 E6.2232
G1 F820 X77.156 Y72.386 E6.22653
G1 X76.817 Y72.823 E6.24816
G1 X76.663 Y72.922 E6.25532
G1 X76.513 Y72.996 E6.26186
G1 X76.658 Y73.069 E6.2682
G1 X76.885 Y73.244 E6.27941
G1 F828.9 X77.119 Y73.527 E6.29361
G1 F857.1 X77.196 Y73.715 E6.30121
G1 F887.3 X77.224 Y73.816 E6.305
G1 F891.5 X77.213 Y73.767 E6.3068
G1 F863 X77.193 Y73.507 E6.31649
G1 F828.9 X77.188 Y72.307 E6.3629
G1 F2400 E2.3629
G1 F240 Z0.6
G0 F6000 X77.224 Y73.816 Z0.6
G1 F240 Z0.2
G1 F2400 E6.3629
G1 F910.8 X77.284 Y74.119 E6.37377
G1 F830.8 X77.332 Y74.611 E6.39285
G1 F753 X77.332 Y75.668 E6.43785
G1 X78.177 Y75.668 E6.47383
G1 X77.956 Y75.463 E6.48666
G1 X77.775 Y75.256 E6.49837
G1 X77.613 Y75.027 E6.51031
G1 X77.506 Y74.847 E6.51923
G1 X77.387 Y74.6 E6.5309
G1 F760.6 X77.351 Y74.496 E6.53554
G1 F811.2 X77.301 Y74.259 E6.54511
G1 F893.6 X77.284 Y74.119 E6.55017
G1 F2400 E2.55017
G1 F240 Z0.6
G0 F6000 X102.658 Y74.504 Z0.6
G1 F240 Z0.2
G1 F2400 E6.55017
G1 F725.5 X102.529 Y74.795 E6.56424
G1 X102.389 Y75.043 E6.57682
G1 X102.164 Y75.345 E6.59346
G1 X102.046 Y75.474 E6.60119
G1 X101.849 Y75.659 E6.61313
G1 X102.881 Y75.659 E6.65873
G1 X102.742 Y75.449 E6.66986
G1 X102.676 Y75.208 E6.6809
G1 X102.662 Y75.106 E6.68545
G1 X102.658 Y74.504 E6.71205
G1 F2400 E2.71205
G1 F240 Z0.6
G0 F6000 X102.907 Y70.34 Z0.6
G1 F240 Z0.2
G1 F2400 E6.71205
G1 F729.7 X102.874 Y70.395 E6.71487
G1 X102.811 Y70.395 E6.71764
G1 X102.779 Y70.34 E6.72044
G1 X102.812 Y70.285 E6.72325
G1 X102.874 Y70.285 E6.72598
G1 F2400 E2.72598
G1 F240 Z0.6
G0 F6000 X78.492 Y81.451 Z0.6
;TYPE:WALL-OUTER
G1 F240 Z0.2
G1 F2400 E6.72598
G1 F900 X78.492 Y88.268 E6.96405
G1 X80.542 Y88.268 E7.03564
G1 X80.862 Y86.434 E7.10066
G1 X80.963 Y85.96 E7.11758
G1 X81.089 Y85.527 E7.13333
G1 X81.235 Y85.122 E7.14837
G1 X81.319 Y84.924 E7.15588
G1 X81.515 Y84.548 E7.17069
G1 X81.794 Y84.141 E7.18792
G1 X82.029 Y83.891 E7.1999
G1 X82.236 Y83.709 E7.20953
G1 X82.38 Y83.601 E7.21581
G1 X82.563 Y83.483 E7.22342
G1 X82.77 Y83.37 E7.23165
G1 X82.961 Y83.293 E7.23885
G1 X83.181 Y83.228 E7.24686
G1 X83.393 Y83.183 E7.25443
G1 X83.821 Y83.132 E7.26948
G1 X92.884 Y83.123 E7.58599
G1 X93.023 Y83.147 E7.59091
G1 X93.113 Y83.191 E7.59441
G1 X93.219 Y83.279 E7.59922
G1 X93.286 Y83.381 E7.60348
G1 X93.325 Y83.512 E7.60826
G1 X93.333 Y83.572 E7.61037
G1 X93.334 Y95.412 E8.02386
G1 X93.309 Y95.55 E8.02876
G1 X93.291 Y95.601 E8.03065
G1 X93.16 Y95.764 E8.03795
G1 X93.115 Y95.797 E8.0399
G1 F902.1 X92.929 Y95.855 E8.04669
G1 X82.89 Y95.86 E8.39645
G1 F900 X82.89 Y97.472 E8.45274
G1 X92.885 Y97.472 E8.8018
G1 X93.067 Y97.506 E8.80827
G1 X93.237 Y97.645 E8.81594
G1 X93.273 Y97.697 E8.81814
G1 X93.325 Y97.861 E8.82415
G1 X93.334 Y97.921 E8.82627
G1 X93.329 Y108.474 E9.19481
G1 X93.309 Y108.567 E9.19814
G1 X93.265 Y108.657 E9.20164
G1 X93.177 Y108.763 E9.20645
G1 F902.1 X93.075 Y108.829 E9.21068
G1 X92.921 Y108.875 E9.21628
G1 F900 X85.444 Y108.877 E9.4774
G1 X84.991 Y108.85 E9.49325
G1 X84.512 Y108.762 E9.51026
G1 X84.122 Y108.629 E9.52465
G1 X83.744 Y108.427 E9.53961
G1 X83.446 Y108.2 E9.5527
G1 X83.132 Y107.859 E9.56889
G1 X82.914 Y107.542 E9.58232
G1 X82.711 Y107.161 E9.5974
G1 X82.535 Y106.727 E9.61375
G1 X82.403 Y106.287 E9.6298
G1 X82.295 Y105.795 E9.64739
G1 X82.215 Y105.286 E9.66538
G1 X82.039 Y103.7 E9.72111
G1 X79.915 Y103.7 E9.79529
G1 X79.915 Y110.55 E10.03451
G1 X103.509 Y110.55 E10.85849
G1 X103.509 Y109.21 E10.90528
G1 X102.113 Y109.21 E10.95404
G1 X101.779 Y109.201 E10.9657
G1 X101.297 Y109.145 E10.98265
G1 X100.944 Y109.064 E10.9953
G1 X100.738 Y108.987 E11.00298
G1 X100.486 Y108.845 E11.01308
G1 X100.309 Y108.708 E11.0209
G1 X100.065 Y108.471 E11.03278
G1 X99.905 Y108.268 E11.0418
G1 X99.754 Y107.991 E11.05282
G1 X99.667 Y107.784 E11.06066
G1 X99.541 Y107.388 E11.07518
G1 X99.488 Y107.174 E11.08287
G1 X99.445 Y106.905 E11.09239
G1 X99.4 Y106.356 E11.11163
G1 X99.4 Y85.433 E11.84232
G1 X99.451 Y84.891 E11.86133
G1 X99.489 Y84.69 E11.86848
G1 X99.548 Y84.454 E11.87697
G1 X99.671 Y84.098 E11.89013
G1 X99.76 Y83.897 E11.8978
G1 X99.854 Y83.73 E11.9045
G1 X99.985 Y83.549 E11.9123
G1 X100.119 Y83.405 E11.91917
G1 X100.34 Y83.223 E11.92917
G1 X100.518 Y83.106 E11.93661
G1 X100.81 Y82.962 E11.94798
G1 X101.176 Y82.853 E11.96131
G1 X101.796 Y82.787 E11.98309
G1 X101.852 Y82.789 E11.98505
G1 X101.859 Y82.798 E11.98544
G1 X103.509 Y82.79 E12.04307
G1 X103.509 Y81.45 E12.08986
G1 X78.492 Y81.451 E12.96354
G1 F2400 E8.96354
G1 F240 Z0.6
G0 F6000 X100.631 Y81.871 Z0.6
;TYPE:WALL-INNER
G1 F240 Z0.2
G1 F2400 E12.96354
G1 F900 X78.912 Y81.871 E13.7372
G1 X78.912 Y87.848 E13.95011
G1 X80.189 Y87.848 E13.9956
G1 X80.446 Y86.369 E14.04908
G1 X80.559 Y85.843 E14.06824
G1 X80.681 Y85.423 E14.08382
G1 X80.835 Y84.99 E14.10019
G1 X80.925 Y84.776 E14.10846
G1 X81.143 Y84.354 E14.12538
G1 X81.427 Y83.93 E14.14356
G1 X81.488 Y83.853 E14.14706
G1 X81.767 Y83.561 E14.16144
G1 X81.983 Y83.374 E14.17162
G1 X82.152 Y83.248 E14.17913
G1 X82.359 Y83.116 E14.18787
G1 X82.612 Y82.98 E14.19811
G1 X82.785 Y82.91 E14.20475
G1 X83.045 Y82.83 E14.21444
G1 X83.309 Y82.771 E14.22408
G1 X83.771 Y82.715 E14.24066
G1 X92.884 Y82.703 E14.56528
G1 X93.018 Y82.716 E14.57007
G1 X93.111 Y82.736 E14.57346
G1 X93.381 Y82.868 E14.58417
G1 X93.487 Y82.956 E14.58908
G1 X93.688 Y83.261 E14.60209
G1 X93.727 Y83.392 E14.60696
G1 X93.753 Y83.572 E14.61343
G1 X93.754 Y95.412 E15.03519
G1 X93.744 Y95.521 E15.03909
G1 X93.694 Y95.725 E15.04658
G1 X93.665 Y95.793 E15.04921
G1 X93.588 Y95.908 E15.05414
G1 X93.448 Y96.07 E15.06177
G1 X93.313 Y96.167 E15.06769
G1 X93.195 Y96.216 E15.07224
G1 F902.1 X93.018 Y96.266 E15.07877
G1 X92.885 Y96.28 E15.08353
G1 F900 X83.31 Y96.28 E15.4246
G1 X83.31 Y97.052 E15.4521
G1 X92.885 Y97.052 E15.79318
G1 F902.1 X93.018 Y97.066 E15.79793
G1 X93.18 Y97.104 E15.80385
G1 F900 X93.296 Y97.156 E15.80837
G1 X93.381 Y97.216 E15.81208
G1 X93.576 Y97.395 E15.82151
G1 X93.65 Y97.512 E15.82644
G1 X93.727 Y97.741 E15.83505
G1 X93.754 Y97.921 E15.84153
G1 X93.753 Y108.429 E16.21584
G1 X93.72 Y108.655 E16.22398
G1 X93.589 Y108.925 E16.23467
G1 X93.501 Y109.031 E16.23958
G1 F902.1 X93.195 Y109.231 E16.25257
G1 X92.993 Y109.289 E16.26004
G1 F900 X92.884 Y109.297 E16.26393
G1 X85.42 Y109.297 E16.52981
G1 X84.993 Y109.273 E16.54504
G1 X84.379 Y109.161 E16.56728
G1 X84.022 Y109.042 E16.58068
G1 X83.924 Y108.999 E16.58449
G1 X83.546 Y108.797 E16.59976
G1 X83.456 Y108.739 E16.60357
G1 X83.188 Y108.532 E16.61564
G1 X83.109 Y108.459 E16.61947
G1 X82.786 Y108.097 E16.63675
G1 X82.531 Y107.718 E16.65302
G1 X82.312 Y107.298 E16.66989
G1 X82.133 Y106.848 E16.68715
G1 X81.993 Y106.377 E16.70465
G1 X81.887 Y105.899 E16.72209
G1 X81.797 Y105.332 E16.74254
G1 X81.663 Y104.12 E16.78598
G1 X80.335 Y104.12 E16.83328
G1 X80.335 Y110.13 E17.04737
G1 X100.684 Y110.13 E17.77223
G1 F820 X101.116 Y110.088 E17.7892
G1 F782.6 X101.76 Y110.107 E17.8156
G1 F818.2 X103.069 Y110.11 E17.86689
G1 F821.7 X103.069 Y109.65 E17.88483
G1 X102.1 Y109.65 E17.92264
G1 F816.4 X101.71 Y109.64 E17.93796
G1 F779.4 X101.172 Y109.591 E17.96018
G1 F820 X100.627 Y109.397 E17.9828
G1 F900 X100.532 Y109.353 E17.98653
G1 X100.202 Y109.159 E18.00016
G1 X100.017 Y109.01 E18.00863
G1 X99.739 Y108.736 E18.02253
G1 X99.601 Y108.565 E18.03036
G1 X99.537 Y108.47 E18.03444
G1 X99.368 Y108.155 E18.04717
G1 X99.267 Y107.911 E18.05658
G1 X99.13 Y107.477 E18.07279
G1 X99.084 Y107.293 E18.07955
G1 X99.026 Y106.939 E18.09232
G1 X98.981 Y106.39 E18.11195
G1 X98.982 Y85.395 E18.85982
G1 X99.032 Y84.851 E18.87928
G1 X99.073 Y84.626 E18.88743
G1 X99.151 Y84.317 E18.89878
G1 X99.268 Y83.977 E18.91159
G1 X99.394 Y83.691 E18.92272
G1 X99.488 Y83.524 E18.92955
G1 X99.674 Y83.266 E18.94088
G1 X99.852 Y83.081 E18.95002
G1 X100.073 Y82.899 E18.96022
G1 X100.332 Y82.729 E18.97126
G1 X100.624 Y82.586 E18.98284
G1 F823.5 X101.097 Y82.401 E19.00261
G1 F789.1 X101.75 Y82.349 E19.02922
G1 F818.2 X101.922 Y82.356 E19.03597
G1 F816.4 X103.068 Y82.351 E19.08097
G1 F818.2 X103.068 Y81.891 E19.099
G1 F821.7 X101.819 Y81.889 E19.14772
G1 F790.8 X101.055 Y81.908 E19.17871
G1 F823.5 X100.631 Y81.871 E19.19528
G1 F2400 E15.19528
G1 F240 Z0.6
G0 F6000 X93.108 Y82.298 Z0.6
G1 F240 Z0.2
G1 F2400 E19.19528
G1 F891.5 X92.884 Y82.287 E19.20334
G1 F900 X83.721 Y82.294 E19.52974
G1 F818.2 X83.185 Y82.329 E19.55079
G1 F825.3 X82.692 Y82.291 E19.57
G1 F900 X79.332 Y82.291 E19.68968
G1 X79.332 Y85.718 E19.81176
G1 F769.9 X79.403 Y86.237 E19.83357
G1 F722.8 X79.364 Y87.154 E19.87429
G1 F782.6 X79.364 Y87.396 E19.8842
G1 X79.809 Y87.396 E19.90243
G1 X79.844 Y87.195 E19.91079
G1 F722.8 X79.962 Y86.285 E19.95149
G1 F769.9 X80.137 Y85.802 E19.97288
G1 F900 X80.298 Y85.243 E19.99361
G1 X80.461 Y84.794 E20.01062
G1 X80.574 Y84.536 E20.02065
G1 X80.77 Y84.16 E20.03576
G1 X81.08 Y83.693 E20.05572
G1 X81.182 Y83.565 E20.06156
G1 X81.489 Y83.245 E20.07735
G1 X81.67 Y83.087 E20.08591
G1 X81.924 Y82.895 E20.09725
G1 X82.154 Y82.749 E20.10696
G1 X82.454 Y82.591 E20.11903
