;FLAVOR:Marlin
;TIME:3971
;Filament used: 2.78263m
;Layer height: 0.2
;MINX:67.337
;MINY:47.447
;MINZ:0.2
;MAXX:123.975
;MAXY:126.354
;MAXZ:8.4
;TARGET_MACHINE.NAME:Kingroon KP3S
;Generated with Cura_SteamEngine 5.6.0
M140 S50
M105
M190 S50
M104 S210
M105
M109 S210
M82 ;absolute extrusion mode
G28 ; home all axes
G90
 M117 Purge extruder
 G92 E0 ; reset extruder
 G1 Z1.0 F3000 ; move z up little to prevent scratching of surface
 G1 X2 Y20 Z0.3 F5000.0 ; move to start-line position
 G1 X2 Y175.0 Z0.3 F1500.0 E15 ; draw 1st line
 G1 X2 Y175.0 Z0.4 F5000.0 ; move to side a little
 G1 X2 Y20 Z0.4 F1500.0 E30 ; draw 2nd line
 G92 E0 ; reset extruder
 G1 Z1.0 F3000 ; move z up little to prevent scratching of surface
G92 E0
G92 E0
G1 F2400 E-1
;LAYER_COUNT:40
;LAYER:0
M107
G1 F240 Z0.6
;MESH:Carabiner_v1-0.stl
G0 F6000 X71.456 Y54.324 Z0.6
;TYPE:WALL-INNER
G1 F240 Z0.2
G1 F2400 E0
G1 F900 X70.977 Y55.07 E0.03096
G1 X70.56 Y55.819 E0.0609
G1 X70.174 Y56.628 E0.0922
G1 X69.845 Y57.443 E0.1229
G1 X69.569 Y58.26 E0.15301
G1 X69.33 Y59.128 E0.18445
G1 X69.144 Y59.975 E0.21474
G1 X68.9 Y61.693 E0.27534
G1 X68.818 Y63.5 E0.33851
G1 X68.818 Y110.315 E1.97344
G1 X68.901 Y112.106 E2.03605
G1 X69.15 Y113.849 E2.09754
G1 X69.338 Y114.704 E2.12811
G1 X69.573 Y115.553 E2.15888
G1 X69.856 Y116.386 E2.1896
G1 X70.186 Y117.199 E2.22024
G1 X70.566 Y117.992 E2.25095
G1 X70.997 Y118.762 E2.28177
G1 X71.489 Y119.522 E2.31339
G1 X72 Y120.208 E2.34326
G1 X72.588 Y120.888 E2.37466
G1 X73.204 Y121.51 E2.40523
G1 X73.852 Y122.076 E2.43528
G1 X74.562 Y122.61 E2.4663
G1 X75.296 Y123.083 E2.4968
G1 X76.062 Y123.502 E2.52729
G1 X76.845 Y123.862 E2.55739
G1 X77.693 Y124.178 E2.58899
G1 X78.524 Y124.427 E2.61929
G1 X79.38 Y124.621 E2.64994
G1 X80.255 Y124.76 E2.68088
G1 X81.108 Y124.842 E2.71081
G1 X82 Y124.873 E2.74198
G1 X82.954 Y124.848 E2.7753
G1 X83.798 Y124.78 E2.80487
G1 X84.623 Y124.665 E2.83396
G1 X86.341 Y124.303 E2.89528
G1 X88.055 Y123.766 E2.95801
G1 F889.4 X89.662 Y123.176 E3.0185
G1 F840 X89.968 Y123.044 E3.03097
G1 F827.1 X89.766 Y123.05 E3.03865
G1 F875 X89.44 Y123.02 E3.05041
G1 F900 X89.279 Y122.989 E3.05614
G1 X89.064 Y122.923 E3.06399
G1 X88.938 Y122.869 E3.06878
G1 X88.786 Y122.789 E3.07478
G1 X88.681 Y122.722 E3.07913
G1 X88.54 Y122.614 E3.08533
G1 X88.375 Y122.458 E3.09326
G1 X88.234 Y122.278 E3.10125
G1 X88.085 Y122.029 E3.11138
G1 X88.022 Y121.887 E3.1168
G1 X87.05 Y119.217 E3.21604
G1 X86.341 Y119.473 E3.24236
G1 X85.212 Y119.811 E3.28352
G1 X84.19 Y120.018 E3.31993
G1 X83.616 Y120.088 E3.34013
G1 X83.083 Y120.128 E3.3588
G1 X82.43 Y120.138 E3.3816
G1 X81.768 Y120.106 E3.40475
G1 X81.185 Y120.037 E3.42525
G1 X80.606 Y119.934 E3.44579
G1 X80.02 Y119.787 E3.46689
G1 X79.471 Y119.614 E3.48699
G1 X78.971 Y119.422 E3.5057
G1 X78.446 Y119.179 E3.5259
G1 X77.926 Y118.898 E3.54654
G1 X77.388 Y118.551 E3.5689
G1 X76.926 Y118.204 E3.58908
G1 X76.5 Y117.836 E3.60874
G1 X76.071 Y117.412 E3.6298
G1 X75.626 Y116.907 E3.65331
G1 X75.275 Y116.443 E3.67363
G1 X74.944 Y115.949 E3.69439
G1 X74.644 Y115.425 E3.71548
G1 X74.39 Y114.913 E3.73544
G1 X74.176 Y114.406 E3.75466
G1 X73.979 Y113.857 E3.77503
G1 X73.794 Y113.223 E3.79809
G1 X73.662 Y112.638 E3.81904
G1 X73.487 Y111.407 E3.86246
G1 X73.437 Y110.427 E3.89673
G1 X73.436 Y63.429 E5.53805
G1 X73.501 Y62.236 E5.57977
G1 X73.645 Y61.251 E5.61454
G1 X73.796 Y60.569 E5.63893
G1 X73.956 Y60.023 E5.6588
G1 X74.173 Y59.404 E5.68171
G1 X74.405 Y58.854 E5.70255
G1 X74.645 Y58.372 E5.72136
G1 X74.934 Y57.87 E5.74159
G1 X75.265 Y57.368 E5.76259
G1 X75.609 Y56.915 E5.78245
G1 X76.058 Y56.399 E5.80634
G1 X76.41 Y56.047 E5.82372
G1 X76.927 Y55.596 E5.84768
G1 X77.336 Y55.286 E5.86561
G1 X77.843 Y54.954 E5.88677
G1 X78.404 Y54.643 E5.90917
G1 X78.96 Y54.385 E5.93058
G1 X79.497 Y54.178 E5.95068
G1 X80.081 Y53.996 E5.97204
G1 X80.633 Y53.863 E5.99187
G1 X81.166 Y53.766 E6.01079
G1 X81.751 Y53.697 E6.03136
G1 X82.358 Y53.665 E6.05259
G1 X82.955 Y53.668 E6.07344
G1 X83.58 Y53.709 E6.09531
G1 X84.214 Y53.788 E6.11762
G1 X85.262 Y54.001 E6.15497
G1 X86.338 Y54.326 E6.19423
G1 X106.776 Y61.765 E6.95379
G1 X107.179 Y61.921 E6.96889
G1 X107.658 Y62.142 E6.98731
G1 X108.42 Y62.569 E7.01781
G1 X109.2 Y63.114 E7.05104
G1 X109.917 Y63.722 E7.08387
G1 X110.579 Y64.404 E7.11707
G1 X111.163 Y65.131 E7.14963
G1 X111.686 Y65.921 E7.18272
G1 X112.184 Y66.878 E7.2204
G1 X112.522 Y67.723 E7.25218
G1 X112.768 Y68.534 E7.28178
G1 X112.96 Y69.451 E7.3145
G1 X113.067 Y70.387 E7.3474
G1 X113.083 Y71.332 E7.3804
G1 X112.995 Y72.367 E7.41668
G1 X112.841 Y73.181 E7.44561
G1 X112.706 Y73.685 E7.46383
G1 X112.556 Y74.144 E7.4807
G1 X111.469 Y77.132 E7.59174
G1 X114.894 Y81.214 E7.77783
G1 X116.875 Y75.773 E7.98005
G1 X116.969 Y75.491 E7.99043
G1 X117.292 Y74.404 E8.03003
G1 X117.436 Y73.735 E8.05393
G1 X117.549 Y73.036 E8.07866
G1 X117.662 Y71.705 E8.12531
G1 X117.666 Y71.536 E8.13121
G1 X117.642 Y70.257 E8.17589
G1 X117.487 Y68.884 E8.22414
G1 X117.197 Y67.499 E8.27356
G1 X116.786 Y66.169 E8.32217
G1 X116.25 Y64.868 E8.37131
G1 X115.602 Y63.636 E8.41993
G1 X114.857 Y62.487 E8.46775
G1 X113.971 Y61.363 E8.51773
G1 X113.022 Y60.368 E8.56575
G1 X112.002 Y59.482 E8.61293
G1 X110.821 Y58.645 E8.66349
G1 X110.217 Y58.285 E8.68804
G1 X109.612 Y57.966 E8.71193
G1 X109.255 Y57.803 E8.72563
G1 X108.3 Y57.404 E8.76178
G1 X88.037 Y50.03 E9.51483
G1 X86.337 Y49.498 E9.57704
G1 X84.604 Y49.133 E9.63889
G1 X83.724 Y49.018 E9.66988
G1 X82.846 Y48.948 E9.70064
G1 X81.969 Y48.928 E9.73128
G1 X81.081 Y48.961 E9.76231
G1 X80.224 Y49.047 E9.79239
G1 X79.347 Y49.188 E9.82341
G1 X78.48 Y49.386 E9.85447
G1 X77.633 Y49.641 E9.88536
G1 X76.831 Y49.946 E9.91532
G1 X76.013 Y50.324 E9.94679
G1 X75.253 Y50.743 E9.9771
G1 X74.522 Y51.22 E10.00758
G1 X73.821 Y51.749 E10.03825
G1 X73.178 Y52.316 E10.06819
G1 X72.547 Y52.957 E10.09961
G1 X71.981 Y53.616 E10.12994
G1 X71.456 Y54.324 E10.16073
G1 F2400 E9.16073
G1 F240 Z0.6
G0 F6000 X86.443 Y49.091 Z0.6
G1 F240 Z0.2
G1 F2400 E10.16073
G1 F900 X84.674 Y48.718 E10.22386
G1 X83.768 Y48.6 E10.25577
G1 X82.868 Y48.528 E10.2873
G1 X81.966 Y48.508 E10.31881
G1 X81.052 Y48.542 E10.35075
G1 X80.169 Y48.63 E10.38174
G1 X79.267 Y48.776 E10.41365
G1 X78.372 Y48.98 E10.44571
G1 X77.497 Y49.243 E10.47762
G1 X76.668 Y49.559 E10.5086
G1 X75.823 Y49.949 E10.5411
G1 X75.037 Y50.383 E10.57246
G1 X74.28 Y50.876 E10.60401
G1 X73.555 Y51.424 E10.63575
G1 X72.889 Y52.011 E10.66675
G1 X72.238 Y52.672 E10.69915
G1 X71.652 Y53.354 E10.73055
G1 X71.11 Y54.085 E10.76233
G1 X70.616 Y54.854 E10.79425
G1 X70.187 Y55.627 E10.82513
G1 X69.79 Y56.458 E10.85729
G1 X69.451 Y57.297 E10.88889
G1 X69.167 Y58.137 E10.91986
G1 X68.922 Y59.027 E10.9521
G1 X68.73 Y59.901 E10.98335
G1 X68.482 Y61.654 E11.04518
G1 X68.398 Y63.491 E11.1094
G1 X68.398 Y110.325 E12.74499
G1 X68.483 Y112.145 E12.80862
G1 X68.736 Y113.924 E12.87137
G1 X68.93 Y114.805 E12.90287
G1 X69.172 Y115.677 E12.93448
G1 X69.462 Y116.533 E12.96604
G1 X69.802 Y117.369 E12.99756
G1 X70.193 Y118.185 E13.02916
G1 X70.637 Y118.979 E13.06093
G1 X71.144 Y119.762 E13.09351
G1 X71.672 Y120.471 E13.12438
G1 X72.279 Y121.173 E13.15679
G1 X72.916 Y121.817 E13.18842
G1 X73.587 Y122.403 E13.21953
G1 X74.322 Y122.955 E13.25164
G1 X75.081 Y123.445 E13.28319
G1 X75.873 Y123.877 E13.31469
G1 X76.684 Y124.25 E13.34587
G1 X77.559 Y124.577 E13.37849
G1 X78.417 Y124.834 E13.40977
G1 X79.301 Y125.034 E13.44142
G1 X80.202 Y125.177 E13.47328
G1 X81.081 Y125.261 E13.50412
G1 X81.998 Y125.293 E13.53616
G1 X82.91 Y125.272 E13.56802
G1 X83.844 Y125.198 E13.60074
G1 X84.695 Y125.079 E13.63075
G1 X86.447 Y124.71 E13.69328
G1 X88.199 Y124.161 E13.7574
G1 X92.932 Y122.437 E13.93331
G1 X92.192 Y120.409 E14.0087
G1 X92.044 Y120.08 E14.0213
G1 X91.883 Y119.782 E14.03313
G1 X91.674 Y119.465 E14.04639
G1 X91.466 Y119.202 E14.0581
G1 X91.139 Y118.849 E14.07491
G1 F838.1 X91.057 Y118.797 E14.07855
G1 F715.9 X90.917 Y118.669 E14.08687
G1 F667.8 X90.815 Y118.432 E14.09902
G1 F657.4 X90.721 Y118.072 E14.11681
G1 F631.1 X90.707 Y117.961 E14.12238
G1 F621.7 X90.715 Y117.788 E14.13113
G1 X90.775 Y117.51 E14.14551
G1 X90.014 Y117.79 E14.18651
G1 X90.118 Y118.074 E14.2018
G1 F647.3 X90.29 Y118.623 E14.22973
G1 F667.8 X90.4 Y118.909 E14.24416
G1 F762.1 X90.452 Y119.268 E14.25912
G1 F900 X91.024 Y120.844 E14.31767
G1 X91.064 Y120.995 E14.32312
G1 X91.082 Y121.232 E14.33142
G1 X91.075 Y121.376 E14.33646
G1 X91.049 Y121.535 E14.34209
G1 X91.019 Y121.651 E14.34627
G1 X90.972 Y121.779 E14.35103
G1 X90.866 Y121.982 E14.35903
G1 X90.8 Y122.078 E14.3631
G1 X90.717 Y122.176 E14.36758
G1 X90.579 Y122.306 E14.3742
G1 X90.365 Y122.452 E14.38325
G1 X90.145 Y122.55 E14.39166
G1 X89.885 Y122.607 E14.40096
G1 F902.1 X89.639 Y122.617 E14.40954
G1 X89.519 Y122.607 E14.41373
G1 F900 X89.358 Y122.577 E14.41945
G1 X89.229 Y122.537 E14.42417
G1 X89.012 Y122.435 E14.43254
G1 X88.823 Y122.303 E14.44059
G1 X88.684 Y122.174 E14.44721
G1 X88.519 Y121.947 E14.45701
G1 X88.416 Y121.744 E14.46496
G1 X87.301 Y118.678 E14.5789
G1 X86.252 Y119.061 E14.6179
G1 X85.127 Y119.4 E14.65893
G1 X84.138 Y119.601 E14.69418
G1 X83.585 Y119.669 E14.71364
G1 X83.052 Y119.709 E14.7323
G1 X82.449 Y119.718 E14.75336
G1 X81.86 Y119.692 E14.77395
G1 X81.257 Y119.623 E14.79515
G1 X80.707 Y119.526 E14.81465
G1 X80.181 Y119.396 E14.83358
G1 X79.621 Y119.222 E14.85405
G1 X79.122 Y119.03 E14.87273
G1 X78.624 Y118.798 E14.89191
G1 X78.093 Y118.51 E14.91301
G1 X77.628 Y118.206 E14.93241
G1 X77.184 Y117.873 E14.95179
G1 X76.745 Y117.49 E14.97214
G1 X76.339 Y117.084 E14.99219
G1 X75.96 Y116.652 E15.01226
G1 X75.623 Y116.208 E15.03173
G1 X75.308 Y115.739 E15.05146
G1 X75.02 Y115.238 E15.07164
G1 X74.777 Y114.749 E15.09071
G1 X74.571 Y114.263 E15.10914
G1 X74.382 Y113.738 E15.12863
G1 X74.213 Y113.165 E15.14949
G1 X74.078 Y112.577 E15.17056
G1 X73.906 Y111.386 E15.21259
G1 X73.857 Y110.408 E15.24678
G1 X73.856 Y63.445 E16.88688
G1 X73.917 Y62.296 E16.92706
G1 X74.061 Y61.311 E16.96183
G1 X74.2 Y60.686 E16.98419
G1 X74.342 Y60.194 E17.00207
G1 X74.547 Y59.601 E17.02398
G1 X74.781 Y59.042 E17.04515
G1 X75.021 Y58.56 E17.06395
G1 X75.318 Y58.047 E17.08465
G1 X75.615 Y57.601 E17.10337
G1 X75.968 Y57.139 E17.12367
G1 X76.325 Y56.728 E17.14268
G1 X76.707 Y56.344 E17.1616
G1 X77.181 Y55.931 E17.18356
G1 X77.608 Y55.608 E17.20225
G1 X78.097 Y55.292 E17.22259
G1 X78.582 Y55.024 E17.24194
G1 X79.113 Y54.777 E17.26239
G1 X79.623 Y54.578 E17.28151
G1 X80.181 Y54.404 E17.30192
G1 X80.672 Y54.284 E17.31957
G1 X81.283 Y54.174 E17.34125
G1 X81.839 Y54.111 E17.3608
G1 X82.379 Y54.084 E17.37968
G1 X82.928 Y54.087 E17.39885
G1 X83.531 Y54.127 E17.41996
G1 X84.13 Y54.2 E17.44103
G1 X85.238 Y54.428 E17.48054
G1 X86.212 Y54.727 E17.51612
G1 X106.624 Y62.157 E18.27473
G1 X107.017 Y62.309 E18.28944
G1 X107.462 Y62.514 E18.30655
G1 X108.259 Y62.964 E18.33852
G1 X108.953 Y63.453 E18.36816
G1 X109.646 Y64.045 E18.39999
G1 X110.279 Y64.699 E18.43178
G1 X110.865 Y65.436 E18.46466
G1 X111.334 Y66.15 E18.4945
G1 X111.779 Y67.003 E18.5281
G1 X112.12 Y67.845 E18.55982
G1 X112.376 Y68.692 E18.59072
G1 X112.557 Y69.592 E18.62278
G1 X112.649 Y70.433 E18.65233
G1 X112.663 Y71.337 E18.6839
G1 X112.579 Y72.308 E18.71794
G1 X112.43 Y73.092 E18.74581
G1 X112.303 Y73.565 E18.76291
G1 X112.151 Y74.027 E18.7799
G1 X110.991 Y77.216 E18.89841
G1 X115.04 Y82.042 E19.11841
G1 X117.283 Y75.876 E19.34755
G1 X117.382 Y75.576 E19.35858
G1 X117.699 Y74.508 E19.39749
G1 X117.849 Y73.813 E19.42232
G1 X117.967 Y73.087 E19.44801
G1 X118.082 Y71.729 E19.4956
G1 X118.086 Y71.529 E19.50259
G1 X118.062 Y70.23 E19.54796
G1 X117.902 Y68.817 E19.59762
G1 X117.604 Y67.394 E19.6484
G1 X117.182 Y66.027 E19.69836
G1 X116.631 Y64.69 E19.74886
G1 X115.965 Y63.423 E19.79885
G1 X115.199 Y62.242 E19.84801
G1 X114.288 Y61.087 E19.89938
G1 X113.312 Y60.064 E19.94876
G1 X112.268 Y59.157 E19.99706
G1 X111.05 Y58.292 E20.04923
G1 X110.423 Y57.918 E20.07473
G1 X109.797 Y57.588 E20.09944
G1 X109.423 Y57.418 E20.11379
G1 X108.453 Y57.013 E20.1505
G1 X88.172 Y49.632 E20.90422
G1 X86.443 Y49.091 E20.96749
G1 F2400 E19.96749
G1 F240 Z0.6
G0 F6000 X107.817 Y107.447 Z0.6
G1 F240 Z0.2
G1 F2400 E20.96749
G1 F900 X107.877 Y107.654 E20.97501
G1 X107.912 Y107.849 E20.98193
G1 X107.927 Y108.102 E20.99078
G1 X107.917 Y108.26 E20.99631
G1 F881.1 X107.854 Y108.606 E21.00886
G1 F847.5 X107.8 Y108.774 E21.0154
G1 F865 X108.193 Y108.189 E21.04101
G1 F900 X121.137 Y87.89 E21.88178
G1 X118.682 Y83.168 E22.06764
G1 X104.728 Y105.037 E22.97361
G1 X107.124 Y106.565 E23.07285
G1 X107.339 Y106.733 E23.08238
G1 X107.471 Y106.867 E23.08895
G1 X107.629 Y107.072 E23.09798
G1 X107.77 Y107.328 E23.10819
G1 X107.817 Y107.447 E23.11266
G1 F2400 E22.11266
G1 F240 Z0.6
G0 F6000 X102.256 Y108.305 Z0.6
G1 F240 Z0.2
G1 F2400 E23.11266
G1 F622.7 X102.52 Y108.306 E23.12598
G1 X102.708 Y108.335 E23.13559
G1 F641.8 X102.919 Y108.42 E23.14673
G1 F667.8 X103.118 Y108.526 E23.15734
G1 F665.5 X103.387 Y108.723 E23.17309
G1 F677.4 X103.442 Y108.807 E23.17774
G1 F739.7 X103.483 Y108.901 E23.1821
G1 F838.1 X103.822 Y109.429 E23.20563
G1 F900 X104.064 Y109.709 E23.21856
G1 X104.307 Y109.948 E23.23046
G1 X104.463 Y110.081 E23.23762
G1 X104.729 Y110.284 E23.2493
G1 X106.594 Y111.476 E23.3266
G1 X121.622 Y87.911 E24.30267
G1 X118.719 Y82.329 E24.5224
G1 X104.148 Y105.165 E25.46842
G1 X106.898 Y106.919 E25.58233
G1 X107.068 Y107.055 E25.58993
G1 X107.147 Y107.135 E25.59386
G1 X107.273 Y107.295 E25.60097
G1 X107.38 Y107.485 E25.60859
G1 X107.428 Y107.604 E25.61307
G1 X107.464 Y107.728 E25.61758
G1 X107.499 Y107.923 E25.6245
G1 X107.507 Y108.076 E25.62985
G1 X107.497 Y108.233 E25.63534
G1 X107.476 Y108.361 E25.63987
G1 X107.404 Y108.59 E25.64826
G1 X107.311 Y108.78 E25.65564
G1 X107.124 Y109.023 E25.66635
G1 X106.966 Y109.163 E25.67372
G1 X106.865 Y109.233 E25.67802
G1 X106.664 Y109.337 E25.68592
G1 X106.453 Y109.406 E25.69367
G1 X106.268 Y109.439 E25.70023
G1 X106.03 Y109.44 E25.70855
G1 X105.877 Y109.422 E25.71393
G1 X105.599 Y109.34 E25.72405
G1 X105.413 Y109.246 E25.73133
G1 X104.509 Y108.671 E25.76874
G1 F838.1 X103.986 Y108.373 E25.79132
G1 F713.2 X103.75 Y108.28 E25.80249
G1 F665.5 X103.418 Y108.055 E25.82144
G1 F648.4 X102.948 Y107.786 E25.84769
G1 F622.7 X102.692 Y107.622 E25.86303
G1 X102.256 Y108.305 E25.90393
G1 F2400 E24.90393
G1 F240 Z0.6
G0 F6000 X105.418 Y109.722 Z0.6
G1 F240 Z0.2
G1 F2400 E25.90393
G1 F906.5 X105.189 Y109.596 E25.91299
G1 F947.4 X104.816 Y109.345 E25.92791
G1 F974.2 X103.79 Y108.69 E25.96718
G1 X104.143 Y109.183 E25.98674
G1 X104.358 Y109.432 E25.99736
G1 X104.585 Y109.654 E26.0076
G1 F945 X104.974 Y109.947 E26.0238
G1 F904.3 X105.214 Y110.091 E26.03353
G1 F895.7 X106.466 Y110.895 E26.08574
G1 F900 X107.203 Y109.741 E26.13356
G1 F859.1 X107.449 Y109.32 E26.1514
G1 F845.6 X107.244 Y109.488 E26.16125
G1 F885.2 X106.959 Y109.661 E26.17308
G1 F900 X106.809 Y109.732 E26.17888
G1 X106.538 Y109.818 E26.18881
G1 X106.301 Y109.858 E26.1972
G1 X106.03 Y109.86 E26.20667
G1 X105.775 Y109.829 E26.21564
G1 X105.615 Y109.79 E26.22139
G1 F895.7 X105.418 Y109.722 E26.2287
G1 F2400 E25.2287
G1 F240 Z0.6
G0 F6000 X107.449 Y109.32 Z0.6
G1 F240 Z0.2
G1 F2400 E26.2287
G1 F855.2 X107.668 Y109.007 E26.24274
G1 F861 X107.8 Y108.774 E26.25252
G1 F2400 E25.25252
G1 F240 Z0.6
G0 F6000 X103.812 Y114.286 Z0.6
G1 F240 Z0.2
G1 F2400 E26.25252
G1 F900 X103.725 Y114.565 E26.26272
G1 F895.7 X103.609 Y114.803 E26.27201
G1 X104.374 Y113.961 E26.31193
G1 F900 X104.921 Y113.262 E26.34293
G1 X105.106 Y112.999 E26.35416
G1 X103.668 Y112.084 E26.41368
G1 X103.372 Y111.924 E26.42543
