;FLAVOR:Marlin
;TIME:832
;Filament used: 0.544517m
;Layer height: 0.2
;MINX:71.718
;MINY:63.889
;MINZ:0.2
;MAXX:108.29
;MAXY:116.081
;MAXZ:12
;TARGET_MACHINE.NAME:Kingroon KP3S
;Generated with Cura_SteamEngine 5.6.0
M140 S60
M104 S220
M190 S60
M109 S220
M82 ;absolute extrusion mode
G28 ; home all axes
G90
 M117 Purge extruder
 G92 E0 ; reset extruder
 G1 Z1.0 F3000 ; move z up little to prevent scratching of surface
 G1 X2 Y20 Z0.3 F5000.0 ; move to start-line position
 G1 X2 Y175.0 Z0.3 F1500.0 E15 ; draw 1st line
 G1 X2 Y175.0 Z0.4 F5000.0 ; move to side a little
 G1 X2 Y20 Z0.4 F1500.0 E30 ; draw 2nd line
 G92 E0 ; reset extruder
 G1 Z1.0 F3000 ; move z up little to prevent scratching of surface
G92 E0
G92 E0
G1 F2400 E-4
;LAYER_COUNT:60
;LAYER:0
M107
G1 F240 Z0.6
;MESH:climbing.stl
G0 F6000 X75.294 Y80.547 Z0.6
;TYPE:WALL-INNER
G1 F240 Z0.2
G1 F2400 E0
G1 F997.5 X75.42 Y80.523 E0.00423
G1 F2400 E-3.99577
G1 F240 Z0.6
G0 F6000 X93.638 Y115.622 Z0.6
G1 F240 Z0.2
G1 F2400 E0.00423
G1 F900 X94.034 Y115.641 E0.01874
G1 X94.417 Y115.633 E0.03275
G1 X94.761 Y115.602 E0.04539
G1 X95.149 Y115.542 E0.05976
G1 X95.515 Y115.46 E0.07348
G1 X95.89 Y115.347 E0.08781
G1 X96.245 Y115.214 E0.10168
G1 X96.591 Y115.058 E0.11556
G1 X96.956 Y114.86 E0.13075
G1 X97.268 Y114.662 E0.14427
G1 X97.598 Y114.417 E0.15931
G1 X97.9 Y114.161 E0.1738
G1 X98.075 Y113.99 E0.18275
G1 X98.088 Y113.99 E0.18322
G1 X98.437 Y113.597 E0.20245
G1 X98.684 Y113.273 E0.21736
G1 X98.898 Y112.952 E0.23147
G1 X99.082 Y112.627 E0.24514
G1 X99.251 Y112.276 E0.25939
G1 X99.388 Y111.935 E0.27283
G1 X99.507 Y111.572 E0.28681
G1 X99.603 Y111.198 E0.30094
G1 X99.67 Y110.829 E0.31466
G1 X99.714 Y110.44 E0.32898
G1 X99.731 Y110.041 E0.34359
G1 X99.72 Y109.65 E0.3579
G1 X99.685 Y109.281 E0.37146
G1 X99.619 Y108.884 E0.38619
G1 X99.527 Y108.498 E0.40071
G1 X99.411 Y108.131 E0.41479
G1 X99.263 Y107.755 E0.42957
G1 X99.099 Y107.408 E0.44361
G1 X98.916 Y107.081 E0.45732
G1 X98.685 Y106.731 E0.47267
G1 X98.471 Y106.452 E0.48553
G1 X97.866 Y105.792 E0.51829
G1 X97.761 Y105.61 E0.52597
G1 X97.708 Y105.454 E0.532
G1 X97.696 Y105.371 E0.53507
G1 X97.705 Y105.117 E0.54437
G1 X97.73 Y105 E0.54875
G1 X97.803 Y104.843 E0.55508
G1 X97.996 Y104.614 E0.56604
G1 X98.111 Y104.528 E0.57129
G1 X98.196 Y104.486 E0.57476
G1 F902.1 X98.297 Y104.455 E0.57862
G1 X98.522 Y104.412 E0.58698
G1 F900 X98.62 Y104.412 E0.59056
G1 X99.324 Y104.468 E0.6164
G1 X100.3 Y104.59 E0.65239
G1 X101.176 Y104.738 E0.68489
G1 X101.939 Y104.911 E0.71352
G1 X102.795 Y105.153 E0.74606
G1 X103.279 Y105.328 E0.76489
G1 X103.291 Y105.319 E0.76544
G1 X103.393 Y105.346 E0.7693
G1 X104.44 Y105.814 E0.81126
G1 X105.14 Y106.203 E0.84056
G1 X105.235 Y106.268 E0.84477
G1 X105.319 Y106.343 E0.84889
G1 X105.431 Y106.479 E0.85533
G1 X105.469 Y106.55 E0.85828
G1 X105.537 Y106.742 E0.86573
G1 X105.57 Y106.95 E0.87344
G1 X105.57 Y113.521 E1.11385
G1 X106.715 Y113.515 E1.15574
G1 X107.85 Y113.521 E1.19726
G1 X107.85 Y105.401 E1.49434
G1 X107.632 Y105.227 E1.50455
G1 X107.094 Y104.844 E1.52871
G1 X106.549 Y104.494 E1.55241
G1 X105.951 Y104.15 E1.57765
G1 X105.248 Y103.783 E1.60666
G1 X105.242 Y103.788 E1.60695
G1 X104.809 Y103.59 E1.62437
G1 X104.208 Y103.338 E1.64821
G1 X103.558 Y103.099 E1.67355
G1 X102.925 Y102.891 E1.69792
G1 X102.284 Y102.706 E1.72233
G1 X101.651 Y102.547 E1.74621
G1 X101.002 Y102.403 E1.77053
G1 X100.354 Y102.28 E1.79466
G1 X99.651 Y102.168 E1.82071
G1 X98.89 Y102.07 E1.84878
G1 F902.1 X98.214 Y101.998 E1.8736
G1 X98.111 Y101.973 E1.87747
G1 F900 X97.896 Y101.874 E1.88612
G1 X97.747 Y101.772 E1.89273
G1 X97.665 Y101.683 E1.89716
G1 X97.604 Y101.587 E1.90132
G1 X97.507 Y101.363 E1.91025
G1 X97.487 Y101.282 E1.9133
G1 X96.168 Y89.075 E2.36251
G1 X95.288 Y64.417 E3.26523
G1 X91.957 Y65.052 E3.38929
G1 X91.715 Y84.606 E4.10475
G1 X91.675 Y84.775 E4.1111
G1 X91.603 Y84.946 E4.11789
G1 X91.495 Y85.081 E4.12422
G1 X91.32 Y85.238 E4.13282
G1 X91.23 Y85.289 E4.1366
G1 X81.818 Y89.75 E4.51767
G1 X81.723 Y89.786 E4.52139
G1 X81.503 Y89.825 E4.52956
G1 X81.281 Y89.818 E4.53769
G1 X81.09 Y89.747 E4.54514
G1 X80.947 Y89.666 E4.55116
G1 X80.811 Y89.552 E4.55765
G1 X80.704 Y89.391 E4.56472
G1 X80.616 Y89.188 E4.57282
G1 X80.593 Y89.076 E4.577
G1 X79.411 Y79.035 E4.9469
G1 X75.189 Y80.147 E5.10663
G1 F758.6 X74.786 Y80.336 E5.12595
G1 F687.5 X73.996 Y80.515 E5.16475
G1 F764.5 X73.206 Y80.694 E5.19964
G1 F860.9 X72.416 Y80.873 E5.23062
G1 F918.8 X72.222 Y80.925 E5.23782
G1 X72.297 Y81.32 E5.25223
G1 F860.9 X73.163 Y81.19 E5.28572
G1 F764.5 X74.029 Y81.059 E5.32345
G1 F687.5 X74.896 Y80.929 E5.36544
G1 F758.6 X75.342 Y80.958 E5.38484
G1 F900 X75.469 Y80.943 E5.38951
G1 X75.772 Y80.978 E5.40067
G1 X75.943 Y81.04 E5.40733
G1 X76.188 Y81.198 E5.41799
G1 X76.32 Y81.391 E5.42655
G1 X76.402 Y81.588 E5.43436
G1 X76.424 Y81.697 E5.43842
G1 X77.913 Y94.337 E5.90407
G1 X85.189 Y92.18 E6.18172
G1 X85.356 Y92.153 E6.18791
G1 X85.454 Y92.15 E6.1915
G1 X85.641 Y92.17 E6.19838
G1 X85.798 Y92.234 E6.20458
G1 X85.905 Y92.294 E6.20907
G1 X86.032 Y92.386 E6.21481
G1 X86.121 Y92.488 E6.21976
G1 X86.179 Y92.587 E6.22396
G1 X86.27 Y92.798 E6.23237
G1 X86.291 Y92.908 E6.23646
G1 X87.322 Y102.095 E6.57469
G1 X87.325 Y102.187 E6.57806
G1 X87.31 Y102.311 E6.58263
G1 X87.258 Y102.517 E6.5904
G1 X87.205 Y102.628 E6.5949
G1 X86.495 Y103.823 E6.64576
G1 X85.826 Y105.022 E6.69599
G1 X85.19 Y106.249 E6.74655
G1 X84.595 Y107.476 E6.79644
G1 X84.044 Y108.703 E6.84565
G1 X83.5 Y110.011 E6.89748
G1 X83.021 Y111.268 E6.9467
G1 X82.399 Y113.124 E7.01831
G1 X84.785 Y113.125 E7.10561
G1 X84.917 Y112.728 E7.12091
G1 X85.277 Y111.729 E7.15976
G1 X85.675 Y110.707 E7.19989
G1 X85.944 Y110.06 E7.22553
G1 X85.935 Y110.049 E7.22605
G1 X85.984 Y109.916 E7.23123
G1 X86.108 Y109.666 E7.24144
G1 X86.5 Y108.786 E7.27669
G1 X86.97 Y107.792 E7.31691
G1 X87.446 Y106.837 E7.35595
G1 X87.55 Y106.69 E7.36254
G1 X87.686 Y106.552 E7.36963
G1 X87.937 Y106.424 E7.37994
G1 X88.152 Y106.376 E7.388
G1 X88.439 Y106.409 E7.39857
G1 X88.565 Y106.454 E7.40346
G1 X88.676 Y106.507 E7.40796
G1 X88.76 Y106.566 E7.41172
G1 X88.871 Y106.685 E7.41767
G1 X89.011 Y106.911 E7.4274
G1 X89.059 Y107.071 E7.43351
G1 X89.067 Y107.154 E7.43656
G1 X89.052 Y107.39 E7.44521
G1 X89.012 Y107.549 E7.45121
G1 X88.837 Y107.961 E7.46759
G1 X88.708 Y108.327 E7.48179
G1 X88.611 Y108.68 E7.49518
G1 X88.532 Y109.063 E7.50949
G1 X88.479 Y109.462 E7.52421
G1 X88.455 Y109.865 E7.53898
G1 X88.458 Y110.236 E7.55256
G1 X88.49 Y110.642 E7.56746
G1 X88.545 Y111.024 E7.58158
G1 X88.628 Y111.401 E7.5957
G1 X88.742 Y111.781 E7.61022
G1 X88.884 Y112.163 E7.62513
G1 X89.035 Y112.499 E7.6386
G1 X89.211 Y112.825 E7.65216
G1 X89.415 Y113.153 E7.66629
G1 X89.635 Y113.455 E7.67996
G1 X89.877 Y113.748 E7.69386
G1 X90.133 Y114.019 E7.7075
G1 X90.424 Y114.286 E7.72195
G1 X90.738 Y114.537 E7.73666
G1 X91.048 Y114.749 E7.7504
G1 X91.386 Y114.949 E7.76477
G1 X91.752 Y115.132 E7.77974
G1 X92.115 Y115.283 E7.79412
G1 X92.656 Y115.466 E7.81502
G1 X92.67 Y115.455 E7.81567
G1 X92.882 Y115.51 E7.82368
G1 X93.241 Y115.577 E7.83704
G1 X93.638 Y115.622 E7.85166
G0 F6000 X93.709 Y114.744
G1 F900 X94.046 Y114.761 E7.864
G1 X94.368 Y114.754 E7.87579
G1 X94.654 Y114.728 E7.8863
G1 X94.985 Y114.677 E7.89855
G1 X95.291 Y114.608 E7.91002
G1 X95.608 Y114.512 E7.92214
G1 X95.91 Y114.4 E7.93393
G1 X96.2 Y114.269 E7.94557
G1 X96.51 Y114.101 E7.95847
G1 X96.769 Y113.936 E7.9697
G1 X97.051 Y113.727 E7.98255
G1 X97.306 Y113.511 E7.99477
G1 X97.459 Y113.361 E8.00261
G1 X97.47 Y113.361 E8.00301
G1 X97.757 Y113.037 E8.01885
G1 X97.968 Y112.761 E8.03156
G1 X98.148 Y112.491 E8.04343
G1 X98.302 Y112.219 E8.05487
G1 X98.445 Y111.922 E8.06693
G1 X98.561 Y111.634 E8.07829
G1 X98.662 Y111.326 E8.09015
G1 X98.743 Y111.01 E8.10208
G1 X98.799 Y110.701 E8.11357
G1 X98.836 Y110.372 E8.12568
G1 X98.851 Y110.035 E8.13803
G1 X98.842 Y109.705 E8.1501
G1 X98.812 Y109.395 E8.1615
G1 X98.756 Y109.058 E8.174
G1 X98.678 Y108.733 E8.18623
G1 X98.581 Y108.425 E8.19804
G1 X98.455 Y108.105 E8.21062
G1 X98.316 Y107.812 E8.22249
G1 X98.163 Y107.539 E8.23394
G1 X97.968 Y107.242 E8.24694
G1 X97.798 Y107.02 E8.25717
G1 X97.27 Y106.45 E8.28559
G1 X97.154 Y106.31 E8.29224
G1 X97.046 Y106.137 E8.29971
G1 X96.971 Y105.996 E8.30555
G1 X96.898 Y105.821 E8.31249
G1 X96.846 Y105.632 E8.31966
G1 X96.819 Y105.437 E8.32686
G1 X96.816 Y105.245 E8.33388
G1 X96.832 Y105.01 E8.3425
G1 X96.855 Y104.87 E8.34769
G1 X96.938 Y104.606 E8.35782
G1 X97.06 Y104.372 E8.36747
G1 X97.185 Y104.201 E8.37522
G1 X97.398 Y103.967 E8.3868
G1 X97.583 Y103.822 E8.3954
G1 X97.667 Y103.768 E8.39905
G1 X97.866 Y103.67 E8.40717
G1 F811.5 X98.46 Y103.486 E8.4324
G1 F751.4 X98.693 Y103.496 E8.44262
G1 F778 X99.466 Y103.567 E8.47547
G1 F808.2 X100.449 Y103.702 E8.5159
G1 F842.6 X101.373 Y103.869 E8.5526
G1 F872.2 X102.135 Y104.048 E8.58215
G1 F898 X103.069 Y104.318 E8.6178
G1 F912.4 X103.46 Y104.458 E8.63278
G1 F925.2 X103.695 Y104.527 E8.6415
G1 F934 X104.844 Y105.039 E8.68585
G1 F923.1 X105.579 Y105.443 E8.71577
G1 F906.2 X105.803 Y105.59 E8.7255
G1 F878 X105.924 Y105.688 E8.73134
G1 F798.4 X106.219 Y105.989 E8.74872
G1 F704.6 X106.334 Y106.148 E8.75789
G1 F709.7 X106.413 Y106.452 E8.77247
G1 F787.3 X106.47 Y106.95 E8.79343
G1 F825 X106.47 Y112.616 E9.01957
G1 X106.95 Y112.616 E9.03873
G1 X106.95 Y106.95 E9.26487
G1 F787.3 X106.927 Y106.37 E9.28915
G1 F709.7 X106.896 Y106.024 E9.30527
G1 F672.3 X106.896 Y105.873 E9.31267
G1 X106.772 Y105.785 E9.32011
G1 F704.6 X106.602 Y105.631 E9.33083
G1 F798.4 X106.203 Y105.328 E9.35149
G1 F891.9 X105.795 Y105.069 E9.36934
G1 F920.9 X104.932 Y104.606 E9.40435
G1 X104.471 Y104.397 E9.42245
G1 F929.6 X103.841 Y104.132 E9.44666
G1 F923.1 X103.284 Y103.933 E9.46776
G1 F898 X102.677 Y103.739 E9.49113
G1 F880 X102.067 Y103.566 E9.51485
G1 F866.5 X101.457 Y103.416 E9.53872
G1 F844.3 X100.834 Y103.286 E9.56354
G1 F819.9 X100.21 Y103.173 E9.58901
G1 F800 X99.517 Y103.069 E9.61785
G1 F764.5 X98.47 Y102.954 E9.66322
G1 F792 X98.154 Y102.888 E9.67664
G1 F876.1 X97.837 Y102.809 E9.68892
G1 F900 X97.632 Y102.725 E9.69702
G1 X97.505 Y102.662 E9.70221
G1 X97.304 Y102.542 E9.71078
G1 X97.105 Y102.377 E9.72023
G1 X96.966 Y102.217 E9.72799
G1 X96.879 Y102.092 E9.73356
G1 X96.786 Y101.917 E9.74081
G1 X96.694 Y101.704 E9.7493
G1 X96.63 Y101.481 E9.75779
G1 X96.606 Y101.333 E9.76327
G1 X95.285 Y89.059 E10.21492
G1 X94.445 Y65.473 E11.07839
G1 X92.828 Y65.781 E11.13862
G1 X92.6 Y84.534 E11.82477
G1 X92.587 Y84.726 E11.83181
G1 X92.526 Y84.999 E11.84204
G1 X92.358 Y85.4 E11.85795
G1 X92.107 Y85.714 E11.87266
G1 X92.018 Y85.8 E11.87718
G1 X91.816 Y85.965 E11.88673
G1 X91.607 Y86.084 E11.89552
G1 X82.195 Y90.546 E12.27661
G1 X81.974 Y90.63 E12.28526
G1 X81.747 Y90.68 E12.29376
G1 X81.623 Y90.697 E12.29834
G1 X81.108 Y90.68 E12.31719
G1 X80.661 Y90.515 E12.33463
G1 X80.475 Y90.409 E12.34246
G1 X80.159 Y90.143 E12.35757
G1 X79.908 Y89.767 E12.37411
G1 X79.856 Y89.657 E12.37856
G1 X79.773 Y89.44 E12.38706
G1 X79.719 Y89.179 E12.39681
G1 X78.655 Y80.144 E12.72965
G1 X76.843 Y80.621 E12.79821
G1 X77.124 Y81.031 E12.81639
G1 X77.247 Y81.339 E12.82853
G1 X77.298 Y81.594 E12.83804
G1 X78.665 Y93.196 E13.26545
G1 X84.939 Y91.336 E13.50487
G1 X85.329 Y91.273 E13.51932
G1 X85.427 Y91.27 E13.52291
G1 X85.861 Y91.318 E13.53888
G1 X86.229 Y91.466 E13.55339
G1 X86.336 Y91.526 E13.55788
G1 X86.631 Y91.741 E13.57124
G1 X86.839 Y91.978 E13.58277
G1 X86.975 Y92.211 E13.59264
G1 X87.091 Y92.477 E13.60326
G1 X87.138 Y92.64 E13.60947
G1 X87.166 Y92.81 E13.61577
G1 X88.202 Y102.064 E13.95645
G1 X88.205 Y102.215 E13.96198
G1 X88.184 Y102.427 E13.96977
G1 X88.14 Y102.628 E13.9773
G1 X88.085 Y102.818 E13.98454
G1 X87.961 Y103.078 E13.99508
G1 X87.253 Y104.271 E14.04583
G1 F887.9 X86.604 Y105.447 E14.09564
G1 F821.6 X86.468 Y105.772 E14.10976
G1 F801.6 X86.225 Y106.202 E14.13005
G1 F826.7 X86 Y106.642 E14.14974
G1 F823.3 X85.41 Y107.86 E14.20386
G1 F833.7 X84.707 Y109.433 E14.27191
G1 X84.341 Y110.331 E14.31022
G1 F826.7 X83.867 Y111.576 E14.36327
G1 F830.2 X83.646 Y112.227 E14.39054
G1 F833.7 X84.144 Y112.227 E14.41021
G1 F831.9 X84.44 Y111.404 E14.44483
G1 F828.5 X84.788 Y110.503 E14.48322
G1 F826.7 X85.063 Y109.829 E14.51221
G1 F835.4 X85.14 Y109.613 E14.52125
G1 X85.679 Y108.42 E14.57285
G1 F828.5 X86.151 Y107.421 E14.61676
G1 X86.648 Y106.422 E14.66111
G1 F801.6 X86.881 Y106.065 E14.67862
G1 F821.6 X87.124 Y105.868 E14.69116
G1 F887.9 X87.713 Y105.573 E14.71559
G1 F900 X87.827 Y105.543 E14.7199
G1 X88.062 Y105.5 E14.72864
G1 X88.73 Y105.579 E14.75325
G1 X88.868 Y105.628 E14.75861
G1 X89.127 Y105.751 E14.7691
G1 X89.291 Y105.864 E14.77638
G1 X89.487 Y106.048 E14.78622
G1 X89.583 Y106.168 E14.79184
G1 X89.748 Y106.422 E14.80292
G1 X89.815 Y106.554 E14.80834
G1 X89.882 Y106.734 E14.81537
G1 X89.927 Y106.925 E14.82255
G1 X89.946 Y107.12 E14.82971
G1 X89.942 Y107.31 E14.83667
G1 X89.926 Y107.495 E14.84346
G1 X89.888 Y107.695 E14.85091
G1 X89.832 Y107.868 E14.85756
G1 X89.659 Y108.281 E14.87394
G1 X89.549 Y108.589 E14.88591
G1 X89.467 Y108.886 E14.89718
G1 X89.4 Y109.21 E14.90929
G1 X89.356 Y109.546 E14.92168
G1 X89.335 Y109.887 E14.93418
G1 X89.338 Y110.197 E14.94553
G1 X89.365 Y110.544 E14.95826
G1 X89.412 Y110.867 E14.9702
G1 X89.48 Y111.181 E14.98196
G1 X89.576 Y111.501 E14.99418
G1 X89.699 Y111.828 E15.00696
G1 X89.825 Y112.11 E15.01826
G1 X89.972 Y112.384 E15.02964
G1 X90.145 Y112.661 E15.04159
G1 X90.331 Y112.915 E15.0531
G1 X90.537 Y113.165 E15.06496
G1 X90.751 Y113.392 E15.07637
G1 X90.996 Y113.617 E15.08854
G1 X91.262 Y113.829 E15.10098
G1 X91.522 Y114.006 E15.11249
G1 X91.808 Y114.176 E15.12466
G1 X92.118 Y114.331 E15.13734
G1 X92.426 Y114.459 E15.14955
G1 X92.876 Y114.611 E15.16693
G1 X92.888 Y114.602 E15.16747
G1 X93.074 Y114.65 E15.1745
G1 X93.372 Y114.706 E15.1856
G1 X93.709 Y114.744 E15.198
G0 F6000 X93.674 Y115.183
G1 F900 X94.04 Y115.201 E15.21141
G1 X94.393 Y115.194 E15.22433
G1 X94.708 Y115.165 E15.2359
G1 X95.067 Y115.109 E15.24919
G1 X95.403 Y115.034 E15.26179
G1 X95.749 Y114.93 E15.27501
G1 X96.077 Y114.807 E15.28782
G1 X96.396 Y114.663 E15.30063
G1 X96.733 Y114.481 E15.31464
G1 X97.018 Y114.299 E15.32701
G1 X97.324 Y114.072 E15.34095
G1 X97.603 Y113.836 E15.35432
G1 X97.767 Y113.675 E15.36273
G1 X97.779 Y113.675 E15.36317
G1 X98.097 Y113.317 E15.38069
G1 X98.326 Y113.017 E15.3945
G1 X98.523 Y112.722 E15.40748
G1 X98.692 Y112.423 E15.42004
G1 X98.848 Y112.099 E15.4332
G1 X98.974 Y111.785 E15.44558
G1 X99.085 Y111.449 E15.45852
G1 X99.173 Y111.104 E15.47155
G1 X99.235 Y110.765 E15.48416
G1 X99.275 Y110.406 E15.49737
G1 X99.291 Y110.038 E15.51085
G1 X99.281 Y109.677 E15.52406
G1 X99.248 Y109.338 E15.53652
G1 X99.187 Y108.971 E15.55013
G1 X99.103 Y108.615 E15.56352
G1 X98.996 Y108.278 E15.57645
G1 X98.859 Y107.93 E15.59014
G1 X98.707 Y107.61 E15.6031
G1 X98.54 Y107.31 E15.61566
G1 X98.327 Y106.987 E15.62981
G1 X98.135 Y106.736 E15.64138
G1 X97.592 Y106.151 E15.67058
G1 X97.51 Y106.051 E15.67531
G1 X97.366 Y105.803 E15.6858
G1 X97.314 Y105.678 E15.69075
G1 X97.277 Y105.543 E15.69588
G1 X97.258 Y105.404 E15.70101
G1 X97.256 Y105.266 E15.70606
G1 X97.269 Y105.063 E15.7135
G1 X97.285 Y104.963 E15.71721
G1 X97.322 Y104.832 E15.72219
G1 X97.378 Y104.702 E15.72736
G1 X97.431 Y104.607 E15.73134
G1 X97.521 Y104.485 E15.73689
G1 X97.697 Y104.29 E15.7465
G1 X97.889 Y104.148 E15.75524
G1 X98.031 Y104.078 E15.76103
G1 F902.1 X98.199 Y104.026 E15.76745
G1 X98.492 Y103.973 E15.77832
G1 F900 X98.655 Y103.973 E15.78428
G1 X99.408 Y104.034 E15.81192
G1 X100.327 Y104.149 E15.84581
G1 X101.273 Y104.308 E15.8809
