;FLAVOR:Marlin
;TIME:1577
;Filament used: 1.26958m
;Layer height: 0.2
;MINX:61.593
;MINY:60.763
;MINZ:0.2
;MAXX:81.193
;MAXY:80.363
;MAXZ:20
;TARGET_MACHINE.NAME:Creality Ender-2
;Generated with Cura_SteamEngine 5.5.0
M140 S50
M105
M190 S50
M104 S200
M105
M109 S200
M82 ;absolute extrusion mode
M201 X500.00 Y500.00 Z100.00 E5000.00 ;Setup machine max acceleration
M203 X500.00 Y500.00 Z10.00 E50.00 ;Setup machine max feedrate
M204 P500.00 R1000.00 T500.00 ;Setup Print/Retract/Travel acceleration
M205 X8.00 Y8.00 Z0.40 E5.00 ;Setup Jerk
M220 S100 ;Reset Feedrate
M221 S100 ;Reset Flowrate

G28 ;Home

G92 E0 ;Reset Extruder
G1 Z2.0 F3000 ;Move Z Axis up
G1 X10.1 Y20 Z0.28 F5000.0 ;Move to start position
G1 X10.1 Y100.0 Z0.28 F1500.0 E8 ;Draw the first line
G1 X10.4 Y100.0 Z0.28 F5000.0 ;Move to side a little
G1 X10.4 Y20 Z0.28 F1500.0 E15 ;Draw the second line
G92 E0 ;Reset Extruder
G1 Z2.0 F3000 ;Move Z Axis up

G92 E0
G92 E0
G1 F2700 E-5
;LAYER_COUNT:100
;LAYER:0
M107
;MESH:Sizzling Stantia.stl 1
G0 F6000 X80.793 Y79.963 Z0.2
;TYPE:WALL-INNER
G1 F2700 E0
G1 F1200 X80.793 Y61.163 E0.62529
G1 X61.993 Y61.163 E1.25058
G1 X61.993 Y79.963 E1.87587
G1 X80.793 Y79.963 E2.50116
G0 F6000 X81.193 Y80.363
;TYPE:WALL-OUTER
G1 F1200 X81.193 Y60.763 E3.15306
G1 X61.593 Y60.763 E3.80496
G1 X61.593 Y80.363 E4.45686
G1 X81.193 Y80.363 E5.10876
G0 F6000 X80.923 Y80.093
G0 X80.693 Y79.603
G0 X80.433 Y79.603
;TYPE:SKIN
G1 F1200 X62.353 Y79.603 E5.7101
G1 X62.353 Y61.523 E6.31144
G1 X80.433 Y61.523 E6.91279
G1 X80.433 Y79.603 E7.51413
G0 F6000 X80.693 Y79.603
G0 X80.693 Y62.13
G0 X80.232 Y62.13
G1 F1200 X79.825 Y61.723 E7.53327
G0 F6000 X79.259 Y61.723
G1 F1200 X80.232 Y62.696 E7.57904
G0 F6000 X80.232 Y63.262
G1 F1200 X78.693 Y61.723 E7.65143
G0 F6000 X78.128 Y61.723
G1 F1200 X80.232 Y63.827 E7.7504
G0 F6000 X80.232 Y64.393
G1 F1200 X77.562 Y61.723 E7.87598
G0 F6000 X76.996 Y61.723
G1 F1200 X80.232 Y64.959 E8.0282
G0 F6000 X80.232 Y65.524
G1 F1200 X76.431 Y61.723 E8.20698
G0 F6000 X75.865 Y61.723
G1 F1200 X80.232 Y66.09 E8.41239
G0 F6000 X80.232 Y66.656
G1 F1200 X75.299 Y61.723 E8.64443
G0 F6000 X74.734 Y61.723
G1 F1200 X80.232 Y67.221 E8.90304
G0 F6000 X80.232 Y67.787
G1 F1200 X74.168 Y61.723 E9.18827
G0 F6000 X73.602 Y61.723
G1 F1200 X80.232 Y68.353 E9.50012
G0 F6000 X80.232 Y68.918
G1 F1200 X73.037 Y61.723 E9.83855
G0 F6000 X72.471 Y61.723
G1 F1200 X80.232 Y69.484 E10.20361
G0 F6000 X80.232 Y70.05
G1 F1200 X71.905 Y61.723 E10.59528
G0 F6000 X71.34 Y61.723
G1 F1200 X80.232 Y70.615 E11.01354
G0 F6000 X80.232 Y71.181
G1 F1200 X70.774 Y61.723 E11.45841
G0 F6000 X70.208 Y61.723
G1 F1200 X80.232 Y71.747 E11.92991
G0 F6000 X80.232 Y72.312
G1 F1200 X69.642 Y61.723 E12.42801
G0 F6000 X69.077 Y61.723
G1 F1200 X80.232 Y72.878 E12.9527
G0 F6000 X80.232 Y73.444
G1 F1200 X68.511 Y61.723 E13.50402
G0 F6000 X67.945 Y61.723
G1 F1200 X80.232 Y74.01 E14.08197
G0 F6000 X80.232 Y74.575
G1 F1200 X67.38 Y61.723 E14.68649
G0 F6000 X66.814 Y61.723
G1 F1200 X80.232 Y75.141 E15.31763
G0 F6000 X80.232 Y75.707
G1 F1200 X66.248 Y61.723 E15.97539
G0 F6000 X65.683 Y61.723
G1 F1200 X80.232 Y76.272 E16.65973
G0 F6000 X80.232 Y76.838
G1 F1200 X65.117 Y61.723 E17.3707
G0 F6000 X64.551 Y61.723
G1 F1200 X80.232 Y77.404 E18.10828
G0 F6000 X80.232 Y77.969
G1 F1200 X63.986 Y61.723 E18.87244
G0 F6000 X63.42 Y61.723
G1 F1200 X80.232 Y78.535 E19.66323
G0 F6000 X80.232 Y79.101
G1 F1200 X62.854 Y61.723 E20.48064
G0 F6000 X62.552 Y61.986
G1 F1200 X79.968 Y79.402 E21.29983
G0 F6000 X79.402 Y79.402
G1 F1200 X62.552 Y62.552 E22.0924
G0 F6000 X62.552 Y63.117
G1 F1200 X78.836 Y79.402 E22.85838
G0 F6000 X78.271 Y79.402
G1 F1200 X62.552 Y63.683 E23.59775
G0 F6000 X62.552 Y64.249
G1 F1200 X77.705 Y79.402 E24.3105
G0 F6000 X77.139 Y79.402
G1 F1200 X62.552 Y64.814 E24.99665
G0 F6000 X62.552 Y65.38
G1 F1200 X76.574 Y79.402 E25.6562
G0 F6000 X76.008 Y79.402
G1 F1200 X62.552 Y65.946 E26.28913
G0 F6000 X62.552 Y66.511
G1 F1200 X75.442 Y79.402 E26.89546
G0 F6000 X74.876 Y79.402
G1 F1200 X62.552 Y67.077 E27.47517
G0 F6000 X62.552 Y67.643
G1 F1200 X74.311 Y79.402 E28.02828
G0 F6000 X73.745 Y79.402
G1 F1200 X62.552 Y68.208 E28.55479
G0 F6000 X62.552 Y68.774
G1 F1200 X73.179 Y79.402 E29.05467
G0 F6000 X72.614 Y79.402
G1 F1200 X62.552 Y69.34 E29.52796
G0 F6000 X62.552 Y69.905
G1 F1200 X72.048 Y79.402 E29.97464
G0 F6000 X71.482 Y79.402
G1 F1200 X62.552 Y70.471 E30.39471
G0 F6000 X62.552 Y71.038
G1 F1200 X70.917 Y79.402 E30.78815
G0 F6000 X70.351 Y79.402
G1 F1200 X62.552 Y71.603 E31.15499
G0 F6000 X62.552 Y72.169
G1 F1200 X69.785 Y79.402 E31.4952
G0 F6000 X69.22 Y79.402
G1 F1200 X62.552 Y72.735 E31.80882
G0 F6000 X62.552 Y73.3
G1 F1200 X68.654 Y79.402 E32.09584
G0 F6000 X68.088 Y79.402
G1 F1200 X62.552 Y73.866 E32.35624
G0 F6000 X62.552 Y74.432
G1 F1200 X67.523 Y79.402 E32.59004
G0 F6000 X66.957 Y79.402
G1 F1200 X62.552 Y74.997 E32.79723
G0 F6000 X62.552 Y75.563
G1 F1200 X66.391 Y79.402 E32.97781
G0 F6000 X65.825 Y79.402
G1 F1200 X62.552 Y76.129 E33.13176
G0 F6000 X62.552 Y76.694
G1 F1200 X65.26 Y79.402 E33.25914
G0 F6000 X64.694 Y79.402
G1 F1200 X62.552 Y77.26 E33.35989
G0 F6000 X62.552 Y77.826
G1 F1200 X64.128 Y79.402 E33.43402
G0 F6000 X63.563 Y79.402
G1 F1200 X62.552 Y78.391 E33.48157
G0 F6000 X62.552 Y78.957
G1 F1200 X62.997 Y79.402 E33.50251
;MESH:NONMESH
G0 F300 X62.997 Y79.402 Z0.4
G0 F6000 X62.997 Y79.863
G0 X80.793 Y79.963
;TIME_ELAPSED:60.281716
;LAYER:1
M106 S85
;TYPE:WALL-INNER
;MESH:Sizzling Stantia.stl 1
G1 F1350 X80.793 Y61.163 E34.1278
G1 X61.993 Y61.163 E34.75309
G1 X61.993 Y79.963 E35.37838
G1 X80.793 Y79.963 E36.00367
G0 F7500 X81.193 Y80.363
;TYPE:WALL-OUTER
G1 F1350 X81.193 Y60.763 E36.65557
G1 X61.593 Y60.763 E37.30747
G1 X61.593 Y80.363 E37.95936
G1 X81.193 Y80.363 E38.61126
G0 F7500 X80.923 Y80.093
G0 X80.693 Y79.603
G0 X80.433 Y79.603
;TYPE:SKIN
G1 F1350 X62.353 Y79.603 E39.21261
G1 X62.353 Y61.523 E39.81395
G1 X80.433 Y61.523 E40.41529
G1 X80.433 Y79.603 E41.01664
G0 F7500 X80.12 Y79.403
G1 F1350 X80.231 Y79.291 E41.02188
G0 F7500 X80.231 Y78.725
G1 F1350 X79.554 Y79.403 E41.05375
G0 F7500 X78.988 Y79.403
G1 F1350 X80.231 Y78.16 E41.11221
G0 F7500 X80.231 Y77.594
G1 F1350 X78.423 Y79.403 E41.19728
G0 F7500 X77.857 Y79.403
G1 F1350 X80.231 Y77.028 E41.30897
G0 F7500 X80.231 Y76.462
G1 F1350 X77.291 Y79.403 E41.44728
G0 F7500 X76.726 Y79.403
G1 F1350 X80.231 Y75.897 E41.61217
G0 F7500 X80.231 Y75.331
G1 F1350 X76.16 Y79.403 E41.80368
G0 F7500 X75.594 Y79.403
G1 F1350 X80.231 Y74.765 E42.02182
G0 F7500 X80.231 Y74.2
G1 F1350 X75.028 Y79.403 E42.26655
G0 F7500 X74.463 Y79.403
G1 F1350 X80.231 Y73.634 E42.53788
G0 F7500 X80.231 Y73.068
G1 F1350 X73.897 Y79.403 E42.83584
G0 F7500 X73.331 Y79.403
G1 F1350 X80.231 Y72.503 E43.16039
G0 F7500 X80.231 Y71.937
G1 F1350 X72.766 Y79.403 E43.51155
G0 F7500 X72.2 Y79.403
G1 F1350 X80.231 Y71.371 E43.88932
G0 F7500 X80.231 Y70.806
G1 F1350 X71.634 Y79.403 E44.2937
G0 F7500 X71.069 Y79.403
G1 F1350 X80.231 Y70.24 E44.72468
G0 F7500 X80.231 Y69.674
G1 F1350 X70.503 Y79.403 E45.18227
G0 F7500 X69.937 Y79.403
G1 F1350 X80.231 Y69.109 E45.66647
G0 F7500 X80.231 Y68.543
G1 F1350 X69.372 Y79.403 E46.17727
G0 F7500 X68.806 Y79.403
G1 F1350 X80.231 Y67.977 E46.71469
G0 F7500 X80.231 Y67.412
G1 F1350 X68.24 Y79.403 E47.27871
G0 F7500 X67.675 Y79.403
G1 F1350 X80.231 Y66.846 E47.86933
G0 F7500 X80.231 Y66.28
G1 F1350 X67.109 Y79.403 E48.48657
G0 F7500 X66.543 Y79.403
G1 F1350 X80.231 Y65.714 E49.13044
G0 F7500 X80.231 Y65.149
G1 F1350 X65.978 Y79.403 E49.80088
G0 F7500 X65.412 Y79.403
G1 F1350 X80.231 Y64.583 E50.49794
G0 F7500 X80.231 Y64.017
G1 F1350 X64.846 Y79.403 E51.22163
G0 F7500 X64.28 Y79.403
G1 F1350 X80.231 Y63.452 E51.97191
G0 F7500 X80.231 Y62.886
G1 F1350 X63.715 Y79.403 E52.7488
G0 F7500 X63.149 Y79.403
G1 F1350 X80.231 Y62.32 E53.55231
G0 F7500 X80.231 Y61.755
G1 F1350 X62.583 Y79.403 E54.38242
G0 F7500 X62.553 Y78.867
G1 F1350 X79.698 Y61.723 E55.18884
G0 F7500 X79.132 Y61.723
G1 F1350 X62.553 Y78.302 E55.96867
G0 F7500 X62.553 Y77.736
G1 F1350 X78.566 Y61.723 E56.72187
G0 F7500 X78 Y61.723
G1 F1350 X62.553 Y77.17 E57.44845
G0 F7500 X62.553 Y76.605
G1 F1350 X77.435 Y61.723 E58.14845
G0 F7500 X76.869 Y61.723
G1 F1350 X62.553 Y76.039 E58.82183
G0 F7500 X62.553 Y75.473
G1 F1350 X76.303 Y61.723 E59.46859
G0 F7500 X75.738 Y61.723
G1 F1350 X62.553 Y74.908 E60.08877
G0 F7500 X62.553 Y74.342
G1 F1350 X75.172 Y61.723 E60.68233
G0 F7500 X74.606 Y61.723
G1 F1350 X62.553 Y73.776 E61.24927
G0 F7500 X62.553 Y73.211
G1 F1350 X74.041 Y61.723 E61.78963
G0 F7500 X73.475 Y61.723
G1 F1350 X62.553 Y72.645 E62.30337
G0 F7500 X62.553 Y72.079
G1 F1350 X72.909 Y61.723 E62.79048
G0 F7500 X72.344 Y61.723
G1 F1350 X62.553 Y71.513 E63.25099
G0 F7500 X62.553 Y70.948
G1 F1350 X71.778 Y61.723 E63.68491
G0 F7500 X71.212 Y61.723
G1 F1350 X62.552 Y70.383 E64.09225
G0 F7500 X62.552 Y69.817
G1 F1350 X70.647 Y61.723 E64.47299
G0 F7500 X70.081 Y61.723
G1 F1350 X62.552 Y69.251 E64.82711
G0 F7500 X62.552 Y68.686
G1 F1350 X69.515 Y61.723 E65.15463
G0 F7500 X68.949 Y61.723
G1 F1350 X62.552 Y68.12 E65.45552
G0 F7500 X62.552 Y67.554
G1 F1350 X68.384 Y61.723 E65.72982
G0 F7500 X67.818 Y61.723
G1 F1350 X62.552 Y66.989 E65.97751
G0 F7500 X62.552 Y66.423
G1 F1350 X67.252 Y61.723 E66.19859
G0 F7500 X66.687 Y61.723
G1 F1350 X62.552 Y65.857 E66.39306
G0 F7500 X62.552 Y65.292
G1 F1350 X66.121 Y61.723 E66.56094
G0 F7500 X65.555 Y61.723
G1 F1350 X62.552 Y64.726 E66.70219
G0 F7500 X62.552 Y64.16
G1 F1350 X64.99 Y61.723 E66.81684
G0 F7500 X64.424 Y61.723
G1 F1350 X62.552 Y63.595 E66.90489
G0 F7500 X62.552 Y63.029
G1 F1350 X63.858 Y61.723 E66.96632
G0 F7500 X63.293 Y61.723
G1 F1350 X62.552 Y62.463 E67.00116
G0 F7500 X62.552 Y61.898
G1 F1350 X62.727 Y61.723 E67.00939
G1 F2700 E62.00939
;MESH:NONMESH
G0 F300 X62.727 Y61.723 Z0.6
G0 F7500 X62.727 Y61.263
G0 X80.621 Y61.335
G0 X80.793 Y79.963
;TIME_ELAPSED:111.202614
;LAYER:2
M106 S170
;TYPE:WALL-INNER
;MESH:Sizzling Stantia.stl 1
G1 F2700 E67.00939
G1 F1500 X80.793 Y61.163 E67.63468
G1 X61.993 Y61.163 E68.25997
G1 X61.993 Y79.963 E68.88526
G1 X80.793 Y79.963 E69.51055
G0 F9000 X81.193 Y80.363
;TYPE:WALL-OUTER
G1 F1500 X81.193 Y60.763 E70.16245
G1 X61.593 Y60.763 E70.81435
G1 X61.593 Y80.363 E71.46624
G1 X81.193 Y80.363 E72.11814
G0 F9000 X80.923 Y80.093
G0 X80.693 Y79.603
G0 X80.433 Y79.603
;TYPE:SKIN
G1 F1500 X62.353 Y79.603 E72.71949
G1 X62.353 Y61.523 E73.32083
G1 X80.433 Y61.523 E73.92217
G1 X80.433 Y79.603 E74.52352
G0 F9000 X80.693 Y79.603
G0 X80.693 Y62.13
G0 X80.232 Y62.13
G1 F1500 X79.825 Y61.723 E74.54266
G0 F9000 X79.259 Y61.723
G1 F1500 X80.232 Y62.696 E74.58843
G0 F9000 X80.232 Y63.262
G1 F1500 X78.693 Y61.723 E74.66082
G0 F9000 X78.128 Y61.723
G1 F1500 X80.232 Y63.827 E74.75978
G0 F9000 X80.232 Y64.393
G1 F1500 X77.562 Y61.723 E74.88537
G0 F9000 X76.996 Y61.723
G1 F1500 X80.232 Y64.959 E75.03758
G0 F9000 X80.232 Y65.524
G1 F1500 X76.431 Y61.723 E75.21637
G0 F9000 X75.865 Y61.723
G1 F1500 X80.232 Y66.09 E75.42178
G0 F9000 X80.232 Y66.656
G1 F1500 X75.299 Y61.723 E75.65381
G0 F9000 X74.734 Y61.723
G1 F1500 X80.232 Y67.221 E75.91242
G0 F9000 X80.232 Y67.787
G1 F1500 X74.168 Y61.723 E76.19766
G0 F9000 X73.602 Y61.723
G1 F1500 X80.232 Y68.353 E76.50951
G0 F9000 X80.232 Y68.918
G1 F1500 X73.037 Y61.723 E76.84794
G0 F9000 X72.471 Y61.723
G1 F1500 X80.232 Y69.484 E77.21299
G0 F9000 X80.232 Y70.05
G1 F1500 X71.905 Y61.723 E77.60467
G0 F9000 X71.34 Y61.723
G1 F1500 X80.232 Y70.615 E78.02292
G0 F9000 X80.232 Y71.181
G1 F1500 X70.774 Y61.723 E78.4678
G0 F9000 X70.208 Y61.723
G1 F1500 X80.232 Y71.747 E78.9393
G0 F9000 X80.232 Y72.312
G1 F1500 X69.642 Y61.723 E79.43739
G0 F9000 X69.077 Y61.723
G1 F1500 X80.232 Y72.878 E79.96209
G0 F9000 X80.232 Y73.444
G1 F1500 X68.511 Y61.723 E80.51341
G0 F9000 X67.945 Y61.723
G1 F1500 X80.232 Y74.01 E81.09135
G0 F9000 X80.232 Y74.575
G1 F1500 X67.38 Y61.723 E81.69587
G0 F9000 X66.814 Y61.723
G1 F1500 X80.232 Y75.141 E82.32701
G0 F9000 X80.232 Y75.707
G1 F1500 X66.248 Y61.723 E82.98478
G0 F9000 X65.683 Y61.723
G1 F1500 X80.232 Y76.272 E83.66912
G0 F9000 X80.232 Y76.838
G1 F1500 X65.117 Y61.723 E84.38008
G0 F9000 X64.551 Y61.723
G1 F1500 X80.232 Y77.404 E85.11767
G0 F9000 X80.232 Y77.969
G1 F1500 X63.986 Y61.723 E85.88183
G0 F9000 X63.42 Y61.723
G1 F1500 X80.232 Y78.535 E86.67262
G0 F9000 X80.232 Y79.101
G1 F1500 X62.854 Y61.723 E87.49002
G0 F9000 X62.552 Y61.986
G1 F1500 X79.968 Y79.402 E88.30922
G0 F9000 X79.402 Y79.402
G1 F1500 X62.552 Y62.552 E89.10179
G0 F9000 X62.552 Y63.117
G1 F1500 X78.836 Y79.402 E89.86776
G0 F9000 X78.271 Y79.402
G1 F1500 X62.552 Y63.683 E90.60714
G0 F9000 X62.552 Y64.249
G1 F1500 X77.705 Y79.402 E91.31989
G0 F9000 X77.139 Y79.402
G1 F1500 X62.552 Y64.814 E92.00604
G0 F9000 X62.552 Y65.38
G1 F1500 X76.574 Y79.402 E92.66559
G0 F9000 X76.008 Y79.402
G1 F1500 X62.552 Y65.946 E93.29852
G0 F9000 X62.552 Y66.511
G1 F1500 X75.442 Y79.402 E93.90485
G0 F9000 X74.876 Y79.402
G1 F1500 X62.552 Y67.077 E94.48456
G0 F9000 X62.552 Y67.643
G1 F1500 X74.311 Y79.402 E95.03766
G0 F9000 X73.745 Y79.402
G1 F1500 X62.552 Y68.208 E95.56417
G0 F9000 X62.552 Y68.774
G1 F1500 X73.179 Y79.402 E96.06406
G0 F9000 X72.614 Y79.402
G1 F1500 X62.552 Y69.34 E96.53734
G0 F9000 X62.552 Y69.905
G1 F1500 X72.048 Y79.402 E96.98403
G0 F9000 X71.482 Y79.402
G1 F1500 X62.552 Y70.471 E97.40409
G0 F9000 X62.552 Y71.038
G1 F1500 X70.917 Y79.402 E97.79753
G0 F9000 X70.351 Y79.402
G1 F1500 X62.552 Y71.603 E98.16437
G0 F9000 X62.552 Y72.169
G1 F1500 X69.785 Y79.402 E98.50459
G0 F9000 X69.22 Y79.402
G1 F1500 X62.552 Y72.735 E98.81821
G0 F9000 X62.552 Y73.3
G1 F1500 X68.654 Y79.402 E99.10523
G0 F9000 X68.088 Y79.402
G1 F1500 X62.552 Y73.866 E99.36563
G0 F9000 X62.552 Y74.432
G1 F1500 X67.523 Y79.402 E99.59942
G0 F9000 X66.957 Y79.402
G1 F1500 X62.552 Y74.997 E99.80662
G0 F9000 X62.552 Y75.563
G1 F1500 X66.391 Y79.402 E99.9872
G0 F9000 X65.825 Y79.402
G1 F1500 X62.552 Y76.129 E100.14115
G0 F9000 X62.552 Y76.694
G1 F1500 X65.26 Y79.402 E100.26852
G0 F9000 X64.694 Y79.402
G1 F1500 X62.552 Y77.26 E100.36928
G0 F9000 X62.552 Y77.826
G1 F1500 X64.128 Y79.402 E100.44341
G0 F9000 X63.563 Y79.402
G1 F1500 X62.552 Y78.391 E100.49096
G0 F9000 X62.552 Y78.957
G1 F1500 X62.997 Y79.402 E100.51189
;MESH:NONMESH
G0 F300 X62.997 Y79.402 Z0.8
G0 F9000 X62.997 Y79.863
G0 X80.793 Y79.963
;TIME_ELAPSED:157.965268
;LAYER:3
M106 S255
;TYPE:WALL-INNER
;MESH:Sizzling Stantia.stl 1
G1 F1500 X80.793 Y61.163 E101.13718
G1 X61.993 Y61.163 E101.76247
G1 X61.993 Y79.963 E102.38776
G1 X80.793 Y79.963 E103.01306
G0 F9000 X81.193 Y80.363
;TYPE:WALL-OUTER
G1 F1500 X81.193 Y60.763 E103.66495
G1 X61.593 Y60.763 E104.31685
G1 X61.593 Y80.363 E104.96875
G1 X81.193 Y80.363 E105.62065
G0 F9000 X80.923 Y80.093
G0 X80.693 Y79.603
G0 X80.433 Y79.603
;TYPE:SKIN
G1 F1500 X62.353 Y79.603 E106.22199
G1 X62.353 Y61.523 E106.82334
G1 X80.433 Y61.523 E107.42468
G1 X80.433 Y79.603 E108.02602
G0 F9000 X80.12 Y79.403
G1 F1500 X80.231 Y79.291 E108.03127
G0 F9000 X80.231 Y78.725
G1 F1500 X79.554 Y79.403 E108.06313
G0 F9000 X78.988 Y79.403
G1 F1500 X80.231 Y78.16 E108.1216
G0 F9000 X80.231 Y77.594
G1 F1500 X78.423 Y79.403 E108.20667
G0 F9000 X77.857 Y79.403
G1 F1500 X80.231 Y77.028 E108.31836
G0 F9000 X80.231 Y76.462
G1 F1500 X77.291 Y79.403 E108.45667
G0 F9000 X76.726 Y79.403
G1 F1500 X80.231 Y75.897 E108.62156
G0 F9000 X80.231 Y75.331
G1 F1500 X76.16 Y79.403 E108.81307
G0 F9000 X75.594 Y79.403
G1 F1500 X80.231 Y74.765 E109.0312
G0 F9000 X80.231 Y74.2
G1 F1500 X75.028 Y79.403 E109.27594
G0 F9000 X74.463 Y79.403
