;FLAVOR:Marlin
;TIME:1368
;Filament used: 0.984924m
;Layer height: 0.2
;MINX:65.614
;MINY:65.613
;MINZ:0.2
;MAXX:85.208
;MAXY:85.207
;MAXZ:20
;TARGET_MACHINE.NAME:Creality Ender-2
;Generated with Cura_SteamEngine 5.5.0
M140 S50
M105
M190 S50
M104 S200
M105
M109 S200
M82 ;absolute extrusion mode
M201 X500.00 Y500.00 Z100.00 E5000.00 ;Setup machine max acceleration
M203 X500.00 Y500.00 Z10.00 E50.00 ;Setup machine max feedrate
M204 P500.00 R1000.00 T500.00 ;Setup Print/Retract/Travel acceleration
M205 X8.00 Y8.00 Z0.40 E5.00 ;Setup Jerk
M220 S100 ;Reset Feedrate
M221 S100 ;Reset Flowrate

G28 ;Home

G92 E0 ;Reset Extruder
G1 Z2.0 F3000 ;Move Z Axis up
G1 X10.1 Y20 Z0.28 F5000.0 ;Move to start position
G1 X10.1 Y100.0 Z0.28 F1500.0 E8 ;Draw the first line
G1 X10.4 Y100.0 Z0.28 F5000.0 ;Move to side a little
G1 X10.4 Y20 Z0.28 F1500.0 E15 ;Draw the second line
G92 E0 ;Reset Extruder
G1 Z2.0 F3000 ;Move Z Axis up

G92 E0
G92 E0
G1 F2700 E-5
;LAYER_COUNT:100
;LAYER:0
M107
;MESH:Sizzling Stantia.stl 2
G0 F6000 X75.411 Y84.802 Z0.2
;TYPE:WALL-INNER
G1 F2700 E0
G1 F1200 X78.312 Y84.343 E0.09769
G1 X80.929 Y83.008 E0.1954
G1 X83.009 Y80.929 E0.29321
G1 X84.343 Y78.311 E0.39094
G1 X84.803 Y75.411 E0.4886
G1 X84.343 Y72.51 E0.5863
G1 X83.009 Y69.892 E0.68402
G1 X80.929 Y67.812 E0.78186
G1 X78.312 Y66.477 E0.87957
G1 X75.411 Y66.018 E0.97726
G1 X72.51 Y66.477 E1.07495
G1 X69.893 Y67.812 E1.17266
G1 X67.813 Y69.892 E1.2705
G1 X66.478 Y72.509 E1.36821
G1 X66.019 Y75.41 E1.4659
G1 X66.478 Y78.311 E1.56359
G1 X67.813 Y80.928 E1.6613
G1 X69.893 Y83.008 E1.75914
G1 X72.51 Y84.343 E1.85685
G1 X75.411 Y84.802 E1.95454
G0 F6000 X75.411 Y85.207
;TYPE:WALL-OUTER
G1 F1200 X78.437 Y84.728 E2.05644
G1 X81.167 Y83.336 E2.15836
G1 X83.337 Y81.167 E2.26041
G1 X84.729 Y78.436 E2.36236
G1 X85.208 Y75.411 E2.46422
G1 X84.729 Y72.384 E2.56615
G1 X83.337 Y69.654 E2.66808
G1 X81.167 Y67.484 E2.77015
G1 X78.437 Y66.092 E2.87207
G1 X75.411 Y65.613 E2.97397
G1 X72.385 Y66.092 E3.07587
G1 X69.655 Y67.484 E3.17779
G1 X67.485 Y69.654 E3.27986
G1 X66.093 Y72.384 E3.38178
G1 X65.614 Y75.41 E3.48368
G1 X66.093 Y78.436 E3.58558
G1 X67.485 Y81.166 E3.6875
G1 X69.655 Y83.336 E3.78957
G1 X72.385 Y84.728 E3.89149
G1 X75.411 Y85.207 E3.99339
G0 F6000 X75.411 Y84.437
;TYPE:SKIN
G1 F1200 X72.624 Y83.996 E4.08724
G1 X70.111 Y82.714 E4.18107
G1 X68.107 Y80.71 E4.27533
G1 X66.825 Y78.197 E4.36916
G1 X66.384 Y75.41 E4.46301
G1 X66.825 Y72.623 E4.55686
G1 X68.107 Y70.11 E4.65069
G1 X70.111 Y68.106 E4.74495
G1 X72.624 Y66.824 E4.83879
G1 X75.411 Y66.384 E4.93263
G1 X78.198 Y66.824 E5.02647
G1 X80.711 Y68.106 E5.1203
G1 X82.715 Y70.11 E5.21457
G1 X83.997 Y72.623 E5.3084
G1 X84.437 Y75.41 E5.40224
G1 X83.997 Y78.198 E5.49612
G1 X82.716 Y80.71 E5.5899
G1 X80.712 Y82.713 E5.68414
G1 X78.198 Y83.996 E5.77802
G1 X75.411 Y84.437 E5.87187
G0 F6000 X75.37 Y84.694
G0 X74.685 Y84.489
G0 X72.584 Y84.113
G0 X68.008 Y80.788
G0 X67.617 Y80.129
G0 X67.401 Y79.9
G0 X67.812 Y79.692
G1 F1200 X71.127 Y83.006 E6.02777
G0 F6000 X70.917 Y83.417
G0 X72.072 Y84.006
G0 X72.282 Y83.596
G1 F1200 X67.223 Y78.536 E6.26575
G0 F6000 X66.948 Y77.696
G1 F1200 X73.123 Y83.871 E6.55621
G0 F6000 X73.795 Y83.978
G1 F1200 X66.842 Y77.024 E6.88328
G0 F6000 X66.736 Y76.352
G1 F1200 X74.467 Y84.084 E7.24694
G0 F6000 X75.139 Y84.19
G1 F1200 X66.629 Y75.68 E7.64723
G0 F6000 X66.632 Y75.118
G1 F1200 X75.702 Y84.187 E8.07383
G0 F6000 X76.19 Y84.11
G1 F1200 X66.71 Y74.63 E8.51974
G0 F6000 X66.787 Y74.141
G1 F1200 X76.678 Y84.032 E8.98498
G0 F6000 X77.167 Y83.955
G1 F1200 X66.864 Y73.652 E9.4696
G0 F6000 X66.941 Y73.164
G1 F1200 X77.655 Y83.877 E9.97353
G0 F6000 X78.141 Y83.798
G1 F1200 X67.02 Y72.677 E10.49663
G0 F6000 X67.211 Y72.303
G1 F1200 X78.515 Y83.606 E11.02831
G0 F6000 X78.89 Y83.415
G1 F1200 X67.403 Y71.929 E11.5686
G0 F6000 X67.594 Y71.554
G1 F1200 X79.265 Y83.225 E12.11757
G0 F6000 X79.64 Y83.034
G1 F1200 X67.785 Y71.179 E12.6752
G0 F6000 X67.976 Y70.804
G1 F1200 X80.014 Y82.842 E13.24143
G0 F6000 X80.388 Y82.651
G1 F1200 X68.167 Y70.43 E13.81626
G0 F6000 X68.401 Y70.098
G1 F1200 X80.721 Y82.418 E14.39576
G0 F6000 X81.004 Y82.136
G1 F1200 X68.684 Y69.815 E14.97528
G0 F6000 X68.966 Y69.532
G1 F1200 X81.287 Y81.853 E15.55482
G0 F6000 X81.57 Y81.57
G1 F1200 X69.249 Y69.249 E16.13436
G0 F6000 X69.532 Y68.966
G1 F1200 X81.853 Y81.287 E16.7139
G0 F6000 X82.136 Y81.004
G1 F1200 X69.815 Y68.684 E17.29342
G0 F6000 X70.098 Y68.401
G1 F1200 X82.418 Y80.721 E17.87292
G0 F6000 X82.653 Y80.39
G1 F1200 X70.43 Y68.167 E18.44785
G0 F6000 X70.805 Y67.977
G1 F1200 X82.844 Y80.016 E19.01413
G0 F6000 X83.035 Y79.641
G1 F1200 X71.18 Y67.786 E19.57175
G0 F6000 X71.554 Y67.594
G1 F1200 X83.227 Y79.267 E20.12081
G0 F6000 X83.418 Y78.892
G1 F1200 X71.929 Y67.403 E20.66122
G0 F6000 X72.303 Y67.212
G1 F1200 X83.609 Y78.517 E21.193
G0 F6000 X83.799 Y78.143
G1 F1200 X72.678 Y67.021 E21.71612
G0 F6000 X73.164 Y66.941
G1 F1200 X83.879 Y77.656 E22.22012
G0 F6000 X83.956 Y77.167
G1 F1200 X73.652 Y66.864 E22.70476
G0 F6000 X74.14 Y66.786
G1 F1200 X84.033 Y76.679 E23.1701
G0 F6000 X84.11 Y76.19
G1 F1200 X74.629 Y66.709 E23.61606
G0 F6000 X75.118 Y66.632
G1 F1200 X84.187 Y75.702 E24.04266
G0 F6000 X84.19 Y75.139
G1 F1200 X75.68 Y66.629 E24.44294
G0 F6000 X76.351 Y66.735
G1 F1200 X84.084 Y74.468 E24.80668
G0 F6000 X83.978 Y73.796
G1 F1200 X77.023 Y66.841 E25.13382
G0 F6000 X77.695 Y66.947
G1 F1200 X83.872 Y73.124 E25.42437
G0 F6000 X83.599 Y72.285
G1 F1200 X78.535 Y67.221 E25.66256
G0 F6000 X78.744 Y66.811
G0 X79.899 Y67.4
G0 X79.69 Y67.81
G1 F1200 X83.01 Y71.13 E25.81873
;MESH:NONMESH
G0 F300 X83.01 Y71.13 Z0.4
G0 F6000 X83.421 Y70.921
G0 X75.411 Y84.5
G0 X75.411 Y84.802
;TIME_ELAPSED:47.237607
;LAYER:1
M106 S85
;TYPE:WALL-INNER
;MESH:Sizzling Stantia.stl 2
G1 F1350 X78.312 Y84.343 E25.91641
G1 X80.929 Y83.008 E26.01413
G1 X83.009 Y80.929 E26.11194
G1 X84.343 Y78.311 E26.20967
G1 X84.803 Y75.411 E26.30733
G1 X84.343 Y72.51 E26.40502
G1 X83.009 Y69.892 E26.50275
G1 X80.929 Y67.812 E26.60059
G1 X78.312 Y66.477 E26.6983
G1 X75.411 Y66.018 E26.79599
G1 X72.51 Y66.477 E26.89367
G1 X69.893 Y67.812 E26.99139
G1 X67.813 Y69.892 E27.08922
G1 X66.478 Y72.509 E27.18694
G1 X66.019 Y75.41 E27.28462
G1 X66.478 Y78.311 E27.38231
G1 X67.813 Y80.928 E27.48003
G1 X69.893 Y83.008 E27.57786
G1 X72.51 Y84.343 E27.67558
G1 X75.411 Y84.802 E27.77326
G0 F7500 X75.411 Y85.207
;TYPE:WALL-OUTER
G1 F1350 X78.437 Y84.728 E27.87516
G1 X81.167 Y83.336 E27.97708
G1 X83.337 Y81.167 E28.07913
G1 X84.729 Y78.436 E28.18108
G1 X85.208 Y75.411 E28.28295
G1 X84.729 Y72.384 E28.38488
G1 X83.337 Y69.654 E28.4868
G1 X81.167 Y67.484 E28.58887
G1 X78.437 Y66.092 E28.69079
G1 X75.411 Y65.613 E28.79269
G1 X72.385 Y66.092 E28.89459
G1 X69.655 Y67.484 E28.99651
G1 X67.485 Y69.654 E29.09858
G1 X66.093 Y72.384 E29.20051
G1 X65.614 Y75.41 E29.3024
G1 X66.093 Y78.436 E29.4043
G1 X67.485 Y81.166 E29.50623
G1 X69.655 Y83.336 E29.6083
G1 X72.385 Y84.728 E29.71022
G1 X75.411 Y85.207 E29.81212
G0 F7500 X75.411 Y84.437
;TYPE:SKIN
G1 F1350 X72.624 Y83.996 E29.90597
G1 X70.111 Y82.714 E29.9998
G1 X68.107 Y80.71 E30.09406
G1 X66.825 Y78.197 E30.18789
G1 X66.384 Y75.41 E30.28174
G1 X66.825 Y72.623 E30.37559
G1 X68.107 Y70.11 E30.46942
G1 X70.111 Y68.106 E30.56368
G1 X72.624 Y66.824 E30.65751
G1 X75.411 Y66.384 E30.75136
G1 X78.198 Y66.824 E30.8452
G1 X80.711 Y68.106 E30.93903
G1 X82.715 Y70.11 E31.03329
G1 X83.997 Y72.623 E31.12712
G1 X84.437 Y75.41 E31.22097
G1 X83.997 Y78.198 E31.31484
G1 X82.716 Y80.71 E31.40863
G1 X80.712 Y82.713 E31.50287
G1 X78.198 Y83.996 E31.59674
G1 X75.411 Y84.437 E31.69059
G0 F7500 X75.37 Y84.694
G0 X78.261 Y84.188
G0 X80.833 Y82.876
G0 X82.877 Y80.833
G0 X83.195 Y80.342
G0 X82.784 Y80.132
G1 F1350 X80.135 Y82.781 E31.81519
G0 F7500 X80.344 Y83.194
G0 X79.189 Y83.783
G0 X78.98 Y83.37
G1 F1350 X83.373 Y78.978 E32.0218
G0 F7500 X83.784 Y79.188
G0 X84.286 Y78.026
G0 X83.831 Y77.954
G1 F1350 X77.954 Y83.831 E32.29824
G0 F7500 X77.282 Y83.937
G1 F1350 X83.937 Y77.282 E32.61127
G0 F7500 X84.043 Y76.61
G1 F1350 X76.61 Y84.043 E32.9609
G0 F7500 X75.938 Y84.15
G1 F1350 X84.149 Y75.939 E33.34712
G0 F7500 X84.216 Y75.306
G1 F1350 X75.305 Y84.217 E33.76626
G0 F7500 X74.816 Y84.14
G1 F1350 X84.139 Y74.818 E34.20476
G0 F7500 X84.062 Y74.329
G1 F1350 X74.328 Y84.062 E34.6626
G0 F7500 X73.84 Y83.985
G1 F1350 X83.985 Y73.841 E35.13976
G0 F7500 X83.908 Y73.352
G1 F1350 X73.351 Y83.908 E35.63631
G0 F7500 X72.863 Y83.831
G1 F1350 X83.831 Y72.863 E36.15221
G0 F7500 X83.681 Y72.448
G1 F1350 X72.448 Y83.681 E36.68058
G0 F7500 X72.073 Y83.49
G1 F1350 X83.49 Y72.073 E37.2176
G0 F7500 X83.299 Y71.698
G1 F1350 X71.698 Y83.299 E37.76327
G0 F7500 X71.324 Y83.107
G1 F1350 X83.107 Y71.324 E38.31751
G0 F7500 X82.916 Y70.949
G1 F1350 X70.949 Y82.916 E38.8804
G0 F7500 X70.574 Y82.725
G1 F1350 X82.725 Y70.574 E39.45195
G0 F7500 X82.527 Y70.207
G1 F1350 X70.207 Y82.527 E40.03144
G0 F7500 X69.925 Y82.244
G1 F1350 X82.245 Y69.924 E40.61094
G0 F7500 X81.962 Y69.641
G1 F1350 X69.642 Y81.961 E41.19043
G0 F7500 X69.359 Y81.678
G1 F1350 X81.679 Y69.358 E41.76993
G0 F7500 X81.396 Y69.075
G1 F1350 X69.076 Y81.395 E42.34942
G0 F7500 X68.793 Y81.112
G1 F1350 X81.113 Y68.793 E42.92889
G0 F7500 X80.83 Y68.51
G1 F1350 X68.51 Y80.83 E43.50839
G0 F7500 X68.242 Y80.533
G1 F1350 X80.534 Y68.24 E44.08659
G0 F7500 X80.159 Y68.049
G1 F1350 X68.051 Y80.158 E44.65614
G0 F7500 X67.86 Y79.783
G1 F1350 X79.784 Y67.858 E45.21703
G0 F7500 X79.41 Y67.667
G1 F1350 X67.668 Y79.409 E45.76934
G0 F7500 X67.477 Y79.034
G1 F1350 X79.036 Y67.476 E46.31301
G0 F7500 X78.661 Y67.285
G1 F1350 X67.286 Y78.659 E46.84803
G0 F7500 X67.095 Y78.285
G1 F1350 X78.286 Y67.094 E47.37442
G0 F7500 X77.844 Y66.97
G1 F1350 X66.972 Y77.843 E47.88583
G0 F7500 X66.895 Y77.354
G1 F1350 X77.356 Y66.893 E48.37789
G0 F7500 X76.868 Y66.815
G1 F1350 X66.818 Y76.866 E48.85063
G0 F7500 X66.74 Y76.377
G1 F1350 X76.379 Y66.738 E49.30402
G0 F7500 X75.89 Y66.661
G1 F1350 X66.663 Y75.888 E49.73803
G0 F7500 X66.589 Y75.397
G1 F1350 X75.399 Y66.587 E50.15242
G0 F7500 X74.727 Y66.693
G1 F1350 X66.695 Y74.725 E50.53023
G0 F7500 X66.801 Y74.053
G1 F1350 X74.056 Y66.799 E50.87145
G0 F7500 X73.383 Y66.906
G1 F1350 X66.908 Y73.381 E51.17602
G0 F7500 X67.014 Y72.709
G1 F1350 X72.711 Y67.012 E51.44399
G0 F7500 X72.64 Y66.559
G0 X71.366 Y67.173
G0 X71.574 Y67.583
G1 F1350 X67.585 Y71.573 E51.63164
G0 F7500 X67.175 Y71.364
G0 X67.764 Y70.209
G0 X68.174 Y70.418
G1 F1350 X70.42 Y68.172 E51.73729
;MESH:NONMESH
G0 F300 X70.42 Y68.172 Z0.6
G0 F7500 X70.212 Y67.762
G0 X75.411 Y84.5
G0 X75.411 Y84.802
;TIME_ELAPSED:86.434571
;LAYER:2
M106 S170
;TYPE:WALL-INNER
;MESH:Sizzling Stantia.stl 2
G1 F1500 X78.312 Y84.343 E51.83498
G1 X80.929 Y83.008 E51.93269
G1 X83.009 Y80.929 E52.0305
G1 X84.343 Y78.311 E52.12823
G1 X84.803 Y75.411 E52.22589
G1 X84.343 Y72.51 E52.32358
G1 X83.009 Y69.892 E52.42131
G1 X80.929 Y67.812 E52.51915
G1 X78.312 Y66.477 E52.61686
G1 X75.411 Y66.018 E52.71455
G1 X72.51 Y66.477 E52.81224
G1 X69.893 Y67.812 E52.90995
G1 X67.813 Y69.892 E53.00779
G1 X66.478 Y72.509 E53.1055
G1 X66.019 Y75.41 E53.20319
G1 X66.478 Y78.311 E53.30087
G1 X67.813 Y80.928 E53.39859
G1 X69.893 Y83.008 E53.49642
G1 X72.51 Y84.343 E53.59414
G1 X75.411 Y84.802 E53.69183
G0 F9000 X75.411 Y85.207
;TYPE:WALL-OUTER
G1 F1500 X78.437 Y84.728 E53.79372
G1 X81.167 Y83.336 E53.89565
G1 X83.337 Y81.167 E53.99769
G1 X84.729 Y78.436 E54.09964
G1 X85.208 Y75.411 E54.20151
G1 X84.729 Y72.384 E54.30344
G1 X83.337 Y69.654 E54.40536
G1 X81.167 Y67.484 E54.50743
G1 X78.437 Y66.092 E54.60936
G1 X75.411 Y65.613 E54.71125
G1 X72.385 Y66.092 E54.81315
G1 X69.655 Y67.484 E54.91508
G1 X67.485 Y69.654 E55.01715
G1 X66.093 Y72.384 E55.11907
G1 X65.614 Y75.41 E55.22097
G1 X66.093 Y78.436 E55.32286
G1 X67.485 Y81.166 E55.42479
G1 X69.655 Y83.336 E55.52686
G1 X72.385 Y84.728 E55.62878
G1 X75.411 Y85.207 E55.73068
G0 F9000 X75.411 Y84.437
;TYPE:SKIN
G1 F1500 X72.624 Y83.996 E55.82453
G1 X70.111 Y82.714 E55.91836
G1 X68.107 Y80.71 E56.01262
G1 X66.825 Y78.197 E56.10645
G1 X66.384 Y75.41 E56.2003
G1 X66.825 Y72.623 E56.29415
G1 X68.107 Y70.11 E56.38798
G1 X70.111 Y68.106 E56.48224
G1 X72.624 Y66.824 E56.57607
G1 X75.411 Y66.384 E56.66992
G1 X78.198 Y66.824 E56.76376
G1 X80.711 Y68.106 E56.85759
G1 X82.715 Y70.11 E56.95185
G1 X83.997 Y72.623 E57.04568
G1 X84.437 Y75.41 E57.13953
G1 X83.997 Y78.198 E57.23341
G1 X82.716 Y80.71 E57.32719
G1 X80.712 Y82.713 E57.42143
G1 X78.198 Y83.996 E57.5153
G1 X75.411 Y84.437 E57.60915
G0 F9000 X75.37 Y84.694
G0 X74.685 Y84.489
G0 X72.584 Y84.113
G0 X68.008 Y80.788
G0 X67.617 Y80.129
G0 X67.401 Y79.9
G0 X67.812 Y79.692
G1 F1500 X71.127 Y83.006 E57.76506
G0 F9000 X70.917 Y83.417
G0 X72.072 Y84.006
G0 X72.282 Y83.596
G1 F1500 X67.223 Y78.536 E58.00304
G0 F9000 X66.948 Y77.696
G1 F1500 X73.123 Y83.871 E58.29349
G0 F9000 X73.795 Y83.978
G1 F1500 X66.842 Y77.024 E58.62057
G0 F9000 X66.736 Y76.352
G1 F1500 X74.467 Y84.084 E58.98423
G0 F9000 X75.139 Y84.19
G1 F1500 X66.629 Y75.68 E59.38452
G0 F9000 X66.632 Y75.118
G1 F1500 X75.702 Y84.187 E59.81112
G0 F9000 X76.19 Y84.11
G1 F1500 X66.71 Y74.63 E60.25703
G0 F9000 X66.787 Y74.141
G1 F1500 X76.678 Y84.032 E60.72227
G0 F9000 X77.167 Y83.955
G1 F1500 X66.864 Y73.652 E61.20689
G0 F9000 X66.941 Y73.164
G1 F1500 X77.655 Y83.877 E61.71082
G0 F9000 X78.141 Y83.798
G1 F1500 X67.02 Y72.677 E62.23392
G0 F9000 X67.211 Y72.303
G1 F1500 X78.515 Y83.606 E62.7656
G0 F9000 X78.89 Y83.415
G1 F1500 X67.403 Y71.929 E63.30589
G0 F9000 X67.594 Y71.554
G1 F1500 X79.265 Y83.225 E63.85486
G0 F9000 X79.64 Y83.034
G1 F1500 X67.785 Y71.179 E64.41248
G0 F9000 X67.976 Y70.804
G1 F1500 X80.014 Y82.842 E64.97871
G0 F9000 X80.388 Y82.651
G1 F1500 X68.167 Y70.43 E65.55355
G0 F9000 X68.401 Y70.098
G1 F1500 X80.721 Y82.418 E66.13305
G0 F9000 X81.004 Y82.136
G1 F1500 X68.684 Y69.815 E66.71256
G0 F9000 X68.966 Y69.532
G1 F1500 X81.287 Y81.853 E67.29211
G0 F9000 X81.57 Y81.57
G1 F1500 X69.249 Y69.249 E67.87165
G0 F9000 X69.532 Y68.966
G1 F1500 X81.853 Y81.287 E68.45119
G0 F9000 X82.136 Y81.004
G1 F1500 X69.815 Y68.684 E69.03071
G0 F9000 X70.098 Y68.401
G1 F1500 X82.418 Y80.721 E69.6102
G0 F9000 X82.653 Y80.39
G1 F1500 X70.43 Y68.167 E70.18514
G0 F9000 X70.805 Y67.977
G1 F1500 X82.844 Y80.016 E70.75141
G0 F9000 X83.035 Y79.641
G1 F1500 X71.18 Y67.786 E71.30904
G0 F9000 X71.554 Y67.594
G1 F1500 X83.227 Y79.267 E71.8581
G0 F9000 X83.418 Y78.892
G1 F1500 X71.929 Y67.403 E72.39851
G0 F9000 X72.303 Y67.212
G1 F1500 X83.609 Y78.517 E72.93028
G0 F9000 X83.799 Y78.143
G1 F1500 X72.678 Y67.021 E73.4534
G0 F9000 X73.164 Y66.941
G1 F1500 X83.879 Y77.656 E73.95741
G0 F9000 X83.956 Y77.167
G1 F1500 X73.652 Y66.864 E74.44205
G0 F9000 X74.14 Y66.786
G1 F1500 X84.033 Y76.679 E74.90739
G0 F9000 X84.11 Y76.19
G1 F1500 X74.629 Y66.709 E75.35334
G0 F9000 X75.118 Y66.632
G1 F1500 X84.187 Y75.702 E75.77995
G0 F9000 X84.19 Y75.139
G1 F1500 X75.68 Y66.629 E76.18023
G0 F9000 X76.351 Y66.735
G1 F1500 X84.084 Y74.468 E76.54397
G0 F9000 X83.978 Y73.796
G1 F1500 X77.023 Y66.841 E76.87111
G0 F9000 X77.695 Y66.947
G1 F1500 X83.872 Y73.124 E77.16166
G0 F9000 X83.599 Y72.285
G1 F1500 X78.535 Y67.221 E77.39985
G0 F9000 X78.744 Y66.811
G0 X79.899 Y67.4
G0 X79.69 Y67.81
G1 F1500 X83.01 Y71.13 E77.55601
;MESH:NONMESH
G0 F300 X83.01 Y71.13 Z0.8
G0 F9000 X83.421 Y70.921
G0 X75.411 Y84.5
G0 X75.411 Y84.802
;TIME_ELAPSED:121.999028
;LAYER:3
M106 S255
;TYPE:WALL-INNER
;MESH:Sizzling Stantia.stl 2
G1 F1500 X78.312 Y84.343 E77.6537
G1 X80.929 Y83.008 E77.75141
