;FLAVOR:Marlin
;TIME:1001
;Filament used: 0.608168m
;Layer height: 0.2
;MINX:62.277
;MINY:59.436
;MINZ:0.2
;MAXX:90.577
;MAXY:89.038
;MAXZ:5
;TARGET_MACHINE.NAME:Creality Ender-2
;Generated with Cura_SteamEngine 5.5.0
M140 S50
M105
M190 S50
M104 S200
M105
M109 S200
M82 ;absolute extrusion mode
M201 X500.00 Y500.00 Z100.00 E5000.00 ;Setup machine max acceleration
M203 X500.00 Y500.00 Z10.00 E50.00 ;Setup machine max feedrate
M204 P500.00 R1000.00 T500.00 ;Setup Print/Retract/Travel acceleration
M205 X8.00 Y8.00 Z0.40 E5.00 ;Setup Jerk
M220 S100 ;Reset Feedrate
M221 S100 ;Reset Flowrate

G28 ;Home

G92 E0 ;Reset Extruder
G1 Z2.0 F3000 ;Move Z Axis up
G1 X10.1 Y20 Z0.28 F5000.0 ;Move to start position
G1 X10.1 Y100.0 Z0.28 F1500.0 E8 ;Draw the first line
G1 X10.4 Y100.0 Z0.28 F5000.0 ;Move to side a little
G1 X10.4 Y20 Z0.28 F1500.0 E15 ;Draw the second line
G92 E0 ;Reset Extruder
G1 Z2.0 F3000 ;Move Z Axis up

G92 E0
G92 E0
G1 F2700 E-5
;LAYER_COUNT:25
;LAYER:0
M107
;MESH:Sizzling Stantia.stl
G0 F6000 X72.283 Y87.235 Z0.2
;TYPE:WALL-INNER
G1 F2700 E0
G1 F1200 X72.089 Y86.986 E0.0105
G1 X72.043 Y86.755 E0.01833
G1 X72.043 Y74.632 E0.42155
G1 X72.166 Y74.341 E0.43205
G1 X72.314 Y74.203 E0.43878
G1 X72.59 Y74.107 E0.4485
G1 X74.938 Y74.106 E0.5266
G1 X75.493 Y74.116 E0.54506
G1 X75.967 Y74.151 E0.56087
G1 X76.393 Y74.2 E0.57513
G1 X76.86 Y74.285 E0.59092
G1 X77.267 Y74.385 E0.60486
G1 X77.674 Y74.522 E0.61914
G1 X77.984 Y74.663 E0.63047
G1 X78.314 Y74.847 E0.64303
G1 X78.679 Y75.099 E0.65779
G1 X78.965 Y75.343 E0.67029
G1 X79.195 Y75.578 E0.68123
G1 X79.426 Y75.856 E0.69325
G1 X79.673 Y76.198 E0.70728
G1 X79.866 Y76.522 E0.71982
G1 X80.021 Y76.834 E0.73141
G1 X80.191 Y77.261 E0.7467
G1 X80.295 Y77.585 E0.75802
G1 X80.405 Y78.033 E0.77336
G1 X80.491 Y78.45 E0.78752
G1 X80.562 Y78.897 E0.80257
G1 X80.618 Y79.362 E0.81815
G1 X80.659 Y79.849 E0.83441
G1 X80.683 Y80.366 E0.85162
G1 X80.69 Y80.877 E0.86862
G1 X80.682 Y81.407 E0.88625
G1 X80.658 Y81.913 E0.9031
G1 X80.61 Y82.422 E0.9201
G1 X80.547 Y82.888 E0.93574
G1 X80.474 Y83.284 E0.94913
G1 X80.369 Y83.727 E0.96428
G1 X80.255 Y84.13 E0.97821
G1 X80.11 Y84.528 E0.99229
G1 X79.983 Y84.816 E1.00276
G1 X79.788 Y85.174 E1.01632
G1 X79.544 Y85.531 E1.0307
G1 X79.348 Y85.77 E1.04098
G1 X79.064 Y86.067 E1.05465
G1 X78.784 Y86.303 E1.06683
G1 X78.52 Y86.49 E1.07759
G1 X78.204 Y86.677 E1.08981
G1 X77.807 Y86.864 E1.1044
G1 X77.489 Y86.983 E1.11569
G1 X77.069 Y87.111 E1.1303
G1 X76.72 Y87.193 E1.14222
G1 X76.285 Y87.266 E1.15689
G1 X75.829 Y87.318 E1.17216
G1 X75.414 Y87.346 E1.18599
G1 X74.911 Y87.355 E1.20272
G1 X72.643 Y87.355 E1.27816
G1 X72.283 Y87.235 E1.29078
G1 F2700 E-3.70922
G0 F6000 X72.283 Y87.255
G0 X74.911 Y87.535
G0 X74.911 Y88.438
G0 X75.605 Y88.638
G1 F2700 E1.29078
G1 F1200 X77.454 Y88.584 E1.3523
G1 X79.155 Y88.42 E1.40914
G1 X80.63 Y88.156 E1.45898
G1 X81.955 Y87.78 E1.50479
G1 X83.068 Y87.314 E1.54492
G1 X84.013 Y86.747 E1.58158
G1 X84.782 Y86.099 E1.61502
G1 X85.417 Y85.352 E1.64763
G1 X85.906 Y84.525 E1.67959
G1 X86.255 Y83.605 E1.71231
G1 X86.47 Y82.565 E1.74764
G1 X86.543 Y81.402 E1.78639
G1 X86.53 Y80.914 E1.80263
G1 X86.49 Y80.433 E1.81868
G1 X86.424 Y79.991 E1.83355
G1 X86.328 Y79.527 E1.84931
G1 X86.214 Y79.115 E1.86352
G1 X86.065 Y78.696 E1.87832
G1 X85.845 Y78.148 E1.89796
G1 X85.548 Y77.585 E1.91913
G1 X85.331 Y77.231 E1.93294
G1 X85.103 Y76.902 E1.94625
G1 X84.868 Y76.607 E1.9588
G1 X84.613 Y76.319 E1.97159
G1 X84.334 Y76.03 E1.98495
G1 X84.068 Y75.778 E1.99714
G1 X83.771 Y75.522 E2.01018
G1 X83.488 Y75.302 E2.0221
G1 X83.172 Y75.081 E2.03493
G1 X82.518 Y74.685 E2.06036
G1 X82.168 Y74.498 E2.07355
G1 X81.523 Y74.189 E2.09734
G1 X81.116 Y74.016 E2.11205
G1 X80.912 Y73.812 E2.12165
G1 X80.847 Y73.669 E2.12687
G1 X80.822 Y73.464 E2.13374
G1 X80.892 Y73.21 E2.1425
G1 X86.087 Y64.282 E2.48606
G1 X86.621 Y63.455 E2.5188
G1 X86.989 Y62.934 E2.54002
G1 X87.166 Y62.721 E2.54923
G1 X87.615 Y62.221 E2.57158
G1 X88.147 Y61.718 E2.59593
G1 X88.669 Y61.378 E2.61665
G1 X89.092 Y61.171 E2.63231
G1 X89.483 Y61.035 E2.64608
G1 X89.909 Y60.936 E2.66063
G1 X90.177 Y60.903 E2.66961
G1 X90.177 Y59.837 E2.70507
G1 X88.238 Y59.849 E2.76956
G1 X87.145 Y59.891 E2.80594
G1 X86.172 Y59.956 E2.83837
G1 X85.524 Y60.038 E2.8601
G1 X84.92 Y60.168 E2.88065
G1 X84.571 Y60.259 E2.89264
G1 X84.167 Y60.386 E2.90673
G1 X83.877 Y60.494 E2.91702
G1 X83.583 Y60.621 E2.92767
G1 X83.275 Y60.778 E2.93917
G1 X83.009 Y60.935 E2.94944
G1 X82.73 Y61.125 E2.96067
G1 X82.486 Y61.316 E2.97098
G1 X82.266 Y61.514 E2.98082
G1 X82.032 Y61.751 E2.9919
G1 X81.795 Y62.018 E3.00377
G1 X81.567 Y62.303 E3.01591
G1 X81.351 Y62.6 E3.02813
G1 X81.124 Y62.939 E3.0417
G1 X80.914 Y63.287 E3.05522
G1 X75.901 Y72.643 E3.40825
G1 X75.685 Y72.797 E3.41707
G1 X75.481 Y72.853 E3.42411
G1 X72.59 Y72.853 E3.52026
G1 X72.314 Y72.757 E3.52998
G1 X72.166 Y72.619 E3.53671
G1 X72.043 Y72.329 E3.54719
G1 X72.048 Y63.654 E3.83572
G1 X72.094 Y63.014 E3.85706
G1 X72.238 Y62.358 E3.8794
G1 X72.549 Y61.776 E3.90135
G1 X72.881 Y61.413 E3.91771
G1 X73.23 Y61.184 E3.9316
G1 X73.545 Y61.041 E3.9431
G1 X73.871 Y60.945 E3.95441
G1 X74.304 Y60.894 E3.96891
G1 X74.628 Y60.878 E3.9797
G1 X76.009 Y60.877 E4.02563
G1 X76.009 Y59.836 E4.06025
G1 X62.677 Y59.836 E4.50368
G1 X62.677 Y60.878 E4.53833
G1 X64.175 Y60.885 E4.58816
G1 X64.765 Y60.943 E4.60788
G1 X65.082 Y61.041 E4.61891
G1 X65.437 Y61.203 E4.63189
G1 X65.814 Y61.46 E4.64707
G1 X66.177 Y61.937 E4.667
G1 X66.441 Y62.517 E4.6882
G1 X66.56 Y63.112 E4.70838
G1 X66.607 Y63.646 E4.72621
G1 X66.607 Y84.763 E5.42856
G1 X66.557 Y85.31 E5.44683
G1 X66.479 Y85.715 E5.46055
G1 X66.334 Y86.149 E5.47577
G1 X66.128 Y86.558 E5.491
G1 X65.884 Y86.868 E5.50412
G1 X65.53 Y87.176 E5.51973
G1 X65.132 Y87.384 E5.53466
G1 X64.769 Y87.496 E5.5473
G1 X64.496 Y87.549 E5.55655
G1 X64.024 Y87.593 E5.57232
G1 X62.677 Y87.597 E5.61712
G1 X62.677 Y88.638 E5.65174
G1 X75.605 Y88.638 E6.08173
G0 F6000 X75.617 Y89.038
;TYPE:WALL-OUTER
G1 F1200 X77.505 Y88.982 E6.14455
G1 X79.209 Y88.816 E6.20149
G1 X80.72 Y88.546 E6.25255
G1 X82.087 Y88.158 E6.29981
G1 X83.249 Y87.672 E6.3417
G1 X84.247 Y87.073 E6.38042
G1 X85.065 Y86.383 E6.41601
G1 X85.744 Y85.585 E6.45086
G1 X86.268 Y84.699 E6.48509
G1 X86.64 Y83.717 E6.52002
G1 X86.868 Y82.619 E6.55732
G1 X86.943 Y81.409 E6.59764
G1 X86.93 Y80.892 E6.61484
G1 X86.888 Y80.387 E6.6317
G1 X86.818 Y79.921 E6.64737
G1 X86.717 Y79.433 E6.66395
G1 X86.596 Y78.995 E6.67906
G1 X86.439 Y78.554 E6.69463
G1 X86.209 Y77.98 E6.7152
G1 X85.896 Y77.387 E6.7375
G1 X85.667 Y77.013 E6.75208
G1 X85.424 Y76.663 E6.76625
G1 X85.174 Y76.349 E6.7796
G1 X84.907 Y76.047 E6.79301
G1 X84.616 Y75.746 E6.80694
G1 X84.336 Y75.481 E6.81976
G1 X84.024 Y75.212 E6.83346
G1 X83.726 Y74.98 E6.84602
G1 X83.391 Y74.746 E6.85961
G1 X82.716 Y74.337 E6.88586
G1 X82.383 Y74.158 E6.89844
G1 X81.687 Y73.824 E6.92411
G1 X81.283 Y73.65 E6.93874
G1 X81.225 Y73.534 E6.94306
G1 X81.245 Y73.399 E6.9476
G1 X86.423 Y64.499 E7.29007
G1 X86.949 Y63.685 E7.3223
G1 X87.297 Y63.189 E7.34245
G1 X87.464 Y62.987 E7.35117
G1 X87.89 Y62.512 E7.37239
G1 X88.384 Y62.045 E7.395
G1 X88.866 Y61.726 E7.41423
G1 X89.256 Y61.536 E7.42866
G1 X89.613 Y61.413 E7.44121
G1 X89.997 Y61.326 E7.45431
G1 X90.577 Y61.264 E7.47371
G1 X90.577 Y59.436 E7.53451
G1 X88.725 Y59.44 E7.59611
G1 X88.223 Y59.449 E7.61281
G1 X87.119 Y59.491 E7.64955
G1 X86.189 Y59.553 E7.68055
G1 X85.457 Y59.643 E7.70508
G1 X84.866 Y59.769 E7.72518
G1 X84.461 Y59.874 E7.7391
G1 X84.09 Y59.989 E7.75202
G1 X83.729 Y60.122 E7.76481
G1 X83.413 Y60.259 E7.77627
G1 X83.082 Y60.428 E7.78863
G1 X82.795 Y60.597 E7.79971
G1 X82.494 Y60.801 E7.8118
G1 X82.228 Y61.01 E7.82305
G1 X81.99 Y61.224 E7.8337
G1 X81.74 Y61.478 E7.84555
G1 X81.489 Y61.76 E7.85811
G1 X81.249 Y62.06 E7.87089
G1 X81.023 Y62.371 E7.88367
G1 X80.786 Y62.725 E7.89784
G1 X80.566 Y63.089 E7.91199
G1 X75.586 Y72.384 E8.26272
G1 X75.446 Y72.454 E8.26792
G1 X72.625 Y72.454 E8.36175
G1 X72.533 Y72.422 E8.36499
G1 X72.445 Y72.289 E8.37029
G1 X72.447 Y63.682 E8.65656
G1 X72.49 Y63.068 E8.67703
G1 X72.617 Y62.496 E8.69652
G1 X72.895 Y61.99 E8.71573
G1 X73.161 Y61.708 E8.72862
G1 X73.402 Y61.545 E8.7383
G1 X73.663 Y61.423 E8.74788
G1 X73.94 Y61.339 E8.75751
G1 X74.363 Y61.291 E8.77166
G1 X74.655 Y61.278 E8.78139
G1 X76.409 Y61.276 E8.83972
G1 X76.409 Y59.436 E8.90092
G1 X62.277 Y59.436 E9.37096
G1 X62.277 Y61.277 E9.43219
G1 X64.136 Y61.283 E9.49402
G1 X64.705 Y61.343 E9.51305
G1 X64.964 Y61.423 E9.52206
G1 X65.251 Y61.56 E9.53264
G1 X65.535 Y61.754 E9.54408
G1 X65.842 Y62.166 E9.56117
G1 X66.063 Y62.664 E9.57929
G1 X66.166 Y63.18 E9.59679
G1 X66.209 Y63.694 E9.61395
G1 X66.209 Y84.712 E10.31301
G1 X66.164 Y85.234 E10.33044
G1 X66.086 Y85.639 E10.34415
G1 X65.944 Y86.045 E10.35846
G1 X65.796 Y86.328 E10.36908
G1 X65.604 Y86.576 E10.37951
G1 X65.283 Y86.854 E10.39364
G1 X64.959 Y87.019 E10.40573
G1 X64.692 Y87.103 E10.41504
G1 X64.427 Y87.155 E10.42402
G1 X63.988 Y87.195 E10.43868
G1 X62.277 Y87.197 E10.49559
G1 X62.277 Y89.038 E10.55682
G1 X75.617 Y89.038 E11.00051
G1 F2700 E6.00051
G0 F6000 X75.597 Y88.739
G0 X72.643 Y88.438
G0 X72.646 Y87.536
G0 X72.643 Y86.955
G1 F2700 E11.00051
G1 F1200 X72.523 Y86.915 E11.00472
G1 X72.443 Y86.813 E11.00903
G1 X72.446 Y74.669 E11.41294
G1 X72.533 Y74.538 E11.41817
G1 X72.625 Y74.506 E11.42141
G1 X74.93 Y74.506 E11.49808
G1 X75.465 Y74.516 E11.51587
G1 X75.921 Y74.548 E11.53108
G1 X76.359 Y74.6 E11.54575
G1 X76.766 Y74.674 E11.55951
G1 X77.143 Y74.765 E11.57241
G1 X77.488 Y74.878 E11.58448
G1 X77.834 Y75.035 E11.59712
G1 X78.117 Y75.195 E11.60793
G1 X78.421 Y75.405 E11.62022
G1 X78.664 Y75.609 E11.63077
G1 X78.909 Y75.858 E11.64239
G1 X79.123 Y76.119 E11.65362
G1 X79.33 Y76.404 E11.66533
G1 X79.508 Y76.7 E11.67682
G1 X79.663 Y77.012 E11.68841
G1 X79.81 Y77.383 E11.70168
G1 X79.917 Y77.718 E11.71338
G1 X80.013 Y78.115 E11.72696
G1 X80.096 Y78.513 E11.74049
G1 X80.165 Y78.945 E11.75504
G1 X80.22 Y79.396 E11.77015
G1 X80.259 Y79.868 E11.7859
G1 X80.283 Y80.372 E11.80268
G1 X80.29 Y80.871 E11.81928
G1 X80.282 Y81.388 E11.83648
G1 X80.258 Y81.894 E11.85333
G1 X80.214 Y82.368 E11.86916
G1 X80.153 Y82.816 E11.8842
G1 X80.078 Y83.222 E11.89793
G1 X79.984 Y83.619 E11.9115
G1 X79.878 Y83.995 E11.92449
G1 X79.744 Y84.366 E11.93761
G1 X79.609 Y84.67 E11.94867
G1 X79.432 Y84.989 E11.96081
G1 X79.245 Y85.263 E11.97184
G1 X79.028 Y85.527 E11.98321
G1 X78.803 Y85.763 E11.99405
G1 X78.554 Y85.976 E12.00495
G1 X78.274 Y86.172 E12.01632
G1 X77.986 Y86.34 E12.02741
G1 X77.667 Y86.489 E12.03912
G1 X77.337 Y86.612 E12.05083
G1 X76.977 Y86.721 E12.06334
G1 X76.628 Y86.803 E12.07527
G1 X76.239 Y86.868 E12.08838
G1 X75.802 Y86.918 E12.10301
G1 X75.377 Y86.946 E12.11718
G1 X74.911 Y86.955 E12.13268
G1 X72.643 Y86.955 E12.20812
G1 F2700 E7.20812
G0 F6000 X72.643 Y87.255
G0 X74.911 Y87.535
G0 X74.911 Y88.438
G0 X75.595 Y88.233
;TYPE:SKIN
G1 F2700 E12.20812
G1 F975.6 X72.493 Y88.231 E12.33502
G1 F1073.8 X72.008 Y88.277 E12.35313
G1 F1218.3 X64.595 Y88.283 E12.59599
G1 F1276.6 X64.077 Y88.297 E12.61219
G1 F1326 X63.017 Y88.298 E12.64409
G1 F1329.6 X63.017 Y87.937 E12.65493
G1 F1326 X64.06 Y87.934 E12.68632
G1 F1276.6 X64.555 Y87.898 E12.70184
G1 F1221.4 X64.857 Y87.842 E12.71188
G1 F1206 X65.249 Y87.726 E12.72541
G1 F1200 X65.707 Y87.491 E12.74253
G1 X66.132 Y87.13 E12.76108
G1 X66.444 Y86.734 E12.77784
G1 X66.667 Y86.286 E12.79449
G1 X66.815 Y85.868 E12.80924
G1 X66.913 Y85.371 E12.82608
G1 X66.966 Y84.79 E12.84549
G1 X66.968 Y63.639 E13.54897
G1 X66.916 Y63.048 E13.56871
G1 X66.791 Y62.425 E13.58984
G1 X66.476 Y61.736 E13.61504
G1 X66.063 Y61.193 E13.63773
G1 X65.633 Y60.9 E13.65504
G1 X65.322 Y60.749 E13.66653
G1 F1206 X64.824 Y60.589 E13.68384
G1 F1259.8 X64.213 Y60.544 E13.70325
G1 F1322.3 X63.018 Y60.538 E13.73932
G1 F1326 X63.018 Y60.177 E13.75019
G1 F1322.3 X64.197 Y60.178 E13.78578
G1 F1259.8 X64.844 Y60.194 E13.80628
G1 F1206 X73.771 Y60.195 E14.10171
G1 F1250 X74.242 Y60.181 E14.11675
G1 F1315.1 X75.669 Y60.176 E14.16006
G1 F1329.6 X75.669 Y60.537 E14.1709
G1 X74.629 Y60.538 E14.20212
G1 F1315.1 X74.264 Y60.55 E14.2132
G1 F1250 X73.805 Y60.592 E14.22792
G1 F1203 X73.418 Y60.704 E14.24128
G1 F1200 X73.034 Y60.877 E14.25529
G1 X72.622 Y61.16 E14.27192
G1 X72.27 Y61.543 E14.28922
G1 X71.898 Y62.229 E14.31517
G1 X71.734 Y62.96 E14.34009
G1 X71.688 Y63.626 E14.3623
G1 X71.685 Y72.379 E14.65342
G1 X71.868 Y72.821 E14.66933
G1 F1151.1 X72.11 Y73.058 E14.68108
G1 F1064.3 X72.58 Y73.246 E14.70006
G1 F1019.1 X75.517 Y73.248 E14.81508
G1 F1098.4 X75.846 Y73.121 E14.8279
G1 F1200 X76.121 Y72.919 E14.83925
G1 X76.265 Y72.725 E14.84728
G1 X81.222 Y63.474 E15.19636
G1 X81.424 Y63.14 E15.20934
G1 X81.65 Y62.802 E15.22287
G1 X81.823 Y62.563 E15.23268
G1 X82.064 Y62.257 E15.24564
G1 X82.295 Y61.998 E15.25718
G1 X82.517 Y61.774 E15.26767
G1 X82.71 Y61.598 E15.27636
G1 X82.933 Y61.423 E15.28578
G1 X83.212 Y61.235 E15.29697
G1 X83.44 Y61.1 E15.30579
G1 X83.747 Y60.942 E15.31727
G1 X84.139 Y60.772 E15.33148
G1 X84.631 Y60.617 E15.34864
G1 X85.018 Y60.515 E15.36195
G1 X85.571 Y60.396 E15.38076
G1 X86.172 Y60.319 E15.40092
G1 X87.163 Y60.251 E15.43395
G1 X88.261 Y60.208 E15.4705
G1 X89.817 Y60.199 E15.52226
G1 X89.817 Y60.593 E15.53536
G1 X89.48 Y60.66 E15.54679
G1 X88.984 Y60.827 E15.5642
G1 X88.525 Y61.045 E15.5811
G1 X87.943 Y61.421 E15.60414
G1 X87.367 Y61.961 E15.6304
G1 X86.893 Y62.485 E15.6539
G1 X86.669 Y62.759 E15.66567
G1 X86.322 Y63.253 E15.68575
G1 X85.779 Y64.094 E15.71905
G1 X80.577 Y73.037 E16.06315
G1 X80.472 Y73.323 E16.07329
G1 X80.498 Y73.76 E16.08785
G1 X80.608 Y74.011 E16.09696
G1 X80.936 Y74.322 E16.112
G1 X81.353 Y74.509 E16.1272
G1 X82.046 Y74.84 E16.15274
G1 X82.332 Y74.993 E16.16353
G1 X82.965 Y75.376 E16.18814
G1 X83.279 Y75.597 E16.20091
G1 X83.535 Y75.796 E16.21169
G1 X83.819 Y76.041 E16.22417
G1 X84.079 Y76.288 E16.23609
G1 X84.348 Y76.565 E16.24894
G1 X84.592 Y76.839 E16.26114
G1 X84.814 Y77.117 E16.27297
G1 X85.024 Y77.419 E16.28521
G1 X85.235 Y77.764 E16.29866
G1 X85.522 Y78.305 E16.31903
G1 X85.709 Y78.773 E16.33579
G1 X85.87 Y79.224 E16.35172
G1 X85.974 Y79.602 E16.36476
G1 X86.07 Y80.063 E16.38042
G1 X86.135 Y80.487 E16.39468
G1 X86.17 Y80.925 E16.4093
G1 X86.182 Y81.381 E16.42447
G1 X86.112 Y82.517 E16.46233
G1 X85.906 Y83.51 E16.49606
G1 X85.582 Y84.365 E16.52647
G1 X85.125 Y85.137 E16.55631
G1 X84.52 Y85.847 E16.58733
G1 X83.808 Y86.449 E16.61834
G1 X82.902 Y86.993 E16.65349
G1 X81.84 Y87.437 E16.69178
G1 X80.535 Y87.808 E16.7369
G1 X79.109 Y88.061 E16.78507
G1 X77.337 Y88.236 E16.84429
G1 F1010.5 X76.885 Y88.165 E16.86237
G1 F921.3 X75.595 Y88.233 E16.91833
G1 F2700 E11.91833
G0 F6000 X75.595 Y88.538
G0 X72.668 Y88.438
G0 X72.668 Y87.535
G0 X72.571 Y87.75
G1 F2700 E16.91833
G1 F983.6 X74.909 Y87.756 E17.0132
G1 F991.7 X75.434 Y87.748 E17.03433
G1 F977.6 X75.849 Y87.725 E17.0513
G1 F946.7 X76.351 Y87.68 E17.07255
G1 F898.9 X76.814 Y87.62 E17.09328
G1 F1010.5 X77.163 Y87.459 E17.10846
G1 F1200 X77.548 Y87.343 E17.12183
G1 X77.94 Y87.198 E17.13573
G1 X78.392 Y86.985 E17.15235
G1 X78.654 Y86.832 E17.16244
G1 X79.004 Y86.586 E17.17667
G1 X79.3 Y86.338 E17.18951
G1 X79.56 Y86.073 E17.20186
G1 X79.861 Y85.709 E17.21757
G1 X80.103 Y85.35 E17.23197
G1 X80.27 Y85.049 E17.24342
G1 X80.461 Y84.619 E17.25907
G1 X80.603 Y84.228 E17.27291
G1 X80.715 Y83.834 E17.28653
G1 X80.826 Y83.367 E17.30249
G1 X80.906 Y82.929 E17.3173
G1 X80.967 Y82.477 E17.33247
G1 X81.019 Y81.934 E17.35062
G1 X81.042 Y81.42 E17.36773
G1 X81.051 Y80.877 E17.38579
