;FLAVOR:Marlin
;TIME:1465
;Filament used: 1.01759m
;Layer height: 0.2
;MINX:72.986
;MINY:59.016
;MINZ:0.2
;MAXX:107.814
;MAXY:114.595
;MAXZ:4.4
;TARGET_MACHINE.NAME:Kingroon KP3S
;Generated with Cura_SteamEngine 5.6.0
M140 S50
M105
M190 S50
M104 S230
M105
M109 S230
M82 ;absolute extrusion mode
G28 ; home all axes
G90
 M117 Purge extruder
 G92 E0 ; reset extruder
 G1 Z1.0 F3000 ; move z up little to prevent scratching of surface
 G1 X2 Y20 Z0.3 F5000.0 ; move to start-line position
 G1 X2 Y175.0 Z0.3 F1500.0 E15 ; draw 1st line
 G1 X2 Y175.0 Z0.4 F5000.0 ; move to side a little
 G1 X2 Y20 Z0.4 F1500.0 E30 ; draw 2nd line
 G92 E0 ; reset extruder
 G1 Z1.0 F3000 ; move z up little to prevent scratching of surface
G92 E0
G92 E0
G1 F2400 E-1
;LAYER_COUNT:20
;LAYER:0
M107
G1 F240 Z0.6
;MESH:rrrr.3mf
G0 F6000 X82.263 Y84.126 Z0.6
;TYPE:WALL-INNER
G1 F240 Z0.2
G1 F2400 E0
G1 F1500 X82.113 Y83.925 E0.00876
G1 X82.011 Y83.677 E0.01812
G1 X81.99 Y83.584 E0.02145
G1 X81.975 Y83.402 E0.02783
G1 X81.975 Y59.856 E0.85013
G1 X77.825 Y59.856 E0.99506
G1 X77.82 Y106.916 E2.63855
G1 X77.8 Y107.035 E2.64276
G1 X77.73 Y107.244 E2.65046
G1 X77.627 Y107.422 E2.65764
G1 X77.403 Y107.65 E2.6688
G1 X77.232 Y107.753 E2.67577
G1 X77.12 Y107.783 E2.67982
G1 X77.239 Y107.793 E2.68399
G1 X77.436 Y107.83 E2.69099
G1 X77.806 Y107.937 E2.70444
G1 X77.996 Y108.014 E2.7116
G1 X78.435 Y108.245 E2.72893
G1 X78.853 Y108.577 E2.74757
G1 X79.003 Y108.728 E2.755
G1 X79.219 Y108.992 E2.76692
G1 X79.199 Y108.672 E2.77811
G1 X79.247 Y108.465 E2.78553
G1 X79.383 Y108.2 E2.79594
G1 X79.53 Y108.033 E2.80371
G1 X79.623 Y107.956 E2.80792
G1 X79.716 Y107.897 E2.81177
G1 X79.996 Y107.785 E2.8223
G1 X80.241 Y107.757 E2.83091
G1 X95.473 Y107.756 E3.36286
G1 X96.691 Y107.695 E3.40545
G1 X97.822 Y107.523 E3.4454
G1 X98.928 Y107.239 E3.48528
G1 X99.974 Y106.856 E3.52418
G1 X100.99 Y106.367 E3.56356
G1 X101.932 Y105.795 E3.60205
G1 X102.811 Y105.137 E3.64039
G1 X103.625 Y104.396 E3.67884
G1 X104.363 Y103.583 E3.71718
G1 X105.02 Y102.705 E3.75548
G1 X105.593 Y101.759 E3.7941
G1 X106.076 Y100.756 E3.83298
G1 X106.46 Y99.707 E3.87199
G1 X106.743 Y98.607 E3.91166
G1 X106.913 Y97.482 E3.95139
G1 X106.973 Y96.307 E3.99248
G1 X106.914 Y95.132 E4.03357
G1 X106.743 Y94.007 E4.07331
G1 X106.461 Y92.906 E4.113
G1 X106.076 Y91.858 E4.15199
G1 X105.591 Y90.85 E4.19106
G1 X105.02 Y89.909 E4.2295
G1 X104.362 Y89.03 E4.26784
G1 X103.625 Y88.216 E4.30619
G1 X102.811 Y87.477 E4.34458
G1 X101.932 Y86.819 E4.38293
G1 X100.99 Y86.247 E4.42142
G1 X99.974 Y85.758 E4.4608
G1 X98.927 Y85.375 E4.49973
G1 X97.822 Y85.09 E4.53958
G1 X96.691 Y84.92 E4.57952
G1 X95.473 Y84.858 E4.62212
G1 X90.854 Y84.857 E4.78343
G1 X90.603 Y84.827 E4.79225
G1 X90.374 Y84.742 E4.80078
G1 X90.181 Y84.614 E4.80887
G1 X90.031 Y84.46 E4.81638
G1 X89.924 Y84.296 E4.82322
G1 X89.831 Y84.119 E4.8302
G1 X89.756 Y83.937 E4.83708
G1 X89.715 Y83.726 E4.84458
G1 X89.719 Y83.492 E4.85276
G1 X89.78 Y83.253 E4.86137
G1 X89.898 Y83.03 E4.87018
G1 X106.017 Y59.856 E5.85601
G1 X100.962 Y59.856 E6.03255
G1 X84.119 Y84.075 E7.06278
G1 X83.995 Y84.222 E7.0695
G1 X83.834 Y84.353 E7.07675
G1 X83.638 Y84.454 E7.08445
G1 X83.438 Y84.51 E7.0917
G1 X83.256 Y84.525 E7.09808
G1 X83.057 Y84.507 E7.10505
G1 X82.708 Y84.404 E7.11776
G1 X82.559 Y84.344 E7.12337
G1 X82.438 Y84.274 E7.12825
G1 X82.263 Y84.126 E7.13626
G1 F2400 E6.13626
G1 F240 Z0.6
G0 F6000 X90.36 Y84.199 Z0.6
G1 F240 Z0.2
G1 F2400 E7.13626
G1 F1500 X90.296 Y84.101 E7.14035
G1 X90.203 Y83.923 E7.14736
G1 X90.158 Y83.814 E7.15148
G1 X90.133 Y83.688 E7.15596
G1 X90.136 Y83.547 E7.16089
G1 X90.172 Y83.404 E7.16604
G1 X90.243 Y83.27 E7.17134
G1 X106.821 Y59.436 E8.18524
G1 X100.743 Y59.436 E8.39751
G1 X83.774 Y83.835 E9.43541
G1 X83.699 Y83.924 E9.43947
G1 X83.603 Y84.002 E9.44379
G1 X83.485 Y84.063 E9.44843
G1 X83.365 Y84.096 E9.45278
G1 X83.211 Y84.104 E9.45817
G1 X83.136 Y84.094 E9.46081
G1 X82.835 Y84.003 E9.47179
G1 X82.745 Y83.967 E9.47517
G1 X82.673 Y83.925 E9.47809
G1 X82.568 Y83.837 E9.48287
G1 X82.478 Y83.716 E9.48814
G1 X82.416 Y83.567 E9.49377
G1 X82.395 Y83.402 E9.49958
G1 X82.395 Y59.436 E10.33655
G1 X77.405 Y59.436 E10.51082
G1 X77.402 Y106.872 E12.16743
G1 X77.39 Y106.944 E12.16998
G1 X77.348 Y107.069 E12.17458
G1 X77.287 Y107.176 E12.17889
G1 X77.152 Y107.312 E12.18558
G1 F1255 X76.84 Y107.516 E12.20114
G1 F1086.2 X76.189 Y107.571 E12.23265
G1 F1093.7 X75.566 Y107.751 E12.2637
G1 X74.973 Y108.056 E12.29564
G1 F1091.9 X74.45 Y108.481 E12.32798
G1 X74.025 Y109.004 E12.36031
G1 F1093.7 X73.72 Y109.597 E12.39225
G1 X73.54 Y110.221 E12.42335
G1 F1091.9 X73.487 Y110.805 E12.45148
G1 F1090 X73.54 Y111.392 E12.47981
G1 F1091.9 X73.72 Y112.017 E12.51102
G1 X74.025 Y112.609 E12.54297
G1 X74.45 Y113.131 E12.57526
G1 X74.979 Y113.559 E12.60791
G1 F1093.7 X75.559 Y113.86 E12.63921
G1 X76.189 Y114.042 E12.67061
G1 F1091.9 X76.775 Y114.094 E12.69884
G1 F1090 X77.362 Y114.041 E12.72717
G1 F1091.9 X77.992 Y113.86 E12.75861
G1 X78.572 Y113.559 E12.78997
G1 X79.1 Y113.131 E12.82258
G1 X79.528 Y112.602 E12.85522
G1 F1093.7 X79.829 Y112.023 E12.88648
G1 F1091.9 X80.011 Y111.393 E12.91794
G1 X80.063 Y110.804 E12.94631
G1 F1086.2 X80.037 Y110.392 E12.96622
G1 F1082.5 X79.951 Y109.963 E12.98739
G1 F1084.3 X79.815 Y109.552 E13.0083
G1 X79.603 Y109.122 E13.03147
G1 F1162.4 X79.591 Y108.974 E13.03816
G1 F1369.6 X79.615 Y108.726 E13.04769
G1 F1500 X79.644 Y108.602 E13.05213
G1 X79.726 Y108.443 E13.05838
G1 X79.771 Y108.386 E13.06092
G1 X79.87 Y108.296 E13.06559
G1 X79.926 Y108.261 E13.0679
G1 X80.094 Y108.194 E13.07421
G1 X80.241 Y108.177 E13.07938
G1 X95.484 Y108.176 E13.61172
G1 X96.733 Y108.113 E13.65539
G1 X97.906 Y107.935 E13.69682
G1 X99.052 Y107.641 E13.73814
G1 X100.138 Y107.244 E13.77852
G1 X101.191 Y106.737 E13.81934
G1 X102.167 Y106.144 E13.85922
G1 X103.079 Y105.461 E13.89901
G1 X103.922 Y104.694 E13.93881
G1 X104.687 Y103.851 E13.97857
G1 X105.369 Y102.941 E14.01828
G1 X105.963 Y101.96 E14.05833
G1 X106.463 Y100.92 E14.09863
G1 X106.862 Y99.832 E14.13911
G1 X107.155 Y98.691 E14.18025
G1 X107.332 Y97.524 E14.22147
G1 X107.393 Y96.307 E14.26402
G1 X107.332 Y95.09 E14.30658
G1 X107.155 Y93.923 E14.3478
G1 X106.862 Y92.782 E14.38894
G1 X106.463 Y91.694 E14.42941
G1 X105.961 Y90.65 E14.46986
G1 X105.369 Y89.674 E14.50973
G1 X104.687 Y88.763 E14.54947
G1 X103.922 Y87.919 E14.58925
G1 X103.079 Y87.153 E14.62903
G1 X102.167 Y86.47 E14.66882
G1 X101.191 Y85.877 E14.70871
G1 X100.138 Y85.371 E14.74951
G1 X99.052 Y84.973 E14.7899
G1 X97.906 Y84.678 E14.83123
G1 X96.733 Y84.501 E14.87265
G1 X95.484 Y84.438 E14.91633
G1 X90.854 Y84.437 E15.07802
G1 X90.703 Y84.419 E15.08333
G1 X90.566 Y84.368 E15.08844
G1 X90.45 Y84.291 E15.0933
G1 X90.36 Y84.199 E15.0978
G1 F2400 E14.0978
G1 F240 Z0.6
G0 F6000 X82.779 Y89.035 Z0.6
G1 F240 Z0.2
G1 F2400 E15.0978
G1 F1500 X82.898 Y89.014 E15.10202
G1 X83.025 Y89.007 E15.10646
G1 X95.565 Y89.008 E15.54439
G1 X96.938 Y89.143 E15.59258
G1 X97.044 Y89.164 E15.59635
G1 X98.322 Y89.559 E15.64306
G1 X98.416 Y89.599 E15.64663
G1 X99.57 Y90.225 E15.69248
G1 X99.655 Y90.282 E15.69605
G1 X100.658 Y91.112 E15.74152
G1 X100.73 Y91.184 E15.74508
G1 X101.559 Y92.185 E15.79047
G1 X101.616 Y92.27 E15.79404
G1 X102.236 Y93.421 E15.8397
G1 X102.276 Y93.515 E15.84327
G1 X102.67 Y94.786 E15.88974
G1 X102.69 Y94.89 E15.89344
G1 X102.827 Y96.253 E15.94128
G1 X102.827 Y96.361 E15.94505
G1 X102.691 Y97.724 E15.99288
G1 X102.67 Y97.828 E15.99659
G1 X102.277 Y99.099 E16.04305
G1 X102.237 Y99.192 E16.04659
G1 X101.616 Y100.342 E16.09223
G1 X101.559 Y100.427 E16.0958
G1 X100.73 Y101.43 E16.14125
G1 X100.659 Y101.501 E16.14475
G1 X99.655 Y102.33 E16.19022
G1 X99.57 Y102.388 E16.19382
G1 X98.417 Y103.012 E16.2396
G1 X98.323 Y103.053 E16.24318
G1 X97.041 Y103.449 E16.29004
G1 X96.937 Y103.471 E16.29375
G1 X95.565 Y103.606 E16.3419
G1 X83.025 Y103.607 E16.77984
G1 X82.74 Y103.567 E16.78989
G1 X82.486 Y103.458 E16.79954
G1 X82.282 Y103.299 E16.80857
G1 X82.123 Y103.095 E16.81761
G1 X82.014 Y102.841 E16.82726
G1 X81.99 Y102.738 E16.83095
G1 X81.975 Y102.556 E16.83733
G1 X81.975 Y90.057 E17.27383
G1 X82.011 Y89.782 E17.28352
G1 X82.113 Y89.534 E17.29288
G1 X82.263 Y89.333 E17.30164
G1 X82.438 Y89.185 E17.30965
G1 X82.559 Y89.115 E17.31453
G1 X82.779 Y89.035 E17.3227
G0 F6000 X82.745 Y89.492
G1 F1500 X82.835 Y89.456 E17.32609
G1 X82.949 Y89.431 E17.33017
G1 X95.544 Y89.427 E17.77002
G1 X96.876 Y89.559 E17.81677
G1 X98.177 Y89.954 E17.86425
G1 X99.403 Y90.619 E17.91296
G1 X100.419 Y91.466 E17.95915
G1 X101.257 Y92.488 E18.00531
G1 X101.881 Y93.659 E18.05165
G1 X102.275 Y94.953 E18.09889
G1 X102.407 Y96.274 E18.14525
G1 X102.407 Y96.339 E18.14752
G1 X102.275 Y97.661 E18.19392
G1 X101.882 Y98.954 E18.24111
G1 X101.257 Y100.124 E18.28744
G1 X100.376 Y101.19 E18.33574
G1 X99.352 Y102.028 E18.38195
G1 X98.178 Y102.658 E18.42848
G1 X96.874 Y103.055 E18.47608
G1 X95.544 Y103.187 E18.52275
G1 X83.025 Y103.187 E18.95996
G1 X82.854 Y103.163 E18.96599
G1 X82.701 Y103.097 E18.97181
G1 X82.579 Y103.002 E18.97721
G1 X82.484 Y102.88 E18.98261
G1 X82.418 Y102.727 E18.98843
G1 X82.395 Y102.556 E18.99445
G1 X82.395 Y90.057 E19.43096
G1 X82.416 Y89.892 E19.43677
G1 X82.478 Y89.743 E19.4424
G1 X82.568 Y89.622 E19.44767
G1 X82.673 Y89.534 E19.45245
G1 X82.745 Y89.492 E19.45536
G1 F2400 E18.45536
G1 F240 Z0.6
G0 F6000 X78.691 Y112.722 Z0.6
G1 F240 Z0.2
G1 F2400 E19.45536
G1 F1091.9 X78.256 Y113.075 E19.48224
G1 X77.777 Y113.324 E19.50814
G1 X77.259 Y113.472 E19.53399
G1 F1090 X76.775 Y113.515 E19.55734
G1 F1091.9 X76.29 Y113.472 E19.5807
G1 F1093.7 X75.774 Y113.324 E19.60641
G1 X75.295 Y113.075 E19.63227
G1 F1091.9 X74.859 Y112.722 E19.65918
G1 X74.509 Y112.291 E19.68582
G1 X74.257 Y111.804 E19.71213
G1 X74.109 Y111.289 E19.73784
G1 F1090 X74.066 Y110.805 E19.76119
G1 F1091.9 X74.11 Y110.321 E19.78451
G1 F1093.7 X74.257 Y109.808 E19.81007
G1 X74.509 Y109.322 E19.83629
G1 F1091.9 X74.859 Y108.89 E19.86296
G1 X75.291 Y108.54 E19.88964
G1 F1093.7 X75.777 Y108.288 E19.91586
G1 X76.293 Y108.14 E19.94157
G1 F1086.2 X76.84 Y108.096 E19.96803
G1 F1255 X77.201 Y108.212 E19.98386
G1 F1500 X77.319 Y108.234 E19.98805
G1 X77.689 Y108.341 E20.0015
G1 X77.803 Y108.387 E20.0058
G1 X78.209 Y108.599 E20.02179
G1 X78.588 Y108.903 E20.03876
G1 F1369.6 X78.969 Y109.287 E20.05945
G1 F1162.4 X79.082 Y109.384 E20.06616
G1 F1084.3 X79.283 Y109.781 E20.08766
G1 X79.389 Y110.118 E20.10473
G1 F1088.1 X79.438 Y110.311 E20.11431
G1 F1090 X79.458 Y110.454 E20.12125
G1 F1086.2 X79.485 Y110.801 E20.13804
G1 F1091.9 X79.441 Y111.292 E20.16169
G1 X79.292 Y111.808 E20.18746
G1 F1093.7 X79.044 Y112.288 E20.21333
G1 F1091.9 X78.691 Y112.722 E20.24017
G1 F2400 E19.24017
G1 F240 Z0.6
G0 F6000 X74.924 Y112.016 Z0.6
;TYPE:WALL-OUTER
G1 F240 Z0.2
G1 F2400 E20.24017
G1 F1500 X74.72 Y111.621 E20.2557
G1 X74.598 Y111.184 E20.27154
G1 X74.565 Y110.786 E20.28549
G1 X74.601 Y110.404 E20.29889
G1 X74.72 Y109.991 E20.3139
G1 X74.924 Y109.597 E20.3294
G1 X75.212 Y109.243 E20.34533
G1 X75.566 Y108.955 E20.36127
G1 X75.96 Y108.751 E20.37676
G1 X76.381 Y108.631 E20.39205
G1 X76.794 Y108.596 E20.40653
G1 X77.163 Y108.63 E20.41947
G1 X77.61 Y108.76 E20.43573
G1 X77.983 Y108.953 E20.45039
G1 X78.352 Y109.259 E20.46713
G1 X78.636 Y109.614 E20.48301
G1 X78.828 Y109.986 E20.49763
G1 X78.95 Y110.408 E20.51297
G1 X78.986 Y110.803 E20.52682
G1 X78.95 Y111.209 E20.54106
G1 X78.822 Y111.638 E20.55669
G1 X78.626 Y112.017 E20.57159
G1 X78.339 Y112.37 E20.58748
G1 X77.986 Y112.657 E20.60337
G1 X77.589 Y112.862 E20.61897
G1 X77.171 Y112.981 E20.63415
G1 X76.757 Y113.016 E20.64866
G1 X76.373 Y112.981 E20.66213
G1 X75.943 Y112.854 E20.67779
G1 X75.565 Y112.657 E20.69267
G1 X75.212 Y112.369 E20.70858
G1 X74.924 Y112.016 E20.72449
G1 F2400 E19.72449
G1 F240 Z0.6
G0 F6000 X100.107 Y91.748 Z0.6
G1 F240 Z0.2
G1 F2400 E20.72449
G1 F1500 X100.886 Y92.689 E20.76716
G1 X101.479 Y93.785 E20.81067
G1 X101.855 Y94.995 E20.85492
G1 X101.988 Y96.307 E20.90098
G1 X101.855 Y97.619 E20.94703
G1 X101.479 Y98.828 E20.99125
G1 X100.886 Y99.923 E21.03474
G1 X100.093 Y100.879 E21.07812
G1 X99.151 Y101.658 E21.1208
G1 X98.053 Y102.255 E21.16445
G1 X96.811 Y102.639 E21.20985
G1 X95.522 Y102.767 E21.25509
G1 X83.025 Y102.767 E21.69152
G1 X82.968 Y102.759 E21.69353
G1 X82.917 Y102.737 E21.69547
G1 X82.876 Y102.705 E21.69729
G1 X82.844 Y102.664 E21.69911
G1 X82.822 Y102.613 E21.70105
G1 X82.815 Y102.556 E21.70305
G1 X82.815 Y90.057 E22.13956
G1 X82.822 Y90.002 E22.14149
G1 X82.852 Y89.927 E22.14431
G1 X82.931 Y89.868 E22.14776
G1 X82.999 Y89.848 E22.15023
G1 X95.532 Y89.848 E22.58792
G1 X96.834 Y89.979 E22.63362
G1 X98.033 Y90.349 E22.67744
G1 X99.151 Y90.955 E22.72186
G1 X100.107 Y91.748 E22.76523
G1 F2400 E21.76523
G1 F240 Z0.6
G0 F6000 X107.814 Y96.307 Z0.6
G1 F240 Z0.2
G1 F2400 E22.76523
G1 F1500 X107.814 Y96.307
G1 X107.75 Y95.048 E22.80926
G1 X107.567 Y93.839 E22.85196
G1 X107.264 Y92.657 E22.89458
G1 X106.851 Y91.53 E22.93649
G1 X106.331 Y90.45 E22.97835
G1 X105.717 Y89.438 E23.01969
G1 X105.011 Y88.495 E23.06083
G1 X104.22 Y87.622 E23.10197
G1 X103.347 Y86.829 E23.14316
G1 X102.403 Y86.122 E23.18435
G1 X101.391 Y85.507 E23.22571
G1 X100.302 Y84.983 E23.26791
G1 X99.177 Y84.571 E23.30975
G1 X97.99 Y84.266 E23.35255
G1 X96.775 Y84.083 E23.39546
G1 X95.494 Y84.018 E23.44026
G1 X90.803 Y84.011 E23.60408
G1 X90.7 Y83.96 E23.6081
G1 X90.56 Y83.692 E23.61865
G1 X90.55 Y83.575 E23.62276
G1 X107.624 Y59.016 E24.66734
G1 X100.523 Y59.016 E24.91533
G1 X83.404 Y83.625 E25.96225
G1 X83.333 Y83.671 E25.9652
G1 X83.241 Y83.685 E25.96845
G1 X82.931 Y83.591 E25.97976
G1 X82.852 Y83.532 E25.98321
G1 X82.822 Y83.457 E25.98603
G1 X82.815 Y83.402 E25.98796
G1 X82.815 Y59.016 E26.8396
G1 X76.985 Y59.016 E27.0432
G1 X76.98 Y106.852 E28.71378
G1 X76.946 Y106.93 E28.71676
G1 X76.867 Y106.996 E28.72035
G1 X76.795 Y107.016 E28.72296
G1 X76.096 Y107.079 E28.74747
G1 X75.381 Y107.286 E28.77347
G1 X74.699 Y107.637 E28.80025
G1 X74.096 Y108.127 E28.82739
G1 X73.606 Y108.73 E28.85452
G1 X73.255 Y109.412 E28.88131
G1 X73.048 Y110.128 E28.90734
G1 X72.986 Y110.805 E28.93108
G1 X73.048 Y111.485 E28.95493
G1 X73.255 Y112.202 E28.98099
G1 X73.606 Y112.883 E29.00775
G1 X74.096 Y113.486 E29.03488
G1 X74.705 Y113.978 E29.06222
G1 X75.373 Y114.325 E29.08851
G1 X76.096 Y114.534 E29.11479
G1 X76.775 Y114.595 E29.1386
G1 X77.455 Y114.534 E29.16245
G1 X78.178 Y114.325 E29.18873
G1 X78.846 Y113.978 E29.21502
G1 X79.455 Y113.486 E29.24236
G1 X79.947 Y112.877 E29.2697
G1 X80.294 Y112.209 E29.29599
G1 X80.503 Y111.486 E29.32227
G1 X80.564 Y110.811 E29.34594
G1 X80.535 Y110.328 E29.36284
G1 X80.437 Y109.835 E29.38039
G1 X80.279 Y109.362 E29.39781
G1 X80.037 Y108.86 E29.41727
G1 X80.032 Y108.78 E29.42007
G1 X80.069 Y108.685 E29.42363
G1 X80.117 Y108.636 E29.42603
G1 X80.192 Y108.602 E29.4289
G1 X95.494 Y108.596 E29.9633
G1 X96.775 Y108.531 E30.00809
G1 X97.99 Y108.347 E30.05101
G1 X99.177 Y108.043 E30.0938
G1 X100.302 Y107.631 E30.13564
G1 X101.391 Y107.107 E30.17784
G1 X102.403 Y106.492 E30.2192
G1 X103.347 Y105.785 E30.26039
G1 X104.22 Y104.991 E30.3016
G1 X105.011 Y104.119 E30.34271
G1 X105.717 Y103.176 E30.38385
G1 X106.333 Y102.16 E30.42535
G1 X106.851 Y101.084 E30.46705
G1 X107.264 Y99.957 E30.50897
G1 X107.567 Y98.775 E30.55159
G1 X107.75 Y97.566 E30.59429
G1 X107.814 Y96.307 E30.63831
G1 F2400 E29.63831
G1 F240 Z0.6
G0 F6000 X82.044 Y103.538 Z0.6
;TYPE:SKIN
G1 F240 Z0.2
G1 F2400 E30.63831
G1 F900 X82.338 Y103.76 E30.65118
G1 X82.619 Y103.88 E30.66185
G1 X83.002 Y103.941 E30.67539
