;FLAVOR:Marlin
;TIME:1234
;Filament used: 0.633876m
;Layer height: 0.2
;MINX:78.331
;MINY:68.147
;MINZ:0.2
;MAXX:101.667
;MAXY:111.327
;MAXZ:16.4
;TARGET_MACHINE.NAME:Kingroon KP3S
;Generated with Cura_SteamEngine 5.6.0
M140 S60
M104 S220
M190 S60
M109 S220
M82 ;absolute extrusion mode
G28 ; home all axes
G90
 M117 Purge extruder
 G92 E0 ; reset extruder
 G1 Z1.0 F3000 ; move z up little to prevent scratching of surface
 G1 X2 Y20 Z0.3 F5000.0 ; move to start-line position
 G1 X2 Y175.0 Z0.3 F1500.0 E15 ; draw 1st line
 G1 X2 Y175.0 Z0.4 F5000.0 ; move to side a little
 G1 X2 Y20 Z0.4 F1500.0 E30 ; draw 2nd line
 G92 E0 ; reset extruder
 G1 Z1.0 F3000 ; move z up little to prevent scratching of surface
G92 E0
G92 E0
G1 F2400 E-4
;LAYER_COUNT:80
;LAYER:0
M107
G1 F240 Z0.6
G0 F6000 X86.871 Y72.525 Z0.6
;TYPE:SKIRT
G1 F240 Z0.2
G1 F2400 E0
G1 F900 X88.127 Y71.198 E0.06685
G1 X89.867 Y70.711 E0.13295
G1 X91.607 Y71.198 E0.19906
G1 X92.863 Y72.525 E0.26591
G1 X93.35 Y74.191 E0.32941
G1 X92.863 Y75.931 E0.39552
G1 X91.605 Y77.189 E0.46061
G1 X89.866 Y77.676 E0.52668
G1 X88.204 Y77.19 E0.59003
G1 X86.87 Y75.856 E0.65905
G1 X86.382 Y74.193 E0.72246
G1 X86.871 Y72.525 E0.78606
G0 F6000 X87.263 Y72.751
G1 F900 X88.363 Y71.589 E0.8446
G1 X89.867 Y71.167 E0.90175
G1 X91.371 Y71.589 E0.9589
G1 X92.471 Y72.751 E1.01744
G1 X92.893 Y74.193 E1.07241
G1 X92.47 Y75.702 E1.12975
G1 X91.376 Y76.796 E1.18635
G1 X89.867 Y77.219 E1.24369
G1 X88.436 Y76.8 E1.29824
G1 X87.26 Y75.624 E1.35909
G1 X86.841 Y74.193 E1.41364
G1 X87.263 Y72.751 E1.46861
G0 F6000 X87.656 Y72.975
G1 F900 X88.599 Y71.98 E1.51876
G1 X89.867 Y71.624 E1.56695
G1 X91.135 Y71.98 E1.61513
G1 X92.077 Y72.975 E1.66526
G1 X92.435 Y74.198 E1.71189
G1 X92.078 Y75.472 E1.76029
G1 X91.146 Y76.404 E1.80851
G1 X89.872 Y76.761 E1.85692
G1 X88.666 Y76.408 E1.90289
G1 X87.652 Y75.394 E1.95536
G1 X87.3 Y74.192 E2.00118
G1 X87.656 Y72.975 E2.04757
G0 F6000 X88.049 Y73.201
G1 F900 X88.834 Y72.371 E2.08937
G1 X89.867 Y72.082 E2.12862
G1 X90.9 Y72.371 E2.16786
G1 X91.685 Y73.201 E2.20966
G1 X91.977 Y74.2 E2.24774
G1 X91.685 Y75.243 E2.28736
G1 X90.917 Y76.011 E2.3271
G1 X89.874 Y76.303 E2.36673
G1 X88.898 Y76.018 E2.40393
G1 X88.042 Y75.162 E2.44822
G1 X87.758 Y74.193 E2.48516
G1 X88.049 Y73.201 E2.52298
G0 F6000 X88.441 Y73.427
G1 F900 X89.071 Y72.761 E2.55652
G1 X89.867 Y72.538 E2.58677
G1 X90.663 Y72.761 E2.61701
G1 X91.293 Y73.427 E2.65055
G1 X91.519 Y74.201 E2.68005
G1 X91.292 Y75.014 E2.71093
G1 X90.688 Y75.618 E2.74218
G1 X89.875 Y75.845 E2.77307
G1 X89.129 Y75.627 E2.8015
G1 X88.433 Y74.931 E2.83751
G1 X88.216 Y74.193 E2.86566
G1 X88.441 Y73.427 E2.89487
G0 F6000 X88.833 Y73.652
G1 F900 X89.307 Y73.152 E2.92007
G1 X89.867 Y72.995 E2.94135
G1 X90.427 Y73.152 E2.96263
G1 X90.9 Y73.651 E2.98778
G1 X91.062 Y74.206 E3.00894
G1 X90.9 Y74.784 E3.0309
G1 X90.458 Y75.226 E3.05377
G1 X89.88 Y75.388 E3.07573
G1 X89.36 Y75.236 E3.09555
G1 X88.823 Y74.699 E3.12333
G1 X88.675 Y74.193 E3.14262
G1 X88.833 Y73.652 E3.16324
G0 F6000 X89.226 Y73.877
G1 F900 X89.542 Y73.544 E3.18004
G1 X89.867 Y73.452 E3.1924
G1 X90.192 Y73.544 E3.20475
G1 X90.508 Y73.877 E3.22155
G1 X90.604 Y74.207 E3.23412
G1 X90.507 Y74.555 E3.24734
G1 X90.229 Y74.833 E3.26172
G1 X89.882 Y74.93 E3.27491
G1 X89.591 Y74.845 E3.286
G1 X89.214 Y74.468 E3.3055
G1 X89.133 Y74.194 E3.31596
G1 X89.226 Y73.877 E3.32804
G0 F6000 X89.618 Y74.103
G1 F900 X89.779 Y73.934 E3.33658
G1 X89.867 Y73.909 E3.33993
G1 X89.955 Y73.934 E3.34328
G1 X90.116 Y74.103 E3.35182
G1 X90.147 Y74.209 E3.35586
G1 X90.114 Y74.326 E3.36031
G1 X90 Y74.44 E3.3662
G1 X89.883 Y74.473 E3.37065
G1 X89.823 Y74.455 E3.37294
G1 X89.605 Y74.237 E3.38422
G1 X89.592 Y74.192 E3.38594
G1 X89.618 Y74.103 E3.38933
G1 F2400 E-0.61067
G1 F240 Z0.6
;MESH:sitting.stl
G0 F6000 X90.001 Y110.006 Z0.6
;TYPE:WALL-INNER
G1 F240 Z0.2
G1 F2400 E3.38933
G1 F900 X90.362 Y109.991 E3.40255
G1 X90.742 Y109.947 E3.41654
G1 X91.109 Y109.876 E3.43022
G1 X91.494 Y109.766 E3.44487
G1 X91.831 Y109.639 E3.45805
G1 X92.213 Y109.458 E3.47351
G1 X92.56 Y109.257 E3.48818
G1 X92.883 Y109.031 E3.5026
G1 X93.209 Y108.76 E3.51811
G1 X93.493 Y108.479 E3.53273
G1 X93.739 Y108.191 E3.54659
G1 X93.98 Y107.854 E3.56175
G1 X94.182 Y107.517 E3.57612
G1 X94.349 Y107.178 E3.58995
G1 X94.497 Y106.8 E3.6048
G1 X94.608 Y106.431 E3.6189
G1 X94.686 Y106.075 E3.63223
G1 X94.732 Y105.734 E3.64482
G1 X94.757 Y105.313 E3.66025
G1 X94.747 Y104.933 E3.67416
G1 X94.706 Y104.547 E3.68836
G1 X94.635 Y104.178 E3.70211
G1 X94.525 Y103.782 E3.71714
G1 X94.379 Y103.392 E3.73238
G1 X94.215 Y103.043 E3.74649
G1 X94.005 Y102.683 E3.76174
G1 X93.788 Y102.372 E3.77561
G1 X93.517 Y102.047 E3.79109
G1 X93.242 Y101.768 E3.80542
G1 X92.944 Y101.511 E3.81982
G1 X92.65 Y101.298 E3.8331
G1 X92.175 Y101.005 E3.85352
G1 X92.006 Y100.871 E3.86141
G1 X91.816 Y100.672 E3.87148
G1 X91.715 Y100.542 E3.8775
G1 X91.614 Y100.376 E3.88461
G1 X91.524 Y100.172 E3.89277
G1 X91.46 Y99.931 E3.90189
G1 X91.416 Y99.625 E3.9132
G1 X91.461 Y99.148 E3.93073
G1 X91.617 Y98.764 E3.9459
G1 X91.702 Y98.617 E3.95211
G1 X91.859 Y98.403 E3.96182
G1 X92.004 Y98.259 E3.9693
G1 X92.127 Y98.162 E3.97503
G1 X92.28 Y98.066 E3.98164
G1 X92.507 Y97.956 E3.99086
G1 X92.682 Y97.891 E3.99769
G1 X92.914 Y97.84 E4.00638
G1 X94.014 Y97.689 E4.04701
G1 X94.98 Y97.516 E4.08291
G1 X95.95 Y97.303 E4.11925
G1 X96.918 Y97.05 E4.15585
G1 X97.066 Y96.997 E4.1616
G1 X97.261 Y96.896 E4.16964
G1 X97.388 Y96.805 E4.17535
G1 X97.538 Y96.66 E4.18299
G1 X97.632 Y96.539 E4.18859
G1 X97.729 Y96.367 E4.19582
G1 X97.793 Y96.203 E4.20226
G1 X97.849 Y95.962 E4.21131
G1 X97.985 Y95.119 E4.24255
G1 F851.6 X98.153 Y93.925 E4.28917
G1 F816.5 X100.092 Y82.009 E4.77604
G1 F825 X99.606 Y82.009 E4.79544
G1 X97.735 Y93.541 E5.26172
G1 F814.8 X97.678 Y93.806 E5.27267
G1 F818.2 X97.629 Y93.907 E5.27719
G1 F864.6 X97.104 Y94.593 E5.31009
G1 F900 X97.002 Y94.672 E5.31481
G1 X96.597 Y94.895 E5.33173
G1 X96.442 Y94.947 E5.33771
G1 X96.191 Y94.987 E5.34701
G1 X95.94 Y94.99 E5.35619
G1 X95.776 Y94.981 E5.3622
G1 X95.283 Y94.843 E5.38093
G1 X95.085 Y94.731 E5.38925
G1 X94.86 Y94.572 E5.39933
G1 X94.551 Y94.229 E5.41622
G1 X94.437 Y94.021 E5.4249
G1 X94.322 Y93.698 E5.43744
G1 X94.285 Y93.542 E5.44331
G1 X94.264 Y93.393 E5.44881
G1 X94.259 Y81.988 E5.86608
G1 X85.739 Y81.988 E6.17779
G1 X85.733 Y93.404 E6.59546
G1 X85.702 Y93.6 E6.60272
G1 X85.633 Y93.857 E6.61246
G1 X85.565 Y94.02 E6.61892
G1 X85.455 Y94.209 E6.62692
G1 X85.294 Y94.408 E6.63628
G1 X85.124 Y94.58 E6.64513
G1 X84.733 Y94.836 E6.66223
G1 X84.385 Y94.947 E6.67559
G1 X84.186 Y94.983 E6.68299
G1 X83.847 Y94.993 E6.6954
G1 X83.639 Y94.961 E6.7031
G1 X83.5 Y94.924 E6.70836
G1 X83.217 Y94.804 E6.71961
G1 X82.816 Y94.537 E6.73724
G1 F893.9 X82.487 Y94.11 E6.75709
G1 F842.6 X82.321 Y93.804 E6.7707
G1 F813.1 X82.261 Y93.54 E6.78166
G1 F825 X80.393 Y82.008 E7.24793
G1 F823.3 X79.905 Y82.008 E7.26744
G1 F811.5 X81.843 Y93.924 E7.75732
G1 F842.6 X81.883 Y94.308 E7.77241
G1 F893.9 X82.148 Y95.961 E7.83407
G1 F900 X82.203 Y96.199 E7.84301
G1 X82.263 Y96.357 E7.84919
G1 X82.361 Y96.531 E7.8565
G1 X82.462 Y96.667 E7.8627
G1 X82.587 Y96.788 E7.86906
G1 X82.739 Y96.898 E7.87593
G1 X82.906 Y96.986 E7.88283
G1 X83.084 Y97.05 E7.88975
G1 X84.095 Y97.313 E7.92797
G1 X85.045 Y97.522 E7.96356
G1 X86.049 Y97.7 E8.00087
G1 X87.077 Y97.84 E8.03882
G1 X87.291 Y97.885 E8.04682
G1 X87.458 Y97.943 E8.05329
G1 X87.692 Y98.047 E8.06266
G1 X87.867 Y98.155 E8.07018
G1 X87.99 Y98.252 E8.07592
G1 X88.135 Y98.397 E8.08342
G1 X88.291 Y98.612 E8.09314
G1 X88.379 Y98.758 E8.09937
G1 X88.533 Y99.142 E8.11451
G1 X88.576 Y99.619 E8.13203
G1 X88.547 Y99.923 E8.1432
G1 X88.482 Y100.163 E8.1523
G1 X88.391 Y100.368 E8.16051
G1 X88.289 Y100.533 E8.1676
G1 X88.089 Y100.772 E8.17901
G1 X87.989 Y100.872 E8.18418
G1 X87.821 Y101.006 E8.19204
G1 X87.365 Y101.287 E8.21164
G1 X87.089 Y101.485 E8.22407
G1 X86.774 Y101.752 E8.23917
G1 X86.506 Y102.018 E8.25299
G1 X86.25 Y102.318 E8.26742
G1 X86.026 Y102.631 E8.2815
G1 X85.815 Y102.984 E8.29655
G1 X85.64 Y103.341 E8.31109
G1 X85.486 Y103.74 E8.32674
G1 X85.383 Y104.094 E8.34023
G1 X85.3 Y104.501 E8.35543
G1 X85.255 Y104.899 E8.37008
G1 X85.241 Y105.28 E8.38403
G1 X85.261 Y105.675 E8.3985
G1 X85.313 Y106.074 E8.41322
G1 X85.388 Y106.426 E8.42639
G1 X85.496 Y106.785 E8.4401
G1 X85.633 Y107.138 E8.45396
G1 X85.799 Y107.484 E8.468
G1 X85.991 Y107.811 E8.48187
G1 X86.221 Y108.141 E8.49659
G1 X86.481 Y108.452 E8.51142
G1 X86.746 Y108.721 E8.52523
G1 X87.074 Y109 E8.54099
G1 X87.384 Y109.223 E8.55496
G1 X87.739 Y109.435 E8.57009
G1 X88.094 Y109.608 E8.58453
G1 X88.477 Y109.756 E8.59956
G1 X88.833 Y109.859 E8.61312
G1 X89.235 Y109.943 E8.62814
G1 X89.614 Y109.989 E8.64211
G1 X90.001 Y110.006 E8.65628
G0 F6000 X90 Y110.446
G1 F900 X90.396 Y110.43 E8.67078
G1 X90.81 Y110.383 E8.68602
G1 X91.212 Y110.304 E8.70101
G1 X91.632 Y110.184 E8.71699
G1 X92.003 Y110.044 E8.7315
G1 X92.418 Y109.848 E8.74829
G1 X92.797 Y109.628 E8.76433
G1 X93.15 Y109.381 E8.78009
G1 X93.505 Y109.086 E8.79698
G1 X93.816 Y108.778 E8.81299
G1 X94.085 Y108.462 E8.82817
G1 X94.348 Y108.095 E8.84469
G1 X94.568 Y107.728 E8.86035
G1 X94.752 Y107.356 E8.87553
G1 X94.914 Y106.943 E8.89176
G1 X95.035 Y106.541 E8.90712
G1 X95.119 Y106.152 E8.92168
G1 X95.171 Y105.777 E8.93553
G1 X95.197 Y105.32 E8.95228
G1 X95.187 Y104.904 E8.9675
G1 X95.142 Y104.482 E8.98303
G1 X95.064 Y104.077 E8.99812
G1 X94.944 Y103.646 E9.01449
G1 X94.785 Y103.222 E9.03106
G1 X94.605 Y102.838 E9.04657
G1 X94.377 Y102.445 E9.0632
G1 X94.138 Y102.104 E9.07843
G1 X93.844 Y101.751 E9.09524
G1 X93.543 Y101.446 E9.11092
G1 X93.217 Y101.166 E9.12664
G1 X92.895 Y100.932 E9.1412
G1 X92.424 Y100.642 E9.16144
G1 X92.303 Y100.547 E9.16707
G1 X92.148 Y100.382 E9.17535
G1 X92.075 Y100.289 E9.17967
G1 X92.003 Y100.171 E9.18473
G1 X91.939 Y100.025 E9.19056
G1 X91.894 Y99.853 E9.19707
G1 X91.855 Y99.598 E9.20651
G1 X91.888 Y99.257 E9.21904
G1 X91.999 Y98.983 E9.22986
G1 X92.077 Y98.846 E9.23562
G1 X92.19 Y98.694 E9.24255
G1 X92.293 Y98.591 E9.24788
G1 X92.454 Y98.474 E9.25516
G1 X92.683 Y98.359 E9.26454
G1 X92.809 Y98.313 E9.26945
G1 X92.974 Y98.276 E9.27563
G1 X94.083 Y98.123 E9.31659
G1 X95.074 Y97.946 E9.35342
G1 X96.062 Y97.729 E9.39043
G1 X97.048 Y97.471 E9.42772
G1 X97.242 Y97.401 E9.43527
G1 X97.492 Y97.273 E9.44554
G1 X97.671 Y97.144 E9.45361
G1 X97.867 Y96.955 E9.46358
G1 X97.999 Y96.784 E9.47148
G1 X98.127 Y96.557 E9.48101
G1 X98.215 Y96.334 E9.48978
G1 X98.281 Y96.047 E9.50056
G1 X100.632 Y81.549 E10.03791
G1 X99.215 Y81.549 E10.08976
G1 X97.281 Y93.467 E10.53149
G1 X97.238 Y93.653 E10.53848
G1 F902.1 X97.198 Y93.749 E10.54227
G1 X96.836 Y94.243 E10.56463
G1 F900 X96.734 Y94.323 E10.56937
G1 X96.444 Y94.482 E10.58147
G1 X96.334 Y94.519 E10.58572
G1 X96.155 Y94.547 E10.59235
G1 X95.823 Y94.543 E10.60449
G1 X95.471 Y94.445 E10.61786
G1 X95.329 Y94.365 E10.62383
G1 X95.14 Y94.232 E10.63228
G1 X94.919 Y93.987 E10.64435
G1 X94.837 Y93.839 E10.65054
G1 X94.737 Y93.548 E10.6618
G1 X94.703 Y93.354 E10.66901
G1 X94.699 Y81.548 E11.10094
G1 X85.299 Y81.548 E11.44485
G1 X85.295 Y93.363 E11.87712
G1 X85.281 Y93.463 E11.88081
G1 X85.218 Y93.71 E11.89014
G1 X85.169 Y93.827 E11.89478
G1 X85.091 Y93.962 E11.90048
G1 X84.976 Y94.104 E11.90717
G1 X84.83 Y94.253 E11.9148
G1 X84.55 Y94.435 E11.92702
G1 X84.302 Y94.515 E11.93655
G1 X84.126 Y94.547 E11.9431
G1 X83.883 Y94.554 E11.95199
G1 X83.734 Y94.531 E11.95751
G1 X83.636 Y94.505 E11.96122
G1 X83.401 Y94.405 E11.97056
G1 X83.115 Y94.214 E11.98314
G1 X82.882 Y93.908 E11.99721
G1 X82.762 Y93.651 E12.00759
G1 X82.716 Y93.466 E12.01457
G1 X80.784 Y81.548 E12.45629
G1 X79.365 Y81.548 E12.50821
G1 X81.716 Y96.046 E13.04556
G1 X81.781 Y96.328 E13.05615
G1 X81.864 Y96.544 E13.06462
G1 X81.991 Y96.772 E13.07416
G1 X82.132 Y96.958 E13.0827
G1 X82.303 Y97.125 E13.09145
G1 X82.505 Y97.272 E13.10059
G1 X82.727 Y97.39 E13.10979
G1 X82.954 Y97.471 E13.1186
G1 X84 Y97.743 E13.15815
G1 X84.994 Y97.96 E13.19537
G1 X85.98 Y98.135 E13.23201
G1 X87.017 Y98.276 E13.2703
G1 X87.171 Y98.308 E13.27605
G1 X87.443 Y98.415 E13.28674
G1 X87.612 Y98.513 E13.29389
G1 X87.7 Y98.583 E13.29801
G1 X87.803 Y98.686 E13.30334
G1 X87.915 Y98.84 E13.3103
G1 X87.996 Y98.975 E13.31606
G1 X88.106 Y99.25 E13.3269
G1 X88.137 Y99.591 E13.33943
G1 X88.114 Y99.843 E13.34868
G1 X88.067 Y100.015 E13.35521
G1 X88.002 Y100.16 E13.36102
G1 X87.93 Y100.278 E13.36608
G1 X87.763 Y100.476 E13.37555
G1 X87.628 Y100.602 E13.38231
G1 X87.121 Y100.92 E13.40421
G1 X86.818 Y101.138 E13.41786
G1 X86.476 Y101.428 E13.43427
G1 X86.183 Y101.719 E13.44938
G1 X85.903 Y102.047 E13.46516
G1 X85.657 Y102.389 E13.48057
G1 X85.428 Y102.774 E13.49696
G1 X85.237 Y103.164 E13.51285
G1 X85.069 Y103.599 E13.52991
G1 X84.955 Y103.988 E13.54474
G1 X84.865 Y104.432 E13.56131
G1 X84.815 Y104.867 E13.57733
G1 X84.801 Y105.283 E13.59256
G1 X84.822 Y105.715 E13.60838
G1 X84.879 Y106.149 E13.6244
G1 X84.962 Y106.535 E13.63884
G1 X85.08 Y106.928 E13.65386
G1 X85.229 Y107.313 E13.66896
G1 X85.41 Y107.691 E13.68429
G1 X85.62 Y108.049 E13.69948
G1 X85.871 Y108.408 E13.7155
G1 X86.155 Y108.748 E13.73171
G1 X86.447 Y109.044 E13.74692
G1 X86.802 Y109.347 E13.764
G1 X87.143 Y109.591 E13.77934
G1 X87.529 Y109.822 E13.7958
G1 X87.918 Y110.012 E13.81164
G1 X88.336 Y110.173 E13.82803
G1 X88.727 Y110.287 E13.84293
G1 X89.164 Y110.378 E13.85926
G1 X89.578 Y110.427 E13.87451
G1 X90 Y110.446 E13.88996
G0 F6000 X90 Y110.887
G1 F900 X90.43 Y110.869 E13.90571
G1 X90.877 Y110.818 E13.92217
G1 X91.314 Y110.732 E13.93847
G1 X91.77 Y110.602 E13.95581
G1 X92.175 Y110.449 E13.97165
G1 X92.622 Y110.238 E13.98974
G1 X93.034 Y110 E14.00715
G1 X93.417 Y109.731 E14.02427
G1 X93.801 Y109.412 E14.04253
G1 X94.138 Y109.078 E14.05989
G1 X94.432 Y108.733 E14.07648
G1 X94.716 Y108.337 E14.0943
G1 X94.955 Y107.939 E14.11129
G1 X95.155 Y107.534 E14.12782
G1 X95.33 Y107.087 E14.14538
G1 X95.461 Y106.651 E14.16203
G1 X95.553 Y106.228 E14.17787
G1 X95.609 Y105.819 E14.19297
G1 X95.637 Y105.328 E14.21097
G1 X95.626 Y104.876 E14.22751
G1 X95.577 Y104.417 E14.2444
G1 X95.492 Y103.977 E14.26079
G1 X95.362 Y103.509 E14.27856
G1 X95.191 Y103.051 E14.29645
G1 X94.995 Y102.634 E14.31331
G1 X94.748 Y102.208 E14.33132
G1 X94.488 Y101.837 E14.3479
G1 X94.17 Y101.455 E14.36608
G1 X93.844 Y101.124 E14.38308
G1 X93.491 Y100.821 E14.4001
G1 X93.139 Y100.565 E14.41603
G1 X92.673 Y100.28 E14.43601
G1 X92.601 Y100.222 E14.43939
G1 X92.479 Y100.093 E14.44589
G1 X92.392 Y99.966 E14.45152
G1 X92.354 Y99.878 E14.45503
G1 X92.327 Y99.775 E14.45892
G1 X92.295 Y99.571 E14.46648
G1 X92.314 Y99.366 E14.47401
G1 X92.381 Y99.201 E14.48053
G1 X92.453 Y99.076 E14.4858
G1 X92.52 Y98.984 E14.48997
G1 X92.582 Y98.922 E14.49318
G1 X92.679 Y98.852 E14.49755
G1 X92.935 Y98.734 E14.50787
G1 X93.034 Y98.712 E14.51158
G1 X94.151 Y98.558 E14.55283
G1 X95.125 Y98.385 E14.58902
G1 X96.173 Y98.155 E14.62828
G1 X97.178 Y97.891 E14.66629
G1 X97.417 Y97.806 E14.67557
G1 X97.722 Y97.649 E14.68812
G1 X97.953 Y97.482 E14.69855
G1 X98.195 Y97.25 E14.71082
G1 X98.367 Y97.028 E14.72109
G1 X98.526 Y96.746 E14.73294
G1 X98.636 Y96.465 E14.74398
G1 X98.713 Y96.132 E14.75648
G1 X101.15 Y81.109 E15.3133
G1 X98.84 Y81.109 E15.39781
G1 X96.847 Y93.397 E15.85326
G1 X96.821 Y93.508 E15.85743
G1 F902.1 X96.785 Y93.598 E15.86097
G1 X96.568 Y93.894 E15.87437
G1 F900 X96.466 Y93.973 E15.87909
G1 X96.292 Y94.069 E15.88636
G1 X96.226 Y94.091 E15.8889
G1 X96.118 Y94.108 E15.8929
G1 X95.869 Y94.106 E15.90201
G1 X95.658 Y94.047 E15.91003
