;FLAVOR:Marlin
;TIME:4701
;Filament used: 3.6739m
;Layer height: 0.2
;MINX:60.62
;MINY:70.62
;MINZ:0.2
;MAXX:119.38
;MAXY:109.38
;MAXZ:18.4
;TARGET_MACHINE.NAME:Kingroon KP3S
;Generated with Cura_SteamEngine 5.6.0
M140 S60
M104 S220
M190 S60
M109 S220
M82 ;absolute extrusion mode
G28 ; home all axes
 M117 Purge extruder
 G92 E0 ; reset extruder
 G1 Z1.0 F3000 ; move z up little to prevent scratching of surface
 G1 X2 Y20 Z0.3 F5000.0 ; move to start-line position
 G1 X2 Y175.0 Z0.3 F1500.0 E15 ; draw 1st line
 G1 X2 Y175.0 Z0.4 F5000.0 ; move to side a little
 G1 X2 Y20 Z0.4 F1500.0 E30 ; draw 2nd line
 G92 E0 ; reset extruder
 G1 Z1.0 F3000 ; move z up little to prevent scratching of surface
G92 E0
G92 E0
G1 F2400 E-4
;LAYER_COUNT:90
;LAYER:0
M107
G1 F240 Z0.6
;MESH:Tetromino_T.3mf
G0 F6000 X96.632 Y86.632 Z0.6
;TYPE:WALL-INNER
G1 F240 Z0.2
G1 F2400 E0
G1 F1200 X96.632 Y73.368 E0.48528
G1 X83.368 Y73.368 E0.97056
G1 X83.368 Y86.632 E1.45584
G1 X96.632 Y86.632 E1.94111
G0 F6000 X97.072 Y87.072
G1 F1200 X97.072 Y72.928 E2.45859
G1 X82.928 Y72.928 E2.97606
G1 X82.928 Y87.072 E3.49354
G1 X97.072 Y87.072 E4.01101
G0 F6000 X97.512 Y87.512
G1 F1200 X97.512 Y72.488 E4.56068
G1 X82.488 Y72.488 E5.11035
G1 X82.488 Y87.512 E5.66002
G1 X97.512 Y87.512 E6.20969
G0 F6000 X97.952 Y87.952
;TYPE:WALL-OUTER
G1 F1200 X97.952 Y72.048 E6.79156
G1 X82.048 Y72.048 E7.37343
G1 X82.048 Y87.952 E7.95529
G1 X97.952 Y87.952 E8.53716
G1 F2400 E4.53716
G1 F240 Z0.6
G0 F6000 X96.236 Y86.236 Z0.6
;TYPE:SKIN
G1 F240 Z0.2
G1 F2400 E8.53716
G1 F1200 X83.764 Y86.236 E8.99346
G1 X83.764 Y73.764 E9.44976
G1 X96.236 Y73.764 E9.90607
G1 X96.236 Y86.236 E10.36237
G1 F2400 E6.36237
G1 F240 Z0.6
G0 F6000 X95.763 Y73.984 Z0.6
G1 F240 Z0.2
G1 F2400 E10.36237
G1 F1200 X96.015 Y74.237 E10.37543
G0 F6000 X96.015 Y74.859
G1 F1200 X95.141 Y73.984 E10.42068
G0 F6000 X94.518 Y73.984
G1 F1200 X96.015 Y75.481 E10.49814
G0 F6000 X96.015 Y76.103
G1 F1200 X93.896 Y73.984 E10.60777
G0 F6000 X93.274 Y73.984
G1 F1200 X96.015 Y76.726 E10.74962
G0 F6000 X96.015 Y77.348
G1 F1200 X92.652 Y73.984 E10.92365
G0 F6000 X92.029 Y73.984
G1 F1200 X96.015 Y77.97 E11.12989
G0 F6000 X96.015 Y78.592
G1 F1200 X91.407 Y73.984 E11.36831
G0 F6000 X90.785 Y73.984
G1 F1200 X96.015 Y79.215 E11.63894
G0 F6000 X96.015 Y79.837
G1 F1200 X90.163 Y73.984 E11.94175
G0 F6000 X89.54 Y73.984
G1 F1200 X96.015 Y80.459 E12.27677
G0 F6000 X96.015 Y81.081
G1 F1200 X88.918 Y73.984 E12.64397
G0 F6000 X88.296 Y73.984
G1 F1200 X96.015 Y81.704 E13.04339
G0 F6000 X96.015 Y82.326
G1 F1200 X87.674 Y73.984 E13.47498
G0 F6000 X87.051 Y73.984
G1 F1200 X96.015 Y82.948 E13.93878
G0 F6000 X96.015 Y83.57
G1 F1200 X86.429 Y73.984 E14.43477
G0 F6000 X85.807 Y73.984
G1 F1200 X96.015 Y84.193 E14.96296
G0 F6000 X96.015 Y84.815
G1 F1200 X85.185 Y73.984 E15.52334
G0 F6000 X84.562 Y73.984
G1 F1200 X96.015 Y85.437 E16.11593
G0 F6000 X95.971 Y86.015
G1 F1200 X83.983 Y74.027 E16.73619
G0 F6000 X83.983 Y74.649
G1 F1200 X95.349 Y86.015 E17.32428
G0 F6000 X94.726 Y86.015
G1 F1200 X83.983 Y75.272 E17.88013
G0 F6000 X83.983 Y75.894
G1 F1200 X94.104 Y86.015 E18.40379
G0 F6000 X93.482 Y86.015
G1 F1200 X83.983 Y76.516 E18.89528
G0 F6000 X83.983 Y77.138
G1 F1200 X92.86 Y86.015 E19.35458
G0 F6000 X92.237 Y86.015
G1 F1200 X83.983 Y77.761 E19.78165
G0 F6000 X83.983 Y78.383
G1 F1200 X91.615 Y86.015 E20.17653
G0 F6000 X90.993 Y86.015
G1 F1200 X83.983 Y79.005 E20.53923
G0 F6000 X83.983 Y79.628
G1 F1200 X90.371 Y86.015 E20.86973
G0 F6000 X89.748 Y86.015
G1 F1200 X83.983 Y80.25 E21.16801
G0 F6000 X83.983 Y80.872
G1 F1200 X89.126 Y86.015 E21.43411
G0 F6000 X88.504 Y86.015
G1 F1200 X83.983 Y81.494 E21.66803
G0 F6000 X83.983 Y82.117
G1 F1200 X87.882 Y86.015 E21.86974
G0 F6000 X87.259 Y86.015
G1 F1200 X83.983 Y82.739 E22.03924
G0 F6000 X83.983 Y83.361
G1 F1200 X86.637 Y86.015 E22.17656
G0 F6000 X86.015 Y86.015
G1 F1200 X83.983 Y83.983 E22.2817
G0 F6000 X83.983 Y84.606
G1 F1200 X85.393 Y86.015 E22.35463
G0 F6000 X84.77 Y86.015
G1 F1200 X83.983 Y85.228 E22.39535
G0 F6000 X83.983 Y85.85
G1 F1200 X84.148 Y86.015 E22.40389
G1 F2400 E18.40389
G1 F240 Z0.6
G0 F6000 X96.632 Y106.632 Z0.6
;TYPE:WALL-INNER
G1 F240 Z0.2
G1 F2400 E22.40389
G1 F1200 X96.632 Y93.368 E22.88917
G1 X83.368 Y93.368 E23.37444
G1 X83.368 Y106.632 E23.85972
G1 X96.632 Y106.632 E24.345
G0 F6000 X97.072 Y107.072
G1 F1200 X97.072 Y92.928 E24.86248
G1 X82.928 Y92.928 E25.37995
G1 X82.928 Y107.072 E25.89742
G1 X97.072 Y107.072 E26.4149
G0 F6000 X97.512 Y107.512
G1 F1200 X97.512 Y92.488 E26.96457
G1 X82.488 Y92.488 E27.51424
G1 X82.488 Y107.512 E28.06391
G1 X97.512 Y107.512 E28.61358
G0 F6000 X97.952 Y107.952
;TYPE:WALL-OUTER
G1 F1200 X97.952 Y92.048 E29.19545
G1 X82.048 Y92.048 E29.77731
G1 X82.048 Y107.952 E30.35918
G1 X97.952 Y107.952 E30.94104
G1 F2400 E26.94104
G1 F240 Z0.6
G0 F6000 X96.236 Y106.236 Z0.6
;TYPE:SKIN
G1 F240 Z0.2
G1 F2400 E30.94104
G1 F1200 X83.764 Y106.236 E31.39735
G1 X83.764 Y93.764 E31.85365
G1 X96.236 Y93.764 E32.30995
G1 X96.236 Y106.236 E32.76625
G1 F2400 E28.76625
G1 F240 Z0.6
G0 F6000 X95.851 Y93.984 Z0.6
G1 F240 Z0.2
G1 F2400 E32.76625
G1 F1200 X96.015 Y94.149 E32.77477
G0 F6000 X96.015 Y94.771
G1 F1200 X95.228 Y93.984 E32.81549
G0 F6000 X94.606 Y93.984
G1 F1200 X96.015 Y95.393 E32.88839
G0 F6000 X96.015 Y96.015
G1 F1200 X93.984 Y93.984 E32.99347
G0 F6000 X93.362 Y93.984
G1 F1200 X96.015 Y96.638 E33.13077
G0 F6000 X96.015 Y97.26
G1 F1200 X92.739 Y93.984 E33.30027
G0 F6000 X92.117 Y93.984
G1 F1200 X96.015 Y97.882 E33.50195
G0 F6000 X96.015 Y98.504
G1 F1200 X91.495 Y93.984 E33.73582
G0 F6000 X90.873 Y93.984
G1 F1200 X96.015 Y99.127 E34.0019
G0 F6000 X96.015 Y99.749
G1 F1200 X90.25 Y93.984 E34.30018
G0 F6000 X89.628 Y93.984
G1 F1200 X96.015 Y100.371 E34.63065
G0 F6000 X96.015 Y100.993
G1 F1200 X89.006 Y93.984 E34.9933
G0 F6000 X88.384 Y93.984
G1 F1200 X96.015 Y101.616 E35.38816
G0 F6000 X96.015 Y102.238
G1 F1200 X87.761 Y93.984 E35.81523
G0 F6000 X87.139 Y93.984
G1 F1200 X96.015 Y102.86 E36.27448
G0 F6000 X96.015 Y103.482
G1 F1200 X86.517 Y93.984 E36.76591
G0 F6000 X85.895 Y93.984
G1 F1200 X96.015 Y104.105 E37.28955
G0 F6000 X96.015 Y104.727
G1 F1200 X85.272 Y93.984 E37.8454
G0 F6000 X84.65 Y93.984
G1 F1200 X96.015 Y105.349 E38.43343
G0 F6000 X96.015 Y105.971
G1 F1200 X84.028 Y93.984 E39.05365
G0 F6000 X83.983 Y94.562
G1 F1200 X95.436 Y106.015 E39.64623
G0 F6000 X94.814 Y106.015
G1 F1200 X83.983 Y95.184 E40.20663
G0 F6000 X83.983 Y95.806
G1 F1200 X94.192 Y106.015 E40.73485
G0 F6000 X93.57 Y106.015
G1 F1200 X83.983 Y96.428 E41.23089
G0 F6000 X83.983 Y97.051
G1 F1200 X92.947 Y106.015 E41.6947
G0 F6000 X92.325 Y106.015
G1 F1200 X83.983 Y97.673 E42.12632
G0 F6000 X83.983 Y98.295
G1 F1200 X91.703 Y106.015 E42.52575
G0 F6000 X91.081 Y106.015
G1 F1200 X83.983 Y98.917 E42.89301
G0 F6000 X83.983 Y99.54
G1 F1200 X90.458 Y106.015 E43.22803
G0 F6000 X89.836 Y106.015
G1 F1200 X83.983 Y100.162 E43.53087
G0 F6000 X83.983 Y100.784
G1 F1200 X89.214 Y106.015 E43.80152
G0 F6000 X88.591 Y106.015
G1 F1200 X83.983 Y101.406 E44.03997
G0 F6000 X83.983 Y102.029
G1 F1200 X87.969 Y106.015 E44.24621
G0 F6000 X87.347 Y106.015
G1 F1200 X83.983 Y102.651 E44.42026
G0 F6000 X83.983 Y103.273
G1 F1200 X86.725 Y106.015 E44.56213
G0 F6000 X86.102 Y106.015
G1 F1200 X83.983 Y103.895 E44.6718
G0 F6000 X83.983 Y104.518
G1 F1200 X85.48 Y106.015 E44.74925
G0 F6000 X84.858 Y106.015
G1 F1200 X83.983 Y105.14 E44.79453
G0 F6000 X83.983 Y105.762
G1 F1200 X84.236 Y106.015 E44.80762
G1 F2400 E40.80762
G1 F240 Z0.6
G0 F6000 X103.368 Y106.632 Z0.6
;TYPE:WALL-INNER
G1 F240 Z0.2
G1 F2400 E44.80762
G1 F1200 X116.632 Y106.632 E45.2929
G1 X116.632 Y93.368 E45.77818
G1 X103.368 Y93.368 E46.26345
G1 X103.368 Y106.632 E46.74873
G0 F6000 X102.928 Y107.072
G1 F1200 X117.072 Y107.072 E47.26621
G1 X117.072 Y92.928 E47.78368
G1 X102.928 Y92.928 E48.30116
G1 X102.928 Y107.072 E48.81863
G0 F6000 X102.488 Y107.512
G1 F1200 X117.512 Y107.512 E49.3683
G1 X117.512 Y92.488 E49.91797
G1 X102.488 Y92.488 E50.46764
G1 X102.488 Y107.512 E51.01731
G0 F6000 X102.048 Y107.952
;TYPE:WALL-OUTER
G1 F1200 X117.952 Y107.952 E51.59918
G1 X117.952 Y92.048 E52.18104
G1 X102.048 Y92.048 E52.76291
G1 X102.048 Y107.952 E53.34478
G1 F2400 E49.34478
G1 F240 Z0.6
G0 F6000 X103.764 Y106.236 Z0.6
;TYPE:SKIN
G1 F240 Z0.2
G1 F2400 E53.34478
G1 F1200 X103.764 Y93.764 E53.80108
G1 X116.236 Y93.764 E54.25738
G1 X116.236 Y106.236 E54.71368
G1 X103.764 Y106.236 E55.16999
G0 F6000 X104.148 Y106.015
G1 F1200 X103.983 Y105.85 E55.17852
G0 F6000 X103.983 Y105.228
G1 F1200 X104.77 Y106.015 E55.21924
G0 F6000 X105.392 Y106.015
G1 F1200 X103.983 Y104.605 E55.29217
G0 F6000 X103.983 Y103.983
G1 F1200 X106.015 Y106.015 E55.39731
G0 F6000 X106.637 Y106.015
G1 F1200 X103.983 Y103.361 E55.53463
G0 F6000 X103.983 Y102.739
G1 F1200 X107.259 Y106.015 E55.70413
G0 F6000 X107.881 Y106.015
G1 F1200 X103.983 Y102.116 E55.90584
G0 F6000 X103.983 Y101.494
G1 F1200 X108.504 Y106.015 E56.13976
G0 F6000 X109.126 Y106.015
G1 F1200 X103.983 Y100.872 E56.40586
G0 F6000 X103.983 Y100.25
G1 F1200 X109.748 Y106.015 E56.70415
G0 F6000 X110.37 Y106.015
G1 F1200 X103.983 Y99.627 E57.03464
G0 F6000 X103.983 Y99.005
G1 F1200 X110.993 Y106.015 E57.39734
G0 F6000 X111.615 Y106.015
G1 F1200 X103.983 Y98.383 E57.79223
G0 F6000 X103.983 Y97.761
G1 F1200 X112.237 Y106.015 E58.21929
G0 F6000 X112.859 Y106.015
G1 F1200 X103.983 Y97.138 E58.67857
G0 F6000 X103.983 Y96.516
G1 F1200 X113.482 Y106.015 E59.17005
G0 F6000 X114.104 Y106.015
G1 F1200 X103.983 Y95.894 E59.69372
G0 F6000 X103.983 Y95.272
G1 F1200 X114.726 Y106.015 E60.24957
G0 F6000 X115.348 Y106.015
G1 F1200 X103.983 Y94.649 E60.83763
G0 F6000 X103.983 Y94.027
G1 F1200 X115.971 Y106.015 E61.4579
G0 F6000 X116.015 Y105.437
G1 F1200 X104.562 Y93.984 E62.05048
G0 F6000 X105.184 Y93.984
G1 F1200 X116.015 Y104.815 E62.61088
G0 F6000 X116.015 Y104.192
G1 F1200 X105.807 Y93.984 E63.13905
G0 F6000 X106.429 Y93.984
G1 F1200 X116.015 Y103.57 E63.63504
G0 F6000 X116.015 Y102.948
G1 F1200 X107.051 Y93.984 E64.09884
G0 F6000 X107.673 Y93.984
G1 F1200 X116.015 Y102.326 E64.53046
G0 F6000 X116.015 Y101.703
G1 F1200 X108.296 Y93.984 E64.92985
G0 F6000 X108.918 Y93.984
G1 F1200 X116.015 Y101.081 E65.29705
G0 F6000 X116.015 Y100.459
G1 F1200 X109.54 Y93.984 E65.63207
G0 F6000 X110.162 Y93.984
G1 F1200 X116.015 Y99.837 E65.93491
G0 F6000 X116.015 Y99.214
G1 F1200 X110.785 Y93.984 E66.20551
G0 F6000 X111.407 Y93.984
G1 F1200 X116.015 Y98.592 E66.44393
G0 F6000 X116.015 Y97.97
G1 F1200 X112.029 Y93.984 E66.65017
G0 F6000 X112.652 Y93.984
G1 F1200 X116.015 Y97.348 E66.8242
G0 F6000 X116.015 Y96.725
G1 F1200 X113.274 Y93.984 E66.96602
G0 F6000 X113.896 Y93.984
G1 F1200 X116.015 Y96.103 E67.07566
G0 F6000 X116.015 Y95.481
G1 F1200 X114.518 Y93.984 E67.15312
G0 F6000 X115.141 Y93.984
G1 F1200 X116.015 Y94.859 E67.19836
G0 F6000 X116.015 Y94.236
G1 F1200 X115.763 Y93.984 E67.2114
G1 F2400 E63.2114
G1 F240 Z0.6
G0 F6000 X76.632 Y106.632 Z0.6
;TYPE:WALL-INNER
G1 F240 Z0.2
G1 F2400 E67.2114
G1 F1200 X76.632 Y93.368 E67.69668
G1 X63.368 Y93.368 E68.18196
G1 X63.368 Y106.632 E68.66724
G1 X76.632 Y106.632 E69.15252
G0 F6000 X77.072 Y107.072
G1 F1200 X77.072 Y92.928 E69.66999
G1 X62.928 Y92.928 E70.18747
G1 X62.928 Y107.072 E70.70494
G1 X77.072 Y107.072 E71.22241
G0 F6000 X77.512 Y107.512
G1 F1200 X77.512 Y92.488 E71.77208
G1 X62.488 Y92.488 E72.32175
G1 X62.488 Y107.512 E72.87142
G1 X77.512 Y107.512 E73.4211
G0 F6000 X77.952 Y107.952
;TYPE:WALL-OUTER
G1 F1200 X77.952 Y92.048 E74.00296
G1 X62.048 Y92.048 E74.58483
G1 X62.048 Y107.952 E75.16669
G1 X77.952 Y107.952 E75.74856
G1 F2400 E71.74856
G1 F240 Z0.6
G0 F6000 X76.236 Y106.236 Z0.6
;TYPE:SKIN
G1 F240 Z0.2
G1 F2400 E75.74856
G1 F1200 X63.764 Y106.236 E76.20486
G1 X63.764 Y93.764 E76.66116
G1 X76.236 Y93.764 E77.11747
G1 X76.236 Y106.236 E77.57377
G1 F2400 E73.57377
G1 F240 Z0.6
G0 F6000 X76.016 Y94.061 Z0.6
G1 F240 Z0.2
G1 F2400 E77.57377
G1 F1200 X75.938 Y93.983 E77.57781
G0 F6000 X75.316 Y93.983
G1 F1200 X76.016 Y94.683 E77.61402
G0 F6000 X76.016 Y95.305
G1 F1200 X74.693 Y93.983 E77.68245
G0 F6000 X74.071 Y93.983
G1 F1200 X76.016 Y95.928 E77.78309
G0 F6000 X76.016 Y96.55
G1 F1200 X73.449 Y93.983 E77.9159
G0 F6000 X72.827 Y93.983
G1 F1200 X76.016 Y97.172 E78.08091
G0 F6000 X76.016 Y97.794
G1 F1200 X72.204 Y93.983 E78.27811
G0 F6000 X71.582 Y93.983
G1 F1200 X76.016 Y98.417 E78.50753
G0 F6000 X76.016 Y99.039
G1 F1200 X70.96 Y93.983 E78.76913
G0 F6000 X70.338 Y93.983
G1 F1200 X76.016 Y99.661 E79.06292
G0 F6000 X76.016 Y100.284
G1 F1200 X69.715 Y93.983 E79.38893
G0 F6000 X69.093 Y93.983
G1 F1200 X76.016 Y100.906 E79.74713
G0 F6000 X76.016 Y101.528
G1 F1200 X68.471 Y93.983 E80.13752
G0 F6000 X67.849 Y93.983
G1 F1200 X76.016 Y102.15 E80.56008
G0 F6000 X76.016 Y102.773
G1 F1200 X67.226 Y93.983 E81.01488
G0 F6000 X66.604 Y93.983
G1 F1200 X76.016 Y103.395 E81.50187
G0 F6000 X76.016 Y104.017
G1 F1200 X65.982 Y93.983 E82.02103
G0 F6000 X65.36 Y93.983
G1 F1200 X76.016 Y104.639 E82.57238
G0 F6000 X76.016 Y105.262
G1 F1200 X64.737 Y93.983 E83.15596
G0 F6000 X64.115 Y93.983
G1 F1200 X76.016 Y105.884 E83.77173
G0 F6000 X75.525 Y106.015
G1 F1200 X63.983 Y94.474 E84.36889
G0 F6000 X63.983 Y95.096
G1 F1200 X74.903 Y106.015 E84.93387
G0 F6000 X74.28 Y106.015
G1 F1200 X63.983 Y95.718 E85.46665
G0 F6000 X63.983 Y96.341
G1 F1200 X73.658 Y106.015 E85.96721
G0 F6000 X73.036 Y106.015
G1 F1200 X63.983 Y96.963 E86.43559
G0 F6000 X63.983 Y97.585
G1 F1200 X72.414 Y106.015 E86.87179
G0 F6000 X71.791 Y106.015
G1 F1200 X63.983 Y98.207 E87.27578
G0 F6000 X63.983 Y98.83
G1 F1200 X71.169 Y106.015 E87.64757
G0 F6000 X70.547 Y106.015
G1 F1200 X63.983 Y99.452 E87.98717
G0 F6000 X63.983 Y100.074
G1 F1200 X69.925 Y106.015 E88.29458
G0 F6000 X69.302 Y106.015
G1 F1200 X63.983 Y100.696 E88.56979
G0 F6000 X63.983 Y101.319
G1 F1200 X68.68 Y106.015 E88.81279
G0 F6000 X68.058 Y106.015
G1 F1200 X63.983 Y101.941 E89.02361
G0 F6000 X63.983 Y102.563
G1 F1200 X67.436 Y106.015 E89.20224
G0 F6000 X66.813 Y106.015
G1 F1200 X63.983 Y103.185 E89.34867
G0 F6000 X63.983 Y103.808
G1 F1200 X66.191 Y106.015 E89.46289
G0 F6000 X65.569 Y106.015
G1 F1200 X63.983 Y104.43 E89.54492
G0 F6000 X63.983 Y105.052
G1 F1200 X64.947 Y106.015 E89.59477
G0 F6000 X64.324 Y106.015
G1 F1200 X63.983 Y105.674 E89.61242
G1 F2400 E85.61242
G1 F240 Z0.6
;MESH:NONMESH
G0 F6000 X96.716 Y86.716 Z0.6
;TIME_ELAPSED:146.411131
;LAYER:1
M106 S85
;MESH:Tetromino_T.3mf
G0 F7500 X96.716 Y86.716 Z0.8
;TYPE:WALL-INNER
G1 F240 Z0.4
G1 F2400 E89.61242
G1 F1350 X96.716 Y73.284 E90.10384
G1 X83.284 Y73.284 E90.59527
G1 X83.284 Y86.716 E91.08669
G1 X96.716 Y86.716 E91.57812
G0 F7500 X97.156 Y87.156
G1 F1350 X97.156 Y72.844 E92.10174
G1 X82.844 Y72.844 E92.62536
G1 X82.844 Y87.156 E93.14898
G1 X97.156 Y87.156 E93.6726
G0 F7500 X97.596 Y87.596
G1 F1350 X97.596 Y72.404 E94.22842
G1 X82.404 Y72.404 E94.78423
G1 X82.404 Y87.596 E95.34005
G1 X97.596 Y87.596 E95.89587
G0 F7500 X98.036 Y88.036
;TYPE:WALL-OUTER
G1 F1350 X98.036 Y71.964 E96.48388
G1 X81.964 Y71.964 E97.07189
G1 X81.964 Y88.036 E97.65991
G1 X98.036 Y88.036 E98.24792
G1 F2400 E94.24792
G1 F240 Z0.8
G0 F7500 X96.32 Y86.32 Z0.8
;TYPE:SKIN
G1 F240 Z0.4
G1 F2400 E98.24792
G1 F1350 X83.68 Y86.32 E98.71037
G1 X83.68 Y73.68 E99.17282
G1 X96.32 Y73.68 E99.63526
G1 X96.32 Y86.32 E100.09771
G0 F7500 X95.598 Y86.099
G1 F1350 X96.099 Y85.598 E100.12364
G0 F7500 X96.099 Y84.976
G1 F1350 X94.976 Y86.099 E100.18174
G0 F7500 X94.354 Y86.099
G1 F1350 X96.099 Y84.354 E100.27203
G0 F7500 X96.099 Y83.732
