;FLAVOR:Marlin
;TIME:4711
;Filament used: 3.67212m
;Layer height: 0.2
;MINX:60.62
;MINY:70.62
;MINZ:0.2
;MAXX:119.38
;MAXY:109.38
;MAXZ:18.4
;TARGET_MACHINE.NAME:Kingroon KP3S
;Generated with Cura_SteamEngine 5.6.0
M140 S60
M104 S220
M190 S60
M109 S220
M82 ;absolute extrusion mode
G28 ; home all axes
 M117 Purge extruder
 G92 E0 ; reset extruder
 G1 Z1.0 F3000 ; move z up little to prevent scratching of surface
 G1 X2 Y20 Z0.3 F5000.0 ; move to start-line position
 G1 X2 Y175.0 Z0.3 F1500.0 E15 ; draw 1st line
 G1 X2 Y175.0 Z0.4 F5000.0 ; move to side a little
 G1 X2 Y20 Z0.4 F1500.0 E30 ; draw 2nd line
 G92 E0 ; reset extruder
 G1 Z1.0 F3000 ; move z up little to prevent scratching of surface
G92 E0
G92 E0
G1 F2400 E-4
;LAYER_COUNT:90
;LAYER:0
M107
G1 F240 Z0.6
;MESH:Tetromino_J.3mf
G0 F6000 X76.632 Y86.632 Z0.6
;TYPE:WALL-INNER
G1 F240 Z0.2
G1 F2400 E0
G1 F1200 X76.632 Y73.368 E0.48528
G1 X63.368 Y73.368 E0.97056
G1 X63.368 Y86.632 E1.45584
G1 X76.632 Y86.632 E1.94111
G0 F6000 X77.072 Y87.072
G1 F1200 X77.072 Y72.928 E2.45859
G1 X62.928 Y72.928 E2.97606
G1 X62.928 Y87.072 E3.49354
G1 X77.072 Y87.072 E4.01101
G0 F6000 X77.512 Y87.512
G1 F1200 X77.512 Y72.488 E4.56068
G1 X62.488 Y72.488 E5.11035
G1 X62.488 Y87.512 E5.66002
G1 X77.512 Y87.512 E6.20969
G0 F6000 X77.952 Y87.952
;TYPE:WALL-OUTER
G1 F1200 X77.952 Y72.048 E6.79156
G1 X62.048 Y72.048 E7.37343
G1 X62.048 Y87.952 E7.95529
G1 X77.952 Y87.952 E8.53716
G1 F2400 E4.53716
G1 F240 Z0.6
G0 F6000 X76.236 Y86.236 Z0.6
;TYPE:SKIN
G1 F240 Z0.2
G1 F2400 E8.53716
G1 F1200 X63.764 Y86.236 E8.99346
G1 X63.764 Y73.764 E9.44976
G1 X76.236 Y73.764 E9.90607
G1 X76.236 Y86.236 E10.36237
G1 F2400 E6.36237
G1 F240 Z0.6
G0 F6000 X76.015 Y74.148 Z0.6
G1 F240 Z0.2
G1 F2400 E10.36237
G1 F1200 X75.851 Y73.984 E10.37085
G0 F6000 X75.229 Y73.984
G1 F1200 X76.015 Y74.77 E10.41152
G0 F6000 X76.015 Y75.393
G1 F1200 X74.606 Y73.984 E10.48442
G0 F6000 X73.984 Y73.984
G1 F1200 X76.015 Y76.015 E10.58951
G0 F6000 X76.015 Y76.637
G1 F1200 X73.362 Y73.984 E10.72678
G0 F6000 X72.74 Y73.984
G1 F1200 X76.015 Y77.259 E10.89623
G0 F6000 X76.015 Y77.882
G1 F1200 X72.117 Y73.984 E11.09791
G0 F6000 X71.495 Y73.984
G1 F1200 X76.015 Y78.504 E11.33178
G0 F6000 X76.015 Y79.126
G1 F1200 X70.873 Y73.984 E11.59783
G0 F6000 X70.251 Y73.984
G1 F1200 X76.015 Y79.748 E11.89606
G0 F6000 X76.015 Y80.371
G1 F1200 X69.628 Y73.984 E12.22653
G0 F6000 X69.006 Y73.984
G1 F1200 X76.015 Y80.993 E12.58918
G0 F6000 X76.015 Y81.615
G1 F1200 X68.384 Y73.984 E12.98401
G0 F6000 X67.762 Y73.984
G1 F1200 X76.015 Y82.237 E13.41103
G0 F6000 X76.015 Y82.86
G1 F1200 X67.139 Y73.984 E13.87028
G0 F6000 X66.517 Y73.984
G1 F1200 X76.015 Y83.482 E14.36171
G0 F6000 X76.015 Y84.104
G1 F1200 X65.895 Y73.984 E14.88533
G0 F6000 X65.273 Y73.984
G1 F1200 X76.015 Y84.726 E15.44112
G0 F6000 X76.015 Y85.349
G1 F1200 X64.65 Y73.984 E16.02916
G0 F6000 X64.028 Y73.984
G1 F1200 X76.015 Y85.971 E16.64937
G0 F6000 X75.436 Y86.015
G1 F1200 X63.983 Y74.562 E17.24196
G0 F6000 X63.983 Y75.184
G1 F1200 X74.814 Y86.015 E17.80236
G0 F6000 X74.192 Y86.015
G1 F1200 X63.983 Y75.806 E18.33058
G0 F6000 X63.983 Y76.429
G1 F1200 X73.57 Y86.015 E18.82659
G0 F6000 X72.947 Y86.015
G1 F1200 X63.983 Y77.051 E19.29039
G0 F6000 X63.983 Y77.673
G1 F1200 X72.325 Y86.015 E19.72201
G0 F6000 X71.703 Y86.015
G1 F1200 X63.983 Y78.295 E20.12145
G0 F6000 X63.983 Y78.918
G1 F1200 X71.081 Y86.015 E20.48868
G0 F6000 X70.458 Y86.015
G1 F1200 X63.983 Y79.54 E20.8237
G0 F6000 X63.983 Y80.162
G1 F1200 X69.836 Y86.015 E21.12654
G0 F6000 X69.214 Y86.015
G1 F1200 X63.983 Y80.784 E21.3972
G0 F6000 X63.983 Y81.407
G1 F1200 X68.592 Y86.015 E21.63564
G0 F6000 X67.969 Y86.015
G1 F1200 X63.983 Y82.029 E21.84188
G0 F6000 X63.983 Y82.651
G1 F1200 X67.347 Y86.015 E22.01594
G0 F6000 X66.725 Y86.015
G1 F1200 X63.983 Y83.273 E22.15781
G0 F6000 X63.983 Y83.896
G1 F1200 X66.103 Y86.015 E22.26747
G0 F6000 X65.48 Y86.015
G1 F1200 X63.983 Y84.518 E22.34493
G0 F6000 X63.983 Y85.14
G1 F1200 X64.858 Y86.015 E22.3902
G0 F6000 X64.236 Y86.015
G1 F1200 X63.983 Y85.762 E22.40329
G1 F2400 E18.40329
G1 F240 Z0.6
G0 F6000 X76.632 Y106.632 Z0.6
;TYPE:WALL-INNER
G1 F240 Z0.2
G1 F2400 E22.40329
G1 F1200 X76.632 Y93.368 E22.88857
G1 X63.368 Y93.368 E23.37385
G1 X63.368 Y106.632 E23.85913
G1 X76.632 Y106.632 E24.34441
G0 F6000 X77.072 Y107.072
G1 F1200 X77.072 Y92.928 E24.86188
G1 X62.928 Y92.928 E25.37936
G1 X62.928 Y107.072 E25.89683
G1 X77.072 Y107.072 E26.4143
G0 F6000 X77.512 Y107.512
G1 F1200 X77.512 Y92.488 E26.96397
G1 X62.488 Y92.488 E27.51364
G1 X62.488 Y107.512 E28.06332
G1 X77.512 Y107.512 E28.61299
G0 F6000 X77.952 Y107.952
;TYPE:WALL-OUTER
G1 F1200 X77.952 Y92.048 E29.19485
G1 X62.048 Y92.048 E29.77672
G1 X62.048 Y107.952 E30.35858
G1 X77.952 Y107.952 E30.94045
G1 F2400 E26.94045
G1 F240 Z0.6
G0 F6000 X76.236 Y106.236 Z0.6
;TYPE:SKIN
G1 F240 Z0.2
G1 F2400 E30.94045
G1 F1200 X63.764 Y106.236 E31.39675
G1 X63.764 Y93.764 E31.85305
G1 X76.236 Y93.764 E32.30936
G1 X76.236 Y106.236 E32.76566
G1 F2400 E28.76566
G1 F240 Z0.6
G0 F6000 X76.016 Y94.061 Z0.6
G1 F240 Z0.2
G1 F2400 E32.76566
G1 F1200 X75.938 Y93.983 E32.7697
G0 F6000 X75.316 Y93.983
G1 F1200 X76.016 Y94.683 E32.80591
G0 F6000 X76.016 Y95.305
G1 F1200 X74.693 Y93.983 E32.87434
G0 F6000 X74.071 Y93.983
G1 F1200 X76.016 Y95.928 E32.97498
G0 F6000 X76.016 Y96.55
G1 F1200 X73.449 Y93.983 E33.10779
G0 F6000 X72.827 Y93.983
G1 F1200 X76.016 Y97.172 E33.2728
G0 F6000 X76.016 Y97.794
G1 F1200 X72.204 Y93.983 E33.47
G0 F6000 X71.582 Y93.983
G1 F1200 X76.016 Y98.417 E33.69942
G0 F6000 X76.016 Y99.039
G1 F1200 X70.96 Y93.983 E33.96102
G0 F6000 X70.338 Y93.983
G1 F1200 X76.016 Y99.661 E34.25481
G0 F6000 X76.016 Y100.284
G1 F1200 X69.715 Y93.983 E34.58082
G0 F6000 X69.093 Y93.983
G1 F1200 X76.016 Y100.906 E34.93902
G0 F6000 X76.016 Y101.528
G1 F1200 X68.471 Y93.983 E35.32941
G0 F6000 X67.849 Y93.983
G1 F1200 X76.016 Y102.15 E35.75197
G0 F6000 X76.016 Y102.773
G1 F1200 X67.226 Y93.983 E36.20677
G0 F6000 X66.604 Y93.983
G1 F1200 X76.016 Y103.395 E36.69376
G0 F6000 X76.016 Y104.017
G1 F1200 X65.982 Y93.983 E37.21292
G0 F6000 X65.36 Y93.983
G1 F1200 X76.016 Y104.639 E37.76427
G0 F6000 X76.016 Y105.262
G1 F1200 X64.737 Y93.983 E38.34785
G0 F6000 X64.115 Y93.983
G1 F1200 X76.016 Y105.884 E38.96362
G0 F6000 X75.525 Y106.015
G1 F1200 X63.983 Y94.474 E39.56078
G0 F6000 X63.983 Y95.096
G1 F1200 X74.903 Y106.015 E40.12576
G0 F6000 X74.28 Y106.015
G1 F1200 X63.983 Y95.718 E40.65854
G0 F6000 X63.983 Y96.341
G1 F1200 X73.658 Y106.015 E41.1591
G0 F6000 X73.036 Y106.015
G1 F1200 X63.983 Y96.963 E41.62748
G0 F6000 X63.983 Y97.585
G1 F1200 X72.414 Y106.015 E42.06368
G0 F6000 X71.791 Y106.015
G1 F1200 X63.983 Y98.207 E42.46767
G0 F6000 X63.983 Y98.83
G1 F1200 X71.169 Y106.015 E42.83946
G0 F6000 X70.547 Y106.015
G1 F1200 X63.983 Y99.452 E43.17906
G0 F6000 X63.983 Y100.074
G1 F1200 X69.925 Y106.015 E43.48647
G0 F6000 X69.302 Y106.015
G1 F1200 X63.983 Y100.696 E43.76168
G0 F6000 X63.983 Y101.319
G1 F1200 X68.68 Y106.015 E44.00468
G0 F6000 X68.058 Y106.015
G1 F1200 X63.983 Y101.941 E44.2155
G0 F6000 X63.983 Y102.563
G1 F1200 X67.436 Y106.015 E44.39413
G0 F6000 X66.813 Y106.015
G1 F1200 X63.983 Y103.185 E44.54056
G0 F6000 X63.983 Y103.808
G1 F1200 X66.191 Y106.015 E44.65478
G0 F6000 X65.569 Y106.015
G1 F1200 X63.983 Y104.43 E44.73681
G0 F6000 X63.983 Y105.052
G1 F1200 X64.947 Y106.015 E44.78666
G0 F6000 X64.324 Y106.015
G1 F1200 X63.983 Y105.674 E44.80431
G1 F2400 E40.80431
G1 F240 Z0.6
G0 F6000 X96.632 Y106.632 Z0.6
;TYPE:WALL-INNER
G1 F240 Z0.2
G1 F2400 E44.80431
G1 F1200 X96.632 Y93.368 E45.28959
G1 X83.368 Y93.368 E45.77486
G1 X83.368 Y106.632 E46.26014
G1 X96.632 Y106.632 E46.74542
G0 F6000 X97.072 Y107.072
G1 F1200 X97.072 Y92.928 E47.2629
G1 X82.928 Y92.928 E47.78037
G1 X82.928 Y107.072 E48.29784
G1 X97.072 Y107.072 E48.81532
G0 F6000 X97.512 Y107.512
G1 F1200 X97.512 Y92.488 E49.36499
G1 X82.488 Y92.488 E49.91466
G1 X82.488 Y107.512 E50.46433
G1 X97.512 Y107.512 E51.014
G0 F6000 X97.952 Y107.952
;TYPE:WALL-OUTER
G1 F1200 X97.952 Y92.048 E51.59587
G1 X82.048 Y92.048 E52.17773
G1 X82.048 Y107.952 E52.7596
G1 X97.952 Y107.952 E53.34146
G1 F2400 E49.34146
G1 F240 Z0.6
G0 F6000 X96.236 Y106.236 Z0.6
;TYPE:SKIN
G1 F240 Z0.2
G1 F2400 E53.34146
G1 F1200 X83.764 Y106.236 E53.79777
G1 X83.764 Y93.764 E54.25407
G1 X96.236 Y93.764 E54.71037
G1 X96.236 Y106.236 E55.16667
G1 F2400 E51.16667
G1 F240 Z0.6
G0 F6000 X95.851 Y93.984 Z0.6
G1 F240 Z0.2
G1 F2400 E55.16667
G1 F1200 X96.015 Y94.149 E55.17519
G0 F6000 X96.015 Y94.771
G1 F1200 X95.228 Y93.984 E55.21591
G0 F6000 X94.606 Y93.984
G1 F1200 X96.015 Y95.393 E55.28881
G0 F6000 X96.015 Y96.015
G1 F1200 X93.984 Y93.984 E55.39389
G0 F6000 X93.362 Y93.984
G1 F1200 X96.015 Y96.638 E55.53119
G0 F6000 X96.015 Y97.26
G1 F1200 X92.739 Y93.984 E55.70069
G0 F6000 X92.117 Y93.984
G1 F1200 X96.015 Y97.882 E55.90237
G0 F6000 X96.015 Y98.504
G1 F1200 X91.495 Y93.984 E56.13624
G0 F6000 X90.873 Y93.984
G1 F1200 X96.015 Y99.127 E56.40232
G0 F6000 X96.015 Y99.749
G1 F1200 X90.25 Y93.984 E56.7006
G0 F6000 X89.628 Y93.984
G1 F1200 X96.015 Y100.371 E57.03107
G0 F6000 X96.015 Y100.993
G1 F1200 X89.006 Y93.984 E57.39372
G0 F6000 X88.384 Y93.984
G1 F1200 X96.015 Y101.616 E57.78858
G0 F6000 X96.015 Y102.238
G1 F1200 X87.761 Y93.984 E58.21565
G0 F6000 X87.139 Y93.984
G1 F1200 X96.015 Y102.86 E58.6749
G0 F6000 X96.015 Y103.482
G1 F1200 X86.517 Y93.984 E59.16633
G0 F6000 X85.895 Y93.984
G1 F1200 X96.015 Y104.105 E59.68997
G0 F6000 X96.015 Y104.727
G1 F1200 X85.272 Y93.984 E60.24582
G0 F6000 X84.65 Y93.984
G1 F1200 X96.015 Y105.349 E60.83385
G0 F6000 X96.015 Y105.971
G1 F1200 X84.028 Y93.984 E61.45407
G0 F6000 X83.983 Y94.562
G1 F1200 X95.436 Y106.015 E62.04665
G0 F6000 X94.814 Y106.015
G1 F1200 X83.983 Y95.184 E62.60705
G0 F6000 X83.983 Y95.806
G1 F1200 X94.192 Y106.015 E63.13527
G0 F6000 X93.57 Y106.015
G1 F1200 X83.983 Y96.428 E63.63131
G0 F6000 X83.983 Y97.051
G1 F1200 X92.947 Y106.015 E64.09512
G0 F6000 X92.325 Y106.015
G1 F1200 X83.983 Y97.673 E64.52674
G0 F6000 X83.983 Y98.295
G1 F1200 X91.703 Y106.015 E64.92617
G0 F6000 X91.081 Y106.015
G1 F1200 X83.983 Y98.917 E65.29343
G0 F6000 X83.983 Y99.54
G1 F1200 X90.458 Y106.015 E65.62845
G0 F6000 X89.836 Y106.015
G1 F1200 X83.983 Y100.162 E65.93129
G0 F6000 X83.983 Y100.784
G1 F1200 X89.214 Y106.015 E66.20194
G0 F6000 X88.591 Y106.015
G1 F1200 X83.983 Y101.406 E66.44039
G0 F6000 X83.983 Y102.029
G1 F1200 X87.969 Y106.015 E66.64663
G0 F6000 X87.347 Y106.015
G1 F1200 X83.983 Y102.651 E66.82068
G0 F6000 X83.983 Y103.273
G1 F1200 X86.725 Y106.015 E66.96255
G0 F6000 X86.102 Y106.015
G1 F1200 X83.983 Y103.895 E67.07222
G0 F6000 X83.983 Y104.518
G1 F1200 X85.48 Y106.015 E67.14967
G0 F6000 X84.858 Y106.015
G1 F1200 X83.983 Y105.14 E67.19495
G0 F6000 X83.983 Y105.762
G1 F1200 X84.236 Y106.015 E67.20804
G1 F2400 E63.20804
G1 F240 Z0.6
G0 F6000 X103.368 Y106.632 Z0.6
;TYPE:WALL-INNER
G1 F240 Z0.2
G1 F2400 E67.20804
G1 F1200 X116.632 Y106.632 E67.69332
G1 X116.632 Y93.368 E68.1786
G1 X103.368 Y93.368 E68.66387
G1 X103.368 Y106.632 E69.14915
G0 F6000 X102.928 Y107.072
G1 F1200 X117.072 Y107.072 E69.66663
G1 X117.072 Y92.928 E70.1841
G1 X102.928 Y92.928 E70.70158
G1 X102.928 Y107.072 E71.21905
G0 F6000 X102.488 Y107.512
G1 F1200 X117.512 Y107.512 E71.76872
G1 X117.512 Y92.488 E72.31839
G1 X102.488 Y92.488 E72.86806
G1 X102.488 Y107.512 E73.41773
G0 F6000 X102.048 Y107.952
;TYPE:WALL-OUTER
G1 F1200 X117.952 Y107.952 E73.9996
G1 X117.952 Y92.048 E74.58146
G1 X102.048 Y92.048 E75.16333
G1 X102.048 Y107.952 E75.7452
G1 F2400 E71.7452
G1 F240 Z0.6
G0 F6000 X103.764 Y106.236 Z0.6
;TYPE:SKIN
G1 F240 Z0.2
G1 F2400 E75.7452
G1 F1200 X103.764 Y93.764 E76.2015
G1 X116.236 Y93.764 E76.6578
G1 X116.236 Y106.236 E77.1141
G1 X103.764 Y106.236 E77.57041
G0 F6000 X104.148 Y106.015
G1 F1200 X103.983 Y105.85 E77.57894
G0 F6000 X103.983 Y105.228
G1 F1200 X104.77 Y106.015 E77.61966
G0 F6000 X105.392 Y106.015
G1 F1200 X103.983 Y104.605 E77.69259
G0 F6000 X103.983 Y103.983
G1 F1200 X106.015 Y106.015 E77.79773
G0 F6000 X106.637 Y106.015
G1 F1200 X103.983 Y103.361 E77.93505
G0 F6000 X103.983 Y102.739
G1 F1200 X107.259 Y106.015 E78.10455
G0 F6000 X107.881 Y106.015
G1 F1200 X103.983 Y102.116 E78.30626
G0 F6000 X103.983 Y101.494
G1 F1200 X108.504 Y106.015 E78.54018
G0 F6000 X109.126 Y106.015
G1 F1200 X103.983 Y100.872 E78.80628
G0 F6000 X103.983 Y100.25
G1 F1200 X109.748 Y106.015 E79.10457
G0 F6000 X110.37 Y106.015
G1 F1200 X103.983 Y99.627 E79.43506
G0 F6000 X103.983 Y99.005
G1 F1200 X110.993 Y106.015 E79.79776
G0 F6000 X111.615 Y106.015
G1 F1200 X103.983 Y98.383 E80.19265
G0 F6000 X103.983 Y97.761
G1 F1200 X112.237 Y106.015 E80.61971
G0 F6000 X112.859 Y106.015
G1 F1200 X103.983 Y97.138 E81.07899
G0 F6000 X103.983 Y96.516
G1 F1200 X113.482 Y106.015 E81.57047
G0 F6000 X114.104 Y106.015
G1 F1200 X103.983 Y95.894 E82.09414
G0 F6000 X103.983 Y95.272
G1 F1200 X114.726 Y106.015 E82.64999
G0 F6000 X115.348 Y106.015
G1 F1200 X103.983 Y94.649 E83.23805
G0 F6000 X103.983 Y94.027
G1 F1200 X115.971 Y106.015 E83.85832
G0 F6000 X116.015 Y105.437
G1 F1200 X104.562 Y93.984 E84.4509
G0 F6000 X105.184 Y93.984
G1 F1200 X116.015 Y104.815 E85.0113
G0 F6000 X116.015 Y104.192
G1 F1200 X105.807 Y93.984 E85.53947
G0 F6000 X106.429 Y93.984
G1 F1200 X116.015 Y103.57 E86.03546
G0 F6000 X116.015 Y102.948
G1 F1200 X107.051 Y93.984 E86.49926
G0 F6000 X107.673 Y93.984
G1 F1200 X116.015 Y102.326 E86.93088
G0 F6000 X116.015 Y101.703
G1 F1200 X108.296 Y93.984 E87.33027
G0 F6000 X108.918 Y93.984
G1 F1200 X116.015 Y101.081 E87.69747
G0 F6000 X116.015 Y100.459
G1 F1200 X109.54 Y93.984 E88.03249
G0 F6000 X110.162 Y93.984
G1 F1200 X116.015 Y99.837 E88.33533
G0 F6000 X116.015 Y99.214
G1 F1200 X110.785 Y93.984 E88.60593
G0 F6000 X111.407 Y93.984
G1 F1200 X116.015 Y98.592 E88.84435
G0 F6000 X116.015 Y97.97
G1 F1200 X112.029 Y93.984 E89.05059
G0 F6000 X112.652 Y93.984
G1 F1200 X116.015 Y97.348 E89.22462
G0 F6000 X116.015 Y96.725
G1 F1200 X113.274 Y93.984 E89.36644
G0 F6000 X113.896 Y93.984
G1 F1200 X116.015 Y96.103 E89.47608
G0 F6000 X116.015 Y95.481
G1 F1200 X114.518 Y93.984 E89.55354
G0 F6000 X115.141 Y93.984
G1 F1200 X116.015 Y94.859 E89.59878
G0 F6000 X116.015 Y94.236
G1 F1200 X115.763 Y93.984 E89.61182
G1 F2400 E85.61182
G1 F240 Z0.6
;MESH:NONMESH
G0 F6000 X76.716 Y86.716 Z0.6
;TIME_ELAPSED:146.320701
;LAYER:1
M106 S85
;MESH:Tetromino_J.3mf
G0 F7500 X76.716 Y86.716 Z0.8
;TYPE:WALL-INNER
G1 F240 Z0.4
G1 F2400 E89.61182
G1 F1350 X76.716 Y73.284 E90.10325
G1 X63.284 Y73.284 E90.59467
G1 X63.284 Y86.716 E91.0861
G1 X76.716 Y86.716 E91.57752
G0 F7500 X77.156 Y87.156
G1 F1350 X77.156 Y72.844 E92.10114
G1 X62.844 Y72.844 E92.62476
G1 X62.844 Y87.156 E93.14838
G1 X77.156 Y87.156 E93.67201
G0 F7500 X77.596 Y87.596
G1 F1350 X77.596 Y72.404 E94.22782
G1 X62.404 Y72.404 E94.78364
G1 X62.404 Y87.596 E95.33946
G1 X77.596 Y87.596 E95.89527
G0 F7500 X78.036 Y88.036
;TYPE:WALL-OUTER
G1 F1350 X78.036 Y71.964 E96.48329
G1 X61.964 Y71.964 E97.0713
G1 X61.964 Y88.036 E97.65931
G1 X78.036 Y88.036 E98.24732
G1 F2400 E94.24732
G1 F240 Z0.8
G0 F7500 X76.32 Y86.32 Z0.8
;TYPE:SKIN
G1 F240 Z0.4
G1 F2400 E98.24732
G1 F1350 X63.68 Y86.32 E98.70977
G1 X63.68 Y73.68 E99.17222
G1 X76.32 Y73.68 E99.63467
G1 X76.32 Y86.32 E100.09712
G0 F7500 X75.686 Y86.099
G1 F1350 X76.099 Y85.686 E100.11849
G0 F7500 X76.099 Y85.064
G1 F1350 X75.064 Y86.099 E100.17204
G0 F7500 X74.442 Y86.099
G1 F1350 X76.099 Y84.441 E100.2578
G0 F7500 X76.099 Y83.819
G1 F1350 X73.819 Y86.099 E100.37577
