;FLAVOR:Marlin
;TIME:4697
;Filament used: 3.66188m
;Layer height: 0.2
;MINX:50.62
;MINY:80.62
;MINZ:0.2
;MAXX:129.38
;MAXY:99.38
;MAXZ:18.4
;TARGET_MACHINE.NAME:Kingroon KP3S
;Generated with Cura_SteamEngine 5.6.0
M140 S60
M104 S220
M190 S60
M109 S220
M82 ;absolute extrusion mode
G28 ; home all axes
 M117 Purge extruder
 G92 E0 ; reset extruder
 G1 Z1.0 F3000 ; move z up little to prevent scratching of surface
 G1 X2 Y20 Z0.3 F5000.0 ; move to start-line position
 G1 X2 Y175.0 Z0.3 F1500.0 E15 ; draw 1st line
 G1 X2 Y175.0 Z0.4 F5000.0 ; move to side a little
 G1 X2 Y20 Z0.4 F1500.0 E30 ; draw 2nd line
 G92 E0 ; reset extruder
 G1 Z1.0 F3000 ; move z up little to prevent scratching of surface
G92 E0
G92 E0
G1 F2400 E-4
;LAYER_COUNT:90
;LAYER:0
M107
G1 F240 Z0.6
;MESH:Tetromino_I.3mf
G0 F6000 X66.632 Y96.632 Z0.6
;TYPE:WALL-INNER
G1 F240 Z0.2
G1 F2400 E0
G1 F1200 X66.632 Y83.368 E0.48528
G1 X53.368 Y83.368 E0.97056
G1 X53.368 Y96.632 E1.45584
G1 X66.632 Y96.632 E1.94111
G0 F6000 X67.072 Y97.072
G1 F1200 X67.072 Y82.928 E2.45859
G1 X52.928 Y82.928 E2.97606
G1 X52.928 Y97.072 E3.49354
G1 X67.072 Y97.072 E4.01101
G0 F6000 X67.512 Y97.512
G1 F1200 X67.512 Y82.488 E4.56068
G1 X52.488 Y82.488 E5.11035
G1 X52.488 Y97.512 E5.66002
G1 X67.512 Y97.512 E6.20969
G0 F6000 X67.952 Y97.952
;TYPE:WALL-OUTER
G1 F1200 X67.952 Y82.048 E6.79156
G1 X52.048 Y82.048 E7.37343
G1 X52.048 Y97.952 E7.95529
G1 X67.952 Y97.952 E8.53716
G1 F2400 E4.53716
G1 F240 Z0.6
G0 F6000 X66.236 Y96.236 Z0.6
;TYPE:SKIN
G1 F240 Z0.2
G1 F2400 E8.53716
G1 F1200 X53.764 Y96.236 E8.99346
G1 X53.764 Y83.764 E9.44976
G1 X66.236 Y83.764 E9.90607
G1 X66.236 Y96.236 E10.36237
G1 F2400 E6.36237
G1 F240 Z0.6
G0 F6000 X66.016 Y84.061 Z0.6
G1 F240 Z0.2
G1 F2400 E10.36237
G1 F1200 X65.938 Y83.983 E10.3664
G0 F6000 X65.316 Y83.983
G1 F1200 X66.016 Y84.683 E10.40262
G0 F6000 X66.016 Y85.306
G1 F1200 X64.693 Y83.983 E10.47108
G0 F6000 X64.071 Y83.983
G1 F1200 X66.016 Y85.928 E10.57171
G0 F6000 X66.016 Y86.55
G1 F1200 X63.449 Y83.983 E10.70453
G0 F6000 X62.827 Y83.983
G1 F1200 X66.016 Y87.172 E10.86953
G0 F6000 X66.016 Y87.795
G1 F1200 X62.204 Y83.983 E11.06676
G0 F6000 X61.582 Y83.983
G1 F1200 X66.016 Y88.417 E11.29618
G0 F6000 X66.016 Y89.039
G1 F1200 X60.96 Y83.983 E11.55778
G0 F6000 X60.338 Y83.983
G1 F1200 X66.016 Y89.661 E11.85157
G0 F6000 X66.016 Y90.284
G1 F1200 X59.715 Y83.983 E12.17758
G0 F6000 X59.093 Y83.983
G1 F1200 X66.016 Y90.906 E12.53578
G0 F6000 X66.016 Y91.528
G1 F1200 X58.471 Y83.983 E12.92617
G0 F6000 X57.849 Y83.983
G1 F1200 X66.016 Y92.15 E13.34873
G0 F6000 X66.016 Y92.773
G1 F1200 X57.226 Y83.983 E13.80353
G0 F6000 X56.604 Y83.983
G1 F1200 X66.016 Y93.395 E14.29052
G0 F6000 X66.016 Y94.017
G1 F1200 X55.982 Y83.983 E14.80968
G0 F6000 X55.36 Y83.983
G1 F1200 X66.016 Y94.639 E15.36103
G0 F6000 X66.016 Y95.262
G1 F1200 X54.737 Y83.983 E15.94461
G0 F6000 X54.115 Y83.983
G1 F1200 X66.016 Y95.884 E16.56038
G0 F6000 X65.524 Y96.015
G1 F1200 X53.984 Y84.474 E17.15749
G0 F6000 X53.984 Y85.096
G1 F1200 X64.902 Y96.015 E17.72242
G0 F6000 X64.28 Y96.015
G1 F1200 X53.984 Y85.719 E18.25514
G0 F6000 X53.984 Y86.341
G1 F1200 X63.657 Y96.015 E18.75566
G0 F6000 X63.035 Y96.015
G1 F1200 X53.984 Y86.963 E19.22399
G0 F6000 X53.984 Y87.585
G1 F1200 X62.413 Y96.015 E19.66013
G0 F6000 X61.791 Y96.015
G1 F1200 X53.984 Y88.208 E20.06407
G0 F6000 X53.984 Y88.83
G1 F1200 X61.168 Y96.015 E20.4358
G0 F6000 X60.546 Y96.015
G1 F1200 X53.984 Y89.452 E20.77535
G0 F6000 X53.984 Y90.074
G1 F1200 X59.924 Y96.015 E21.08272
G0 F6000 X59.302 Y96.015
G1 F1200 X53.984 Y90.697 E21.35787
G0 F6000 X53.984 Y91.319
G1 F1200 X58.679 Y96.015 E21.60082
G0 F6000 X58.057 Y96.015
G1 F1200 X53.984 Y91.941 E21.81159
G0 F6000 X53.984 Y92.563
G1 F1200 X57.435 Y96.015 E21.99017
G0 F6000 X56.813 Y96.015
G1 F1200 X53.984 Y93.186 E22.13654
G0 F6000 X53.984 Y93.808
G1 F1200 X56.19 Y96.015 E22.25071
G0 F6000 X55.568 Y96.015
G1 F1200 X53.984 Y94.43 E22.33269
G0 F6000 X53.984 Y95.052
G1 F1200 X54.946 Y96.015 E22.38249
G0 F6000 X54.324 Y96.015
G1 F1200 X53.984 Y95.675 E22.40008
G1 F2400 E18.40008
G1 F240 Z0.6
G0 F6000 X86.632 Y96.632 Z0.6
;TYPE:WALL-INNER
G1 F240 Z0.2
G1 F2400 E22.40008
G1 F1200 X86.632 Y83.368 E22.88536
G1 X73.368 Y83.368 E23.37064
G1 X73.368 Y96.632 E23.85592
G1 X86.632 Y96.632 E24.3412
G0 F6000 X87.072 Y97.072
G1 F1200 X87.072 Y82.928 E24.85867
G1 X72.928 Y82.928 E25.37615
G1 X72.928 Y97.072 E25.89362
G1 X87.072 Y97.072 E26.4111
G0 F6000 X87.512 Y97.512
G1 F1200 X87.512 Y82.488 E26.96077
G1 X72.488 Y82.488 E27.51044
G1 X72.488 Y97.512 E28.06011
G1 X87.512 Y97.512 E28.60978
G0 F6000 X87.952 Y97.952
;TYPE:WALL-OUTER
G1 F1200 X87.952 Y82.048 E29.19164
G1 X72.048 Y82.048 E29.77351
G1 X72.048 Y97.952 E30.35538
G1 X87.952 Y97.952 E30.93724
G1 F2400 E26.93724
G1 F240 Z0.6
G0 F6000 X86.236 Y96.236 Z0.6
;TYPE:SKIN
G1 F240 Z0.2
G1 F2400 E30.93724
G1 F1200 X73.764 Y96.236 E31.39354
G1 X73.764 Y83.764 E31.84985
G1 X86.236 Y83.764 E32.30615
G1 X86.236 Y96.236 E32.76245
G1 F2400 E28.76245
G1 F240 Z0.6
G0 F6000 X85.851 Y83.984 Z0.6
G1 F240 Z0.2
G1 F2400 E32.76245
G1 F1200 X86.016 Y84.149 E32.77099
G0 F6000 X86.016 Y84.771
G1 F1200 X85.228 Y83.984 E32.81173
G0 F6000 X84.606 Y83.984
G1 F1200 X86.016 Y85.393 E32.88466
G0 F6000 X86.016 Y86.016
G1 F1200 X83.984 Y83.984 E32.9898
G0 F6000 X83.362 Y83.984
G1 F1200 X86.016 Y86.638 E33.12712
G0 F6000 X86.016 Y87.26
G1 F1200 X82.739 Y83.984 E33.29665
G0 F6000 X82.117 Y83.984
G1 F1200 X86.016 Y87.882 E33.49836
G0 F6000 X86.016 Y88.505
G1 F1200 X81.495 Y83.984 E33.73228
G0 F6000 X80.873 Y83.984
G1 F1200 X86.016 Y89.127 E33.99838
G0 F6000 X86.016 Y89.749
G1 F1200 X80.25 Y83.984 E34.29669
G0 F6000 X79.628 Y83.984
G1 F1200 X86.016 Y90.371 E34.62718
G0 F6000 X86.016 Y90.994
G1 F1200 X79.006 Y83.984 E34.98989
G0 F6000 X78.384 Y83.984
G1 F1200 X86.016 Y91.616 E35.38477
G0 F6000 X86.016 Y92.238
G1 F1200 X77.761 Y83.984 E35.81186
G0 F6000 X77.139 Y83.984
G1 F1200 X86.016 Y92.86 E36.27114
G0 F6000 X86.016 Y93.483
G1 F1200 X76.517 Y83.984 E36.76262
G0 F6000 X75.895 Y83.984
G1 F1200 X86.016 Y94.105 E37.28629
G0 F6000 X86.016 Y94.727
G1 F1200 X75.272 Y83.984 E37.84217
G0 F6000 X74.65 Y83.984
G1 F1200 X86.016 Y95.349 E38.43022
G0 F6000 X86.016 Y95.972
G1 F1200 X74.028 Y83.984 E39.05049
G0 F6000 X73.983 Y84.562
G1 F1200 X85.436 Y96.015 E39.64308
G0 F6000 X84.814 Y96.015
G1 F1200 X73.983 Y85.184 E40.20348
G0 F6000 X73.983 Y85.806
G1 F1200 X84.192 Y96.015 E40.7317
G0 F6000 X83.57 Y96.015
G1 F1200 X73.983 Y86.428 E41.22774
G0 F6000 X73.983 Y87.051
G1 F1200 X82.947 Y96.015 E41.69154
G0 F6000 X82.325 Y96.015
G1 F1200 X73.983 Y87.673 E42.12316
G0 F6000 X73.983 Y88.295
G1 F1200 X81.703 Y96.015 E42.5226
G0 F6000 X81.081 Y96.015
G1 F1200 X73.983 Y88.917 E42.88985
G0 F6000 X73.983 Y89.54
G1 F1200 X80.458 Y96.015 E43.22487
G0 F6000 X79.836 Y96.015
G1 F1200 X73.983 Y90.162 E43.52771
G0 F6000 X73.983 Y90.784
G1 F1200 X79.214 Y96.015 E43.79837
G0 F6000 X78.592 Y96.015
G1 F1200 X73.983 Y91.406 E44.03684
G0 F6000 X73.983 Y92.029
G1 F1200 X77.969 Y96.015 E44.24308
G0 F6000 X77.347 Y96.015
G1 F1200 X73.983 Y92.651 E44.41713
G0 F6000 X73.983 Y93.273
G1 F1200 X76.725 Y96.015 E44.559
G0 F6000 X76.103 Y96.015
G1 F1200 X73.983 Y93.896 E44.66867
G0 F6000 X73.983 Y94.518
G1 F1200 X75.48 Y96.015 E44.74612
G0 F6000 X74.858 Y96.015
G1 F1200 X73.983 Y95.14 E44.7914
G0 F6000 X73.983 Y95.762
G1 F1200 X74.236 Y96.015 E44.80449
G1 F2400 E40.80449
G1 F240 Z0.6
G0 F6000 X93.368 Y96.632 Z0.6
;TYPE:WALL-INNER
G1 F240 Z0.2
G1 F2400 E44.80449
G1 F1200 X106.632 Y96.632 E45.28977
G1 X106.632 Y83.368 E45.77505
G1 X93.368 Y83.368 E46.26032
G1 X93.368 Y96.632 E46.7456
G0 F6000 X92.928 Y97.072
G1 F1200 X107.072 Y97.072 E47.26308
G1 X107.072 Y82.928 E47.78055
G1 X92.928 Y82.928 E48.29803
G1 X92.928 Y97.072 E48.8155
G0 F6000 X92.488 Y97.512
G1 F1200 X107.512 Y97.512 E49.36517
G1 X107.512 Y82.488 E49.91484
G1 X92.488 Y82.488 E50.46451
G1 X92.488 Y97.512 E51.01418
G0 F6000 X92.048 Y97.952
;TYPE:WALL-OUTER
G1 F1200 X107.952 Y97.952 E51.59605
G1 X107.952 Y82.048 E52.17791
G1 X92.048 Y82.048 E52.75978
G1 X92.048 Y97.952 E53.34165
G1 F2400 E49.34165
G1 F240 Z0.6
G0 F6000 X93.764 Y96.236 Z0.6
;TYPE:SKIN
G1 F240 Z0.2
G1 F2400 E53.34165
G1 F1200 X93.764 Y83.764 E53.79795
G1 X106.236 Y83.764 E54.25425
G1 X106.236 Y96.236 E54.71055
G1 X93.764 Y96.236 E55.16686
G0 F6000 X94.148 Y96.015
G1 F1200 X93.983 Y95.85 E55.17539
G0 F6000 X93.983 Y95.228
G1 F1200 X94.77 Y96.015 E55.21611
G0 F6000 X95.392 Y96.015
G1 F1200 X93.983 Y94.605 E55.28904
G0 F6000 X93.983 Y93.983
G1 F1200 X96.015 Y96.015 E55.39418
G0 F6000 X96.637 Y96.015
G1 F1200 X93.983 Y93.361 E55.5315
G0 F6000 X93.983 Y92.739
G1 F1200 X97.259 Y96.015 E55.701
G0 F6000 X97.881 Y96.015
G1 F1200 X93.983 Y92.116 E55.90271
G0 F6000 X93.983 Y91.494
G1 F1200 X98.504 Y96.015 E56.13663
G0 F6000 X99.126 Y96.015
G1 F1200 X93.983 Y90.872 E56.40273
G0 F6000 X93.983 Y90.25
G1 F1200 X99.748 Y96.015 E56.70102
G0 F6000 X100.37 Y96.015
G1 F1200 X93.983 Y89.627 E57.03151
G0 F6000 X93.983 Y89.005
G1 F1200 X100.993 Y96.015 E57.39421
G0 F6000 X101.615 Y96.015
G1 F1200 X93.983 Y88.383 E57.7891
G0 F6000 X93.983 Y87.761
G1 F1200 X102.237 Y96.015 E58.21616
G0 F6000 X102.859 Y96.015
G1 F1200 X93.983 Y87.138 E58.67544
G0 F6000 X93.983 Y86.516
G1 F1200 X103.482 Y96.015 E59.16692
G0 F6000 X104.104 Y96.015
G1 F1200 X93.983 Y85.894 E59.69059
G0 F6000 X93.983 Y85.272
G1 F1200 X104.726 Y96.015 E60.24644
G0 F6000 X105.349 Y96.015
G1 F1200 X93.983 Y84.649 E60.83452
G0 F6000 X93.983 Y84.027
G1 F1200 X105.971 Y96.015 E61.45479
G0 F6000 X106.015 Y95.437
G1 F1200 X94.562 Y83.984 E62.04738
G0 F6000 X95.185 Y83.984
G1 F1200 X106.015 Y94.815 E62.60775
G0 F6000 X106.015 Y94.192
G1 F1200 X95.807 Y83.984 E63.13592
G0 F6000 X96.429 Y83.984
G1 F1200 X106.015 Y93.57 E63.63191
G0 F6000 X106.015 Y92.948
G1 F1200 X97.051 Y83.984 E64.09571
G0 F6000 X97.674 Y83.984
G1 F1200 X106.015 Y92.326 E64.5273
G0 F6000 X106.015 Y91.703
G1 F1200 X98.296 Y83.984 E64.92669
G0 F6000 X98.918 Y83.984
G1 F1200 X106.015 Y91.081 E65.29389
G0 F6000 X106.015 Y90.459
G1 F1200 X99.54 Y83.984 E65.62891
G0 F6000 X100.163 Y83.984
G1 F1200 X106.015 Y89.837 E65.93173
G0 F6000 X106.015 Y89.214
G1 F1200 X100.785 Y83.984 E66.20233
G0 F6000 X101.407 Y83.984
G1 F1200 X106.015 Y88.592 E66.44075
G0 F6000 X106.015 Y87.97
G1 F1200 X102.029 Y83.984 E66.64699
G0 F6000 X102.652 Y83.984
G1 F1200 X106.015 Y87.348 E66.82102
G0 F6000 X106.015 Y86.725
G1 F1200 X103.274 Y83.984 E66.96284
G0 F6000 X103.896 Y83.984
G1 F1200 X106.015 Y86.103 E67.07248
G0 F6000 X106.015 Y85.481
G1 F1200 X104.518 Y83.984 E67.14993
G0 F6000 X105.141 Y83.984
G1 F1200 X106.015 Y84.859 E67.19518
G0 F6000 X106.015 Y84.236
G1 F1200 X105.763 Y83.984 E67.20822
G1 F2400 E63.20822
G1 F240 Z0.6
G0 F6000 X113.368 Y96.632 Z0.6
;TYPE:WALL-INNER
G1 F240 Z0.2
G1 F2400 E67.20822
G1 F1200 X126.632 Y96.632 E67.6935
G1 X126.632 Y83.368 E68.17878
G1 X113.368 Y83.368 E68.66406
G1 X113.368 Y96.632 E69.14933
G0 F6000 X112.928 Y97.072
G1 F1200 X127.072 Y97.072 E69.66681
G1 X127.072 Y82.928 E70.18428
G1 X112.928 Y82.928 E70.70176
G1 X112.928 Y97.072 E71.21923
G0 F6000 X112.488 Y97.512
G1 F1200 X127.512 Y97.512 E71.7689
G1 X127.512 Y82.488 E72.31857
G1 X112.488 Y82.488 E72.86824
G1 X112.488 Y97.512 E73.41791
G0 F6000 X112.048 Y97.952
;TYPE:WALL-OUTER
G1 F1200 X127.952 Y97.952 E73.99978
G1 X127.952 Y82.048 E74.58165
G1 X112.048 Y82.048 E75.16351
G1 X112.048 Y97.952 E75.74538
G1 F2400 E71.74538
G1 F240 Z0.6
G0 F6000 X113.764 Y96.236 Z0.6
;TYPE:SKIN
G1 F240 Z0.2
G1 F2400 E75.74538
G1 F1200 X113.764 Y83.764 E76.20168
G1 X126.236 Y83.764 E76.65798
G1 X126.236 Y96.236 E77.11428
G1 X113.764 Y96.236 E77.57059
G0 F6000 X113.983 Y95.938
G1 F1200 X114.061 Y96.015 E77.5746
G0 F6000 X114.683 Y96.015
G1 F1200 X113.983 Y95.315 E77.61082
G0 F6000 X113.983 Y94.693
G1 F1200 X115.305 Y96.015 E77.67922
G0 F6000 X115.928 Y96.015
G1 F1200 X113.983 Y94.071 E77.77983
G0 F6000 X113.983 Y93.449
G1 F1200 X116.55 Y96.015 E77.91262
G0 F6000 X117.172 Y96.015
G1 F1200 X113.983 Y92.826 E78.07762
G0 F6000 X113.983 Y92.204
G1 F1200 X117.794 Y96.015 E78.2748
G0 F6000 X118.417 Y96.015
G1 F1200 X113.983 Y91.582 E78.5042
G0 F6000 X113.983 Y90.96
G1 F1200 X119.039 Y96.015 E78.76577
G0 F6000 X119.661 Y96.015
G1 F1200 X113.983 Y90.337 E79.05955
G0 F6000 X113.983 Y89.715
G1 F1200 X120.283 Y96.015 E79.38552
G0 F6000 X120.906 Y96.015
G1 F1200 X113.983 Y89.093 E79.74369
G0 F6000 X113.983 Y88.471
G1 F1200 X121.528 Y96.015 E80.13405
G0 F6000 X122.15 Y96.015
G1 F1200 X113.983 Y87.848 E80.55662
G0 F6000 X113.983 Y87.226
G1 F1200 X122.772 Y96.015 E81.01136
G0 F6000 X123.395 Y96.015
G1 F1200 X113.983 Y86.604 E81.49832
G0 F6000 X113.983 Y85.982
G1 F1200 X124.017 Y96.015 E82.01746
G0 F6000 X124.639 Y96.015
G1 F1200 X113.983 Y85.359 E82.56881
G0 F6000 X113.983 Y84.737
G1 F1200 X125.261 Y96.015 E83.15234
G0 F6000 X125.884 Y96.015
G1 F1200 X113.983 Y84.115 E83.76808
G0 F6000 X114.474 Y83.983
G1 F1200 X126.015 Y95.525 E84.36524
G0 F6000 X126.015 Y94.902
G1 F1200 X115.096 Y83.983 E84.9302
G0 F6000 X115.718 Y83.983
G1 F1200 X126.015 Y94.28 E85.46297
G0 F6000 X126.015 Y93.658
G1 F1200 X116.34 Y83.983 E85.96356
G0 F6000 X116.963 Y83.983
G1 F1200 X126.015 Y93.036 E86.43195
G0 F6000 X126.015 Y92.413
G1 F1200 X117.585 Y83.983 E86.86812
G0 F6000 X118.207 Y83.983
G1 F1200 X126.015 Y91.791 E87.27211
G0 F6000 X126.015 Y91.169
G1 F1200 X118.83 Y83.983 E87.64389
G0 F6000 X119.452 Y83.983
G1 F1200 X126.015 Y90.547 E87.98349
G0 F6000 X126.015 Y89.924
G1 F1200 X120.074 Y83.983 E88.29088
G0 F6000 X120.696 Y83.983
G1 F1200 X126.015 Y89.302 E88.56609
G0 F6000 X126.015 Y88.68
G1 F1200 X121.319 Y83.983 E88.80909
G0 F6000 X121.941 Y83.983
G1 F1200 X126.015 Y88.058 E89.01991
G0 F6000 X126.015 Y87.435
G1 F1200 X122.563 Y83.983 E89.19852
G0 F6000 X123.185 Y83.983
G1 F1200 X126.015 Y86.813 E89.34494
G0 F6000 X126.015 Y86.191
G1 F1200 X123.808 Y83.983 E89.45916
G0 F6000 X124.43 Y83.983
G1 F1200 X126.015 Y85.569 E89.5412
G0 F6000 X126.015 Y84.946
G1 F1200 X125.052 Y83.983 E89.59102
G0 F6000 X125.674 Y83.983
G1 F1200 X126.015 Y84.324 E89.60867
G1 F2400 E85.60867
G1 F240 Z0.6
;MESH:NONMESH
G0 F6000 X66.716 Y96.716 Z0.6
;TIME_ELAPSED:145.993518
;LAYER:1
M106 S85
;MESH:Tetromino_I.3mf
G0 F7500 X66.716 Y96.716 Z0.8
;TYPE:WALL-INNER
G1 F240 Z0.4
G1 F2400 E89.60867
G1 F1350 X66.716 Y83.284 E90.10009
G1 X53.284 Y83.284 E90.59152
G1 X53.284 Y96.716 E91.08294
G1 X66.716 Y96.716 E91.57437
G0 F7500 X67.156 Y97.156
G1 F1350 X67.156 Y82.844 E92.09799
G1 X52.844 Y82.844 E92.62161
G1 X52.844 Y97.156 E93.14523
G1 X67.156 Y97.156 E93.66885
G0 F7500 X67.596 Y97.596
G1 F1350 X67.596 Y82.404 E94.22467
G1 X52.404 Y82.404 E94.78048
G1 X52.404 Y97.596 E95.3363
G1 X67.596 Y97.596 E95.89212
G0 F7500 X68.036 Y98.036
;TYPE:WALL-OUTER
G1 F1350 X68.036 Y81.964 E96.48013
G1 X51.964 Y81.964 E97.06814
G1 X51.964 Y98.036 E97.65615
G1 X68.036 Y98.036 E98.24417
G1 F2400 E94.24417
G1 F240 Z0.8
G0 F7500 X66.32 Y96.32 Z0.8
;TYPE:SKIN
G1 F240 Z0.4
G1 F2400 E98.24417
G1 F1350 X53.68 Y96.32 E98.70662
G1 X53.68 Y83.68 E99.16906
G1 X66.32 Y83.68 E99.63151
G1 X66.32 Y96.32 E100.09396
G0 F7500 X65.686 Y96.099
G1 F1350 X66.099 Y95.686 E100.11533
G0 F7500 X66.099 Y95.064
G1 F1350 X65.064 Y96.099 E100.16888
G0 F7500 X64.442 Y96.099
G1 F1350 X66.099 Y94.441 E100.25464
G0 F7500 X66.099 Y93.819
G1 F1350 X63.819 Y96.099 E100.37261
G0 F7500 X63.197 Y96.099
G1 F1350 X66.099 Y93.197 E100.52276
G0 F7500 X66.099 Y92.575
G1 F1350 X62.575 Y96.099 E100.7051
G0 F7500 X61.953 Y96.099
G1 F1350 X66.099 Y91.952 E100.91964
