;FLAVOR:Marlin
;TIME:3879
;Filament used: 2.9749m
;Layer height: 0.2
;MINX:53.864
;MINY:80.69
;MINZ:0.2
;MAXX:132.624
;MAXY:99.45
;MAXZ:16.4
;TARGET_MACHINE.NAME:Kingroon KP3S
;Generated with Cura_SteamEngine 5.6.0
M140 S60
M104 S200
M190 S60
M109 S200
M82 ;absolute extrusion mode
G28 ; home all axes
 M117 Purge extruder
 G92 E0 ; reset extruder
 G1 Z1.0 F3000 ; move z up little to prevent scratching of surface
 G1 X2 Y20 Z0.3 F5000.0 ; move to start-line position
 G1 X2 Y175.0 Z0.3 F1500.0 E15 ; draw 1st line
 G1 X2 Y175.0 Z0.4 F5000.0 ; move to side a little
 G1 X2 Y20 Z0.4 F1500.0 E30 ; draw 2nd line
 G92 E0 ; reset extruder
 G1 Z1.0 F3000 ; move z up little to prevent scratching of surface
G92 E0
G92 E0
G1 F2400 E-4
;LAYER_COUNT:80
;LAYER:0
M107
G1 F240 Z0.6
;MESH:Tetromino_I.3mf
G0 F6000 X70.275 Y97.101 Z0.6
;TYPE:WALL-INNER
G1 F240 Z0.2
G1 F2400 E0
G1 F1200 X70.275 Y83.039 E0.51447
G1 X56.213 Y83.039 E1.02895
G1 X56.213 Y97.101 E1.54342
G1 X70.275 Y97.101 E2.0579
G0 F6000 X70.715 Y97.541
G1 F1200 X70.715 Y82.599 E2.60457
G1 X55.773 Y82.599 E3.15124
G1 X55.773 Y97.541 E3.69791
G1 X70.715 Y97.541 E4.24458
G0 F6000 X71.155 Y97.981
;TYPE:WALL-OUTER
G1 F1200 X71.155 Y82.159 E4.82344
G1 X55.333 Y82.159 E5.40231
G1 X55.333 Y97.981 E5.98118
G1 X71.155 Y97.981 E6.56004
G1 F2400 E2.56004
G1 F240 Z0.6
G0 F6000 X69.879 Y96.705 Z0.6
;TYPE:SKIN
G1 F240 Z0.2
G1 F2400 E6.56004
G1 F1200 X56.609 Y96.705 E7.04554
G1 X56.609 Y83.435 E7.53104
G1 X69.879 Y83.435 E8.01654
G1 X69.879 Y96.705 E8.50204
G1 F2400 E4.50204
G1 F240 Z0.6
G0 F6000 X69.659 Y83.971 Z0.6
G1 F240 Z0.2
G1 F2400 E8.50204
G1 F1200 X69.342 Y83.654 E8.51844
G0 F6000 X68.72 Y83.654
G1 F1200 X69.659 Y84.593 E8.56702
G0 F6000 X69.659 Y85.215
G1 F1200 X68.097 Y83.654 E8.64781
G0 F6000 X67.475 Y83.654
G1 F1200 X69.659 Y85.837 E8.76079
G0 F6000 X69.659 Y86.46
G1 F1200 X66.853 Y83.654 E8.90597
G0 F6000 X66.231 Y83.654
G1 F1200 X69.659 Y87.082 E9.08334
G0 F6000 X69.659 Y87.704
G1 F1200 X65.608 Y83.654 E9.29292
G0 F6000 X64.986 Y83.654
G1 F1200 X69.659 Y88.326 E9.53467
G0 F6000 X69.659 Y88.949
G1 F1200 X64.364 Y83.654 E9.80864
G0 F6000 X63.742 Y83.654
G1 F1200 X69.659 Y89.571 E10.11479
G0 F6000 X69.659 Y90.193
G1 F1200 X63.119 Y83.654 E10.45315
G0 F6000 X62.497 Y83.654
G1 F1200 X69.659 Y90.815 E10.82369
G0 F6000 X69.659 Y91.438
G1 F1200 X61.875 Y83.654 E11.22644
G0 F6000 X61.253 Y83.654
G1 F1200 X69.659 Y92.06 E11.66137
G0 F6000 X69.659 Y92.682
G1 F1200 X60.63 Y83.654 E12.12851
G0 F6000 X60.008 Y83.654
G1 F1200 X69.659 Y93.304 E12.62783
G0 F6000 X69.659 Y93.927
G1 F1200 X59.386 Y83.654 E13.15936
G0 F6000 X58.764 Y83.654
G1 F1200 X69.659 Y94.549 E13.72308
G0 F6000 X69.659 Y95.171
G1 F1200 X58.141 Y83.654 E14.319
G0 F6000 X57.519 Y83.654
G1 F1200 X69.659 Y95.793 E14.94711
G0 F6000 X69.659 Y96.416
G1 F1200 X56.897 Y83.654 E15.60742
G0 F6000 X56.828 Y84.207
G1 F1200 X69.104 Y96.484 E16.24261
G0 F6000 X68.482 Y96.484
G1 F1200 X56.828 Y84.83 E16.8456
G0 F6000 X56.828 Y85.452
G1 F1200 X67.86 Y96.484 E17.4164
G0 F6000 X67.238 Y96.484
G1 F1200 X56.828 Y86.074 E17.95502
G0 F6000 X56.828 Y86.696
G1 F1200 X66.615 Y96.484 E18.46143
G0 F6000 X65.993 Y96.484
G1 F1200 X56.828 Y87.319 E18.93564
G0 F6000 X56.828 Y87.941
G1 F1200 X65.371 Y96.484 E19.37766
G0 F6000 X64.749 Y96.484
G1 F1200 X56.828 Y88.563 E19.78749
G0 F6000 X56.828 Y89.185
G1 F1200 X64.126 Y96.484 E20.16512
G0 F6000 X63.504 Y96.484
G1 F1200 X56.828 Y89.808 E20.51054
G0 F6000 X56.828 Y90.43
G1 F1200 X62.882 Y96.484 E20.82378
G0 F6000 X62.26 Y96.484
G1 F1200 X56.828 Y91.052 E21.10484
G0 F6000 X56.828 Y91.674
G1 F1200 X61.637 Y96.484 E21.35368
G0 F6000 X61.015 Y96.484
G1 F1200 X56.828 Y92.297 E21.57032
G0 F6000 X56.828 Y92.919
G1 F1200 X60.393 Y96.484 E21.75478
G0 F6000 X59.771 Y96.484
G1 F1200 X56.828 Y93.541 E21.90705
G0 F6000 X56.828 Y94.163
G1 F1200 X59.148 Y96.484 E22.02711
G0 F6000 X58.526 Y96.484
G1 F1200 X56.828 Y94.786 E22.11497
G0 F6000 X56.828 Y95.408
G1 F1200 X57.904 Y96.484 E22.17064
G0 F6000 X57.282 Y96.484
G1 F1200 X56.828 Y96.03 E22.19413
G1 F2400 E18.19413
G1 F240 Z0.6
G0 F6000 X90.275 Y97.101 Z0.6
;TYPE:WALL-INNER
G1 F240 Z0.2
G1 F2400 E22.19413
G1 F1200 X90.275 Y83.039 E22.70861
G1 X76.213 Y83.039 E23.22308
G1 X76.213 Y97.101 E23.73756
G1 X90.275 Y97.101 E24.25203
G0 F6000 X90.715 Y97.541
G1 F1200 X90.715 Y82.599 E24.7987
G1 X75.773 Y82.599 E25.34537
G1 X75.773 Y97.541 E25.89204
G1 X90.715 Y97.541 E26.43871
G0 F6000 X91.155 Y97.981
;TYPE:WALL-OUTER
G1 F1200 X91.155 Y82.159 E27.01758
G1 X75.333 Y82.159 E27.59644
G1 X75.333 Y97.981 E28.17531
G1 X91.155 Y97.981 E28.75417
G1 F2400 E24.75417
G1 F240 Z0.6
G0 F6000 X89.879 Y96.705 Z0.6
;TYPE:SKIN
G1 F240 Z0.2
G1 F2400 E28.75417
G1 F1200 X76.609 Y96.705 E29.23967
G1 X76.609 Y83.435 E29.72517
G1 X89.879 Y83.435 E30.21067
G1 X89.879 Y96.705 E30.69617
G1 F2400 E26.69617
G1 F240 Z0.6
G0 F6000 X89.659 Y84.058 Z0.6
G1 F240 Z0.2
G1 F2400 E30.69617
G1 F1200 X89.255 Y83.654 E30.71707
G0 F6000 X88.633 Y83.654
G1 F1200 X89.659 Y84.68 E30.77016
G0 F6000 X89.659 Y85.303
G1 F1200 X88.01 Y83.654 E30.85548
G0 F6000 X87.388 Y83.654
G1 F1200 X89.659 Y85.925 E30.97298
G0 F6000 X89.659 Y86.547
G1 F1200 X86.766 Y83.654 E31.12267
G0 F6000 X86.143 Y83.654
G1 F1200 X89.659 Y87.17 E31.30459
G0 F6000 X89.659 Y87.792
G1 F1200 X85.521 Y83.654 E31.51869
G0 F6000 X84.899 Y83.654
G1 F1200 X89.659 Y88.414 E31.76497
G0 F6000 X89.659 Y89.036
G1 F1200 X84.277 Y83.654 E32.04344
G0 F6000 X83.654 Y83.654
G1 F1200 X89.659 Y89.659 E32.35414
G0 F6000 X89.659 Y90.281
G1 F1200 X83.032 Y83.654 E32.69703
G0 F6000 X82.41 Y83.654
G1 F1200 X89.659 Y90.903 E33.0721
G0 F6000 X89.659 Y91.525
G1 F1200 X81.788 Y83.654 E33.47935
G0 F6000 X81.165 Y83.654
G1 F1200 X89.659 Y92.148 E33.91883
G0 F6000 X89.659 Y92.77
G1 F1200 X80.543 Y83.654 E34.3905
G0 F6000 X79.921 Y83.654
G1 F1200 X89.659 Y93.392 E34.89435
G0 F6000 X89.659 Y94.014
G1 F1200 X79.299 Y83.654 E35.43038
G0 F6000 X78.676 Y83.654
G1 F1200 X89.659 Y94.637 E35.99865
G0 F6000 X89.659 Y95.259
G1 F1200 X78.054 Y83.654 E36.5991
G0 F6000 X77.432 Y83.654
G1 F1200 X89.659 Y95.881 E37.23173
G0 F6000 X89.639 Y96.484
G1 F1200 X76.829 Y83.674 E37.89453
G0 F6000 X76.829 Y84.296
G1 F1200 X89.016 Y96.484 E38.52512
G0 F6000 X88.394 Y96.484
G1 F1200 X76.829 Y84.918 E39.12353
G0 F6000 X76.829 Y85.54
G1 F1200 X87.772 Y96.484 E39.68975
G0 F6000 X87.15 Y96.484
G1 F1200 X76.829 Y86.163 E40.22376
G0 F6000 X76.829 Y86.785
G1 F1200 X86.527 Y96.484 E40.72557
G0 F6000 X85.905 Y96.484
G1 F1200 X76.829 Y87.407 E41.19519
G0 F6000 X76.829 Y88.029
G1 F1200 X85.283 Y96.484 E41.63264
G0 F6000 X84.661 Y96.484
G1 F1200 X76.829 Y88.652 E42.03787
G0 F6000 X76.829 Y89.274
G1 F1200 X84.038 Y96.484 E42.41089
G0 F6000 X83.416 Y96.484
G1 F1200 X76.829 Y89.896 E42.75173
G0 F6000 X76.829 Y90.518
G1 F1200 X82.794 Y96.484 E43.06039
G0 F6000 X82.172 Y96.484
G1 F1200 X76.829 Y91.141 E43.33684
G0 F6000 X76.829 Y91.763
G1 F1200 X81.549 Y96.484 E43.58108
G0 F6000 X80.927 Y96.484
G1 F1200 X76.829 Y92.385 E43.79314
G0 F6000 X76.829 Y93.007
G1 F1200 X80.305 Y96.484 E43.97302
G0 F6000 X79.683 Y96.484
G1 F1200 X76.829 Y93.63 E44.12069
G0 F6000 X76.829 Y94.252
G1 F1200 X79.06 Y96.484 E44.23615
G0 F6000 X78.438 Y96.484
G1 F1200 X76.829 Y94.874 E44.31942
G0 F6000 X76.829 Y95.496
G1 F1200 X77.816 Y96.484 E44.37052
G0 F6000 X77.194 Y96.484
G1 F1200 X76.829 Y96.119 E44.3894
G1 F2400 E40.3894
G1 F240 Z0.6
G0 F6000 X96.213 Y97.101 Z0.6
;TYPE:WALL-INNER
G1 F240 Z0.2
G1 F2400 E44.3894
G1 F1200 X110.275 Y97.101 E44.90388
G1 X110.275 Y83.039 E45.41835
G1 X96.213 Y83.039 E45.93283
G1 X96.213 Y97.101 E46.4473
G0 F6000 X95.773 Y97.541
G1 F1200 X110.715 Y97.541 E46.99397
G1 X110.715 Y82.599 E47.54064
G1 X95.773 Y82.599 E48.08731
G1 X95.773 Y97.541 E48.63398
G0 F6000 X95.333 Y97.981
;TYPE:WALL-OUTER
G1 F1200 X111.155 Y97.981 E49.21285
G1 X111.155 Y82.159 E49.79171
G1 X95.333 Y82.159 E50.37058
G1 X95.333 Y97.981 E50.94944
G1 F2400 E46.94944
G1 F240 Z0.6
G0 F6000 X96.609 Y96.705 Z0.6
;TYPE:SKIN
G1 F240 Z0.2
G1 F2400 E50.94944
G1 F1200 X96.609 Y83.435 E51.43494
G1 X109.879 Y83.435 E51.92044
G1 X109.879 Y96.705 E52.40594
G1 X96.609 Y96.705 E52.89144
G0 F6000 X97.106 Y96.484
G1 F1200 X96.828 Y96.206 E52.90582
G0 F6000 X96.828 Y95.583
G1 F1200 X97.729 Y96.484 E52.95244
G0 F6000 X98.351 Y96.484
G1 F1200 X96.828 Y94.961 E53.03124
G0 F6000 X96.828 Y94.339
G1 F1200 X98.973 Y96.484 E53.14222
G0 F6000 X99.595 Y96.484
G1 F1200 X96.828 Y93.717 E53.28539
G0 F6000 X96.828 Y93.094
G1 F1200 X100.218 Y96.484 E53.46079
G0 F6000 X100.84 Y96.484
G1 F1200 X96.828 Y92.472 E53.66837
G0 F6000 X96.828 Y91.85
G1 F1200 X101.462 Y96.484 E53.90814
G0 F6000 X102.085 Y96.484
G1 F1200 X96.828 Y91.228 E54.18012
G0 F6000 X96.828 Y90.605
G1 F1200 X102.707 Y96.484 E54.4843
G0 F6000 X103.329 Y96.484
G1 F1200 X96.828 Y89.983 E54.82066
G0 F6000 X96.828 Y89.361
G1 F1200 X103.951 Y96.484 E55.18921
G0 F6000 X104.574 Y96.484
G1 F1200 X96.828 Y88.739 E55.58997
G0 F6000 X96.828 Y88.116
G1 F1200 X105.196 Y96.484 E56.02294
G0 F6000 X105.818 Y96.484
G1 F1200 X96.828 Y87.494 E56.48808
G0 F6000 X96.828 Y86.872
G1 F1200 X106.44 Y96.484 E56.98541
G0 F6000 X107.063 Y96.484
G1 F1200 X96.828 Y86.25 E57.51495
G0 F6000 X96.828 Y85.627
G1 F1200 X107.685 Y96.484 E58.0767
G0 F6000 X108.307 Y96.484
G1 F1200 X96.828 Y85.005 E58.67063
G0 F6000 X96.828 Y84.383
G1 F1200 X108.929 Y96.484 E59.29675
G0 F6000 X109.552 Y96.484
G1 F1200 X96.828 Y83.761 E59.95507
G0 F6000 X97.344 Y83.654
G1 F1200 X109.658 Y95.968 E60.5922
G0 F6000 X109.658 Y95.346
G1 F1200 X97.966 Y83.654 E61.19715
G0 F6000 X98.589 Y83.654
G1 F1200 X109.658 Y94.724 E61.7699
G0 F6000 X109.658 Y94.101
G1 F1200 X99.211 Y83.654 E62.31043
G0 F6000 X99.833 Y83.654
G1 F1200 X109.658 Y93.479 E62.81878
G0 F6000 X109.658 Y92.857
G1 F1200 X100.455 Y83.654 E63.29495
G0 F6000 X101.078 Y83.654
G1 F1200 X109.658 Y92.235 E63.73891
G0 F6000 X109.658 Y91.612
G1 F1200 X101.7 Y83.654 E64.15066
G0 F6000 X102.322 Y83.654
G1 F1200 X109.658 Y90.99 E64.53023
G0 F6000 X109.658 Y90.368
G1 F1200 X102.944 Y83.654 E64.87762
G0 F6000 X103.567 Y83.654
G1 F1200 X109.658 Y89.745 E65.19277
G0 F6000 X109.658 Y89.123
G1 F1200 X104.189 Y83.654 E65.47574
G0 F6000 X104.811 Y83.654
G1 F1200 X109.658 Y88.501 E65.72653
G0 F6000 X109.658 Y87.879
G1 F1200 X105.433 Y83.654 E65.94513
G0 F6000 X106.056 Y83.654
G1 F1200 X109.658 Y87.256 E66.1315
G0 F6000 X109.658 Y86.634
G1 F1200 X106.678 Y83.654 E66.28569
G0 F6000 X107.3 Y83.654
G1 F1200 X109.658 Y86.012 E66.40769
G0 F6000 X109.658 Y85.39
G1 F1200 X107.922 Y83.654 E66.49752
G0 F6000 X108.545 Y83.654
G1 F1200 X109.658 Y84.767 E66.5551
G0 F6000 X109.658 Y84.145
G1 F1200 X109.167 Y83.654 E66.58051
G1 F2400 E62.58051
G1 F240 Z0.6
G0 F6000 X116.213 Y97.101 Z0.6
;TYPE:WALL-INNER
G1 F240 Z0.2
G1 F2400 E66.58051
G1 F1200 X130.275 Y97.101 E67.09498
G1 X130.275 Y83.039 E67.60946
G1 X116.213 Y83.039 E68.12393
G1 X116.213 Y97.101 E68.6384
G0 F6000 X115.773 Y97.541
G1 F1200 X130.715 Y97.541 E69.18508
G1 X130.715 Y82.599 E69.73175
G1 X115.773 Y82.599 E70.27842
G1 X115.773 Y97.541 E70.82509
G0 F6000 X115.333 Y97.981
;TYPE:WALL-OUTER
G1 F1200 X131.155 Y97.981 E71.40395
G1 X131.155 Y82.159 E71.98282
G1 X115.333 Y82.159 E72.56168
G1 X115.333 Y97.981 E73.14055
G1 F2400 E69.14055
G1 F240 Z0.6
G0 F6000 X116.609 Y96.705 Z0.6
;TYPE:SKIN
G1 F240 Z0.2
G1 F2400 E73.14055
G1 F1200 X116.609 Y83.435 E73.62605
G1 X129.879 Y83.435 E74.11155
G1 X129.879 Y96.705 E74.59704
G1 X116.609 Y96.705 E75.08254
G0 F6000 X117.019 Y96.484
G1 F1200 X116.828 Y96.293 E75.09243
G0 F6000 X116.828 Y95.671
G1 F1200 X117.641 Y96.484 E75.13449
G0 F6000 X118.263 Y96.484
G1 F1200 X116.828 Y95.049 E75.20874
G0 F6000 X116.828 Y94.427
G1 F1200 X118.885 Y96.484 E75.31517
G0 F6000 X119.508 Y96.484
G1 F1200 X116.828 Y93.804 E75.45383
G0 F6000 X116.828 Y93.182
G1 F1200 X120.13 Y96.484 E75.62468
G0 F6000 X120.752 Y96.484
G1 F1200 X116.828 Y92.56 E75.82771
G0 F6000 X116.828 Y91.938
G1 F1200 X121.374 Y96.484 E76.06292
G0 F6000 X121.997 Y96.484
G1 F1200 X116.828 Y91.315 E76.33037
G0 F6000 X116.828 Y90.693
G1 F1200 X122.619 Y96.484 E76.63
G0 F6000 X123.241 Y96.484
G1 F1200 X116.828 Y90.071 E76.96181
G0 F6000 X116.828 Y89.449
G1 F1200 X123.863 Y96.484 E77.32581
G0 F6000 X124.486 Y96.484
G1 F1200 X116.828 Y88.826 E77.72204
G0 F6000 X116.828 Y88.204
G1 F1200 X125.108 Y96.484 E78.15045
G0 F6000 X125.73 Y96.484
G1 F1200 X116.828 Y87.582 E78.61105
G0 F6000 X116.828 Y86.959
G1 F1200 X126.352 Y96.484 E79.10385
G0 F6000 X126.975 Y96.484
G1 F1200 X116.828 Y86.337 E79.62886
G0 F6000 X116.828 Y85.715
G1 F1200 X127.597 Y96.484 E80.18606
G0 F6000 X128.219 Y96.484
G1 F1200 X116.828 Y85.093 E80.77543
G0 F6000 X116.828 Y84.47
G1 F1200 X128.841 Y96.484 E81.39702
G0 F6000 X129.464 Y96.484
G1 F1200 X116.828 Y83.848 E82.05082
G0 F6000 X117.256 Y83.654
G1 F1200 X129.657 Y96.056 E82.69248
G0 F6000 X129.657 Y95.433
G1 F1200 X117.878 Y83.654 E83.30193
G0 F6000 X118.501 Y83.654
G1 F1200 X129.657 Y94.811 E83.87917
G0 F6000 X129.657 Y94.189
G1 F1200 X119.123 Y83.654 E84.42424
G0 F6000 X119.745 Y83.654
G1 F1200 X129.657 Y93.567 E84.93711
G0 F6000 X129.657 Y92.944
G1 F1200 X120.367 Y83.654 E85.41778
G0 F6000 X120.99 Y83.654
G1 F1200 X129.657 Y92.322 E85.86625
G0 F6000 X129.657 Y91.7
G1 F1200 X121.612 Y83.654 E86.28253
G0 F6000 X122.234 Y83.654
G1 F1200 X129.657 Y91.078 E86.66662
G0 F6000 X129.657 Y90.455
G1 F1200 X122.856 Y83.654 E87.01851
G0 F6000 X123.479 Y83.654
G1 F1200 X129.657 Y89.833 E87.33819
G0 F6000 X129.657 Y89.211
G1 F1200 X124.101 Y83.654 E87.62569
G0 F6000 X124.723 Y83.654
G1 F1200 X129.657 Y88.589 E87.881
G0 F6000 X129.657 Y87.966
G1 F1200 X125.345 Y83.654 E88.10411
G0 F6000 X125.968 Y83.654
G1 F1200 X129.657 Y87.344 E88.295
G0 F6000 X129.657 Y86.722
G1 F1200 X126.59 Y83.654 E88.45372
G0 F6000 X127.212 Y83.654
G1 F1200 X129.657 Y86.1 E88.58025
G0 F6000 X129.657 Y85.477
G1 F1200 X127.835 Y83.654 E88.67455
G0 F6000 X128.457 Y83.654
G1 F1200 X129.657 Y84.855 E88.73666
G0 F6000 X129.657 Y84.233
G1 F1200 X129.079 Y83.654 E88.76659
G1 F2400 E84.76659
G1 F240 Z0.6
;MESH:NONMESH
G0 F6000 X70.373 Y97.199 Z0.6
;TIME_ELAPSED:144.859897
;LAYER:1
M106 S85
;MESH:Tetromino_I.3mf
G0 F7500 X70.373 Y97.199 Z0.8
;TYPE:WALL-INNER
G1 F240 Z0.4
G1 F2400 E88.76659
G1 F1350 X70.373 Y82.941 E89.28824
G1 X56.115 Y82.941 E89.80988
G1 X56.115 Y97.199 E90.33153
G1 X70.373 Y97.199 E90.85317
G0 F7500 X70.813 Y97.639
G1 F1350 X70.813 Y82.501 E91.40702
G1 X55.675 Y82.501 E91.96086
G1 X55.675 Y97.639 E92.5147
G1 X70.813 Y97.639 E93.06854
G0 F7500 X71.253 Y98.079
;TYPE:WALL-OUTER
G1 F1350 X71.253 Y82.061 E93.65458
G1 X55.235 Y82.061 E94.24061
G1 X55.235 Y98.079 E94.82665
G1 X71.253 Y98.079 E95.41269
G1 F2400 E91.41269
G1 F240 Z0.8
G0 F7500 X69.977 Y96.803 Z0.8
;TYPE:SKIN
G1 F240 Z0.4
G1 F2400 E95.41269
G1 F1350 X56.511 Y96.803 E95.90536
G1 X56.511 Y83.337 E96.39803
G1 X69.977 Y83.337 E96.89069
G1 X69.977 Y96.803 E97.38336
G0 F7500 X69.559 Y96.582
G1 F1350 X69.756 Y96.385 E97.39356
G0 F7500 X69.756 Y95.762
G1 F1350 X68.937 Y96.582 E97.43596
G0 F7500 X68.315 Y96.582
G1 F1350 X69.756 Y95.14 E97.51054
G0 F7500 X69.756 Y94.518
G1 F1350 X67.692 Y96.582 E97.61733
G0 F7500 X67.07 Y96.582
G1 F1350 X69.756 Y93.896 E97.75631
G0 F7500 X69.756 Y93.273
G1 F1350 X66.448 Y96.582 E97.92749
G0 F7500 X65.825 Y96.582
G1 F1350 X69.756 Y92.651 E98.13089
G0 F7500 X69.756 Y92.029
G1 F1350 X65.203 Y96.582 E98.36646
G0 F7500 X64.581 Y96.582
G1 F1350 X69.756 Y91.406 E98.63424
G0 F7500 X69.756 Y90.784
G1 F1350 X63.959 Y96.582 E98.93421
G0 F7500 X63.336 Y96.582
G1 F1350 X69.756 Y90.162 E99.26639
G0 F7500 X69.756 Y89.54
