;FLAVOR:Marlin
;TIME:4550
;Filament used: 3.59513m
;Layer height: 0.2
;MINX:70.62
;MINY:70.62
;MINZ:0.2
;MAXX:109.38
;MAXY:109.38
;MAXZ:18.4
;TARGET_MACHINE.NAME:Kingroon KP3S
;Generated with Cura_SteamEngine 5.6.0
M140 S60
M104 S220
M190 S60
M109 S220
M82 ;absolute extrusion mode
G28 ; home all axes
 M117 Purge extruder
 G92 E0 ; reset extruder
 G1 Z1.0 F3000 ; move z up little to prevent scratching of surface
 G1 X2 Y20 Z0.3 F5000.0 ; move to start-line position
 G1 X2 Y175.0 Z0.3 F1500.0 E15 ; draw 1st line
 G1 X2 Y175.0 Z0.4 F5000.0 ; move to side a little
 G1 X2 Y20 Z0.4 F1500.0 E30 ; draw 2nd line
 G92 E0 ; reset extruder
 G1 Z1.0 F3000 ; move z up little to prevent scratching of surface
G92 E0
G92 E0
G1 F2400 E-4
;LAYER_COUNT:90
;LAYER:0
M107
G1 F240 Z0.6
;MESH:Tetromino_O.3mf
G0 F6000 X86.632 Y86.632 Z0.6
;TYPE:WALL-INNER
G1 F240 Z0.2
G1 F2400 E0
G1 F1200 X86.632 Y73.368 E0.48528
G1 X73.368 Y73.368 E0.97056
G1 X73.368 Y86.632 E1.45584
G1 X86.632 Y86.632 E1.94111
G0 F6000 X87.072 Y87.072
G1 F1200 X87.072 Y72.928 E2.45859
G1 X72.928 Y72.928 E2.97606
G1 X72.928 Y87.072 E3.49354
G1 X87.072 Y87.072 E4.01101
G0 F6000 X87.512 Y87.512
G1 F1200 X87.512 Y72.488 E4.56068
G1 X72.488 Y72.488 E5.11035
G1 X72.488 Y87.512 E5.66002
G1 X87.512 Y87.512 E6.20969
G0 F6000 X87.952 Y87.952
;TYPE:WALL-OUTER
G1 F1200 X87.952 Y72.048 E6.79156
G1 X72.048 Y72.048 E7.37343
G1 X72.048 Y87.952 E7.95529
G1 X87.952 Y87.952 E8.53716
G1 F2400 E4.53716
G1 F240 Z0.6
G0 F6000 X86.236 Y86.236 Z0.6
;TYPE:SKIN
G1 F240 Z0.2
G1 F2400 E8.53716
G1 F1200 X73.764 Y86.236 E8.99346
G1 X73.764 Y73.764 E9.44976
G1 X86.236 Y73.764 E9.90607
G1 X86.236 Y86.236 E10.36237
G1 F2400 E6.36237
G1 F240 Z0.6
G0 F6000 X86.015 Y74.192 Z0.6
G1 F240 Z0.2
G1 F2400 E10.36237
G1 F1200 X85.807 Y73.984 E10.37313
G0 F6000 X85.185 Y73.984
G1 F1200 X86.015 Y74.814 E10.41607
G0 F6000 X86.015 Y75.436
G1 F1200 X84.562 Y73.984 E10.49123
G0 F6000 X83.94 Y73.984
G1 F1200 X86.015 Y76.059 E10.59859
G0 F6000 X86.015 Y76.681
G1 F1200 X83.318 Y73.984 E10.73813
G0 F6000 X82.696 Y73.984
G1 F1200 X86.015 Y77.303 E10.90986
G0 F6000 X86.015 Y77.925
G1 F1200 X82.073 Y73.984 E11.1138
G0 F6000 X81.451 Y73.984
G1 F1200 X86.015 Y78.548 E11.34994
G0 F6000 X86.015 Y79.17
G1 F1200 X80.829 Y73.984 E11.61827
G0 F6000 X80.207 Y73.984
G1 F1200 X86.015 Y79.792 E11.91878
G0 F6000 X86.015 Y80.415
G1 F1200 X79.584 Y73.984 E12.25152
G0 F6000 X78.962 Y73.984
G1 F1200 X86.015 Y81.037 E12.61645
G0 F6000 X86.015 Y81.659
G1 F1200 X78.34 Y73.984 E13.01356
G0 F6000 X77.718 Y73.984
G1 F1200 X86.015 Y82.281 E13.44285
G0 F6000 X86.015 Y82.904
G1 F1200 X77.095 Y73.984 E13.90438
G0 F6000 X76.473 Y73.984
G1 F1200 X86.015 Y83.526 E14.39809
G0 F6000 X86.015 Y84.148
G1 F1200 X75.851 Y73.984 E14.92398
G0 F6000 X75.229 Y73.984
G1 F1200 X86.015 Y84.77 E15.48205
G0 F6000 X86.015 Y85.393
G1 F1200 X74.606 Y73.984 E16.07236
G0 F6000 X73.983 Y73.983
G1 F1200 X86.015 Y86.015 E16.6949
G0 F6000 X85.393 Y86.015
G1 F1200 X73.983 Y74.606 E17.28524
G0 F6000 X73.983 Y75.228
G1 F1200 X84.77 Y86.015 E17.84336
G0 F6000 X84.148 Y86.015
G1 F1200 X73.983 Y75.85 E18.36931
G0 F6000 X73.983 Y76.472
G1 F1200 X83.526 Y86.015 E18.86307
G0 F6000 X82.904 Y86.015
G1 F1200 X73.983 Y77.095 E19.32462
G0 F6000 X73.983 Y77.717
G1 F1200 X82.281 Y86.015 E19.75396
G0 F6000 X81.659 Y86.015
G1 F1200 X73.983 Y78.339 E20.15113
G0 F6000 X73.983 Y78.961
G1 F1200 X81.037 Y86.015 E20.5161
G0 F6000 X80.415 Y86.015
G1 F1200 X73.983 Y79.584 E20.84887
G0 F6000 X73.983 Y80.206
G1 F1200 X79.792 Y86.015 E21.14944
G0 F6000 X79.17 Y86.015
G1 F1200 X73.983 Y80.828 E21.41781
G0 F6000 X73.983 Y81.45
G1 F1200 X78.548 Y86.015 E21.65401
G0 F6000 X77.925 Y86.015
G1 F1200 X73.983 Y82.073 E21.85797
G0 F6000 X73.983 Y82.695
G1 F1200 X77.303 Y86.015 E22.02975
G0 F6000 X76.681 Y86.015
G1 F1200 X73.983 Y83.317 E22.16935
G0 F6000 X73.983 Y83.939
G1 F1200 X76.059 Y86.015 E22.27676
G0 F6000 X75.436 Y86.015
G1 F1200 X73.983 Y84.562 E22.35194
G0 F6000 X73.983 Y85.184
G1 F1200 X74.814 Y86.015 E22.39494
G0 F6000 X74.192 Y86.015
G1 F1200 X73.983 Y85.806 E22.40575
G1 F2400 E18.40575
G1 F240 Z0.6
G0 F6000 X86.632 Y106.632 Z0.6
;TYPE:WALL-INNER
G1 F240 Z0.2
G1 F2400 E22.40575
G1 F1200 X86.632 Y93.368 E22.89103
G1 X73.368 Y93.368 E23.37631
G1 X73.368 Y106.632 E23.86159
G1 X86.632 Y106.632 E24.34686
G0 F6000 X87.072 Y107.072
G1 F1200 X87.072 Y92.928 E24.86434
G1 X72.928 Y92.928 E25.38181
G1 X72.928 Y107.072 E25.89929
G1 X87.072 Y107.072 E26.41676
G0 F6000 X87.512 Y107.512
G1 F1200 X87.512 Y92.488 E26.96643
G1 X72.488 Y92.488 E27.5161
G1 X72.488 Y107.512 E28.06577
G1 X87.512 Y107.512 E28.61544
G0 F6000 X87.952 Y107.952
;TYPE:WALL-OUTER
G1 F1200 X87.952 Y92.048 E29.19731
G1 X72.048 Y92.048 E29.77918
G1 X72.048 Y107.952 E30.36104
G1 X87.952 Y107.952 E30.94291
G1 F2400 E26.94291
G1 F240 Z0.6
G0 F6000 X86.236 Y106.236 Z0.6
;TYPE:SKIN
G1 F240 Z0.2
G1 F2400 E30.94291
G1 F1200 X73.764 Y106.236 E31.39921
G1 X73.764 Y93.764 E31.85551
G1 X86.236 Y93.764 E32.31181
G1 X86.236 Y106.236 E32.76812
G1 F2400 E28.76812
G1 F240 Z0.6
G0 F6000 X86.016 Y94.105 Z0.6
G1 F240 Z0.2
G1 F2400 E32.76812
G1 F1200 X85.894 Y93.983 E32.77443
G0 F6000 X85.272 Y93.983
G1 F1200 X86.016 Y94.727 E32.81292
G0 F6000 X86.016 Y95.349
G1 F1200 X84.649 Y93.983 E32.88363
G0 F6000 X84.027 Y93.983
G1 F1200 X86.016 Y95.972 E32.98654
G0 F6000 X86.016 Y96.594
G1 F1200 X83.405 Y93.983 E33.12164
G0 F6000 X82.783 Y93.983
G1 F1200 X86.016 Y97.216 E33.28891
G0 F6000 X86.016 Y97.838
G1 F1200 X82.16 Y93.983 E33.4884
G0 F6000 X81.538 Y93.983
G1 F1200 X86.016 Y98.461 E33.72009
G0 F6000 X86.016 Y99.083
G1 F1200 X80.916 Y93.983 E33.98397
G0 F6000 X80.294 Y93.983
G1 F1200 X86.016 Y99.705 E34.28003
G0 F6000 X86.016 Y100.327
G1 F1200 X79.671 Y93.983 E34.6083
G0 F6000 X79.049 Y93.983
G1 F1200 X86.016 Y100.95 E34.96878
G0 F6000 X86.016 Y101.572
G1 F1200 X78.427 Y93.983 E35.36144
G0 F6000 X77.805 Y93.983
G1 F1200 X86.016 Y102.194 E35.78628
G0 F6000 X86.016 Y102.816
G1 F1200 X77.182 Y93.983 E36.24333
G0 F6000 X76.56 Y93.983
G1 F1200 X86.016 Y103.439 E36.73259
G0 F6000 X86.016 Y104.061
G1 F1200 X75.938 Y93.983 E37.25403
G0 F6000 X75.316 Y93.983
G1 F1200 X86.016 Y104.683 E37.80765
G0 F6000 X86.016 Y105.305
G1 F1200 X74.693 Y93.983 E38.39349
G0 F6000 X74.071 Y93.983
G1 F1200 X86.016 Y105.928 E39.01153
G0 F6000 X85.481 Y106.015
G1 F1200 X73.983 Y94.518 E39.60642
G0 F6000 X73.983 Y95.14
G1 F1200 X84.859 Y106.015 E40.16912
G0 F6000 X84.236 Y106.015
G1 F1200 X73.983 Y95.762 E40.69962
G0 F6000 X73.983 Y96.385
G1 F1200 X83.614 Y106.015 E41.19791
G0 F6000 X82.992 Y106.015
G1 F1200 X73.983 Y97.007 E41.66401
G0 F6000 X73.983 Y97.629
G1 F1200 X82.37 Y106.015 E42.09794
G0 F6000 X81.747 Y106.015
G1 F1200 X73.983 Y98.251 E42.49965
G0 F6000 X73.983 Y98.874
G1 F1200 X81.125 Y106.015 E42.86916
G0 F6000 X80.503 Y106.015
G1 F1200 X73.983 Y99.496 E43.20648
G0 F6000 X73.983 Y100.118
G1 F1200 X79.881 Y106.015 E43.51162
G0 F6000 X79.258 Y106.015
G1 F1200 X73.983 Y100.74 E43.78455
G0 F6000 X73.983 Y101.363
G1 F1200 X78.636 Y106.015 E44.02527
G0 F6000 X78.014 Y106.015
G1 F1200 X73.983 Y101.985 E44.23381
G0 F6000 X73.983 Y102.607
G1 F1200 X77.392 Y106.015 E44.41017
G0 F6000 X76.769 Y106.015
G1 F1200 X73.983 Y103.229 E44.55432
G0 F6000 X73.983 Y103.852
G1 F1200 X76.147 Y106.015 E44.66626
G0 F6000 X75.525 Y106.015
G1 F1200 X73.983 Y104.474 E44.74602
G0 F6000 X73.983 Y105.096
G1 F1200 X74.903 Y106.015 E44.7936
G0 F6000 X74.28 Y106.015
G1 F1200 X73.983 Y105.718 E44.80896
G1 F2400 E40.80896
G1 F240 Z0.6
G0 F6000 X93.368 Y106.632 Z0.6
;TYPE:WALL-INNER
G1 F240 Z0.2
G1 F2400 E44.80896
G1 F1200 X106.632 Y106.632 E45.29424
G1 X106.632 Y93.368 E45.77952
G1 X93.368 Y93.368 E46.2648
G1 X93.368 Y106.632 E46.75008
G0 F6000 X92.928 Y107.072
G1 F1200 X107.072 Y107.072 E47.26755
G1 X107.072 Y92.928 E47.78503
G1 X92.928 Y92.928 E48.3025
G1 X92.928 Y107.072 E48.81998
G0 F6000 X92.488 Y107.512
G1 F1200 X107.512 Y107.512 E49.36965
G1 X107.512 Y92.488 E49.91932
G1 X92.488 Y92.488 E50.46899
G1 X92.488 Y107.512 E51.01866
G0 F6000 X92.048 Y107.952
;TYPE:WALL-OUTER
G1 F1200 X107.952 Y107.952 E51.60052
G1 X107.952 Y92.048 E52.18239
G1 X92.048 Y92.048 E52.76426
G1 X92.048 Y107.952 E53.34612
G1 F2400 E49.34612
G1 F240 Z0.6
G0 F6000 X93.764 Y106.236 Z0.6
;TYPE:SKIN
G1 F240 Z0.2
G1 F2400 E53.34612
G1 F1200 X93.764 Y93.764 E53.80242
G1 X106.236 Y93.764 E54.25873
G1 X106.236 Y106.236 E54.71503
G1 X93.764 Y106.236 E55.17133
G0 F6000 X94.192 Y106.015
G1 F1200 X93.983 Y105.806 E55.18215
G0 F6000 X93.983 Y105.184
G1 F1200 X94.814 Y106.015 E55.22514
G0 F6000 X95.436 Y106.015
G1 F1200 X93.983 Y104.562 E55.30032
G0 F6000 X93.983 Y103.939
G1 F1200 X96.059 Y106.015 E55.40773
G0 F6000 X96.681 Y106.015
G1 F1200 X93.983 Y103.317 E55.54733
G0 F6000 X93.983 Y102.695
G1 F1200 X97.303 Y106.015 E55.71911
G0 F6000 X97.925 Y106.015
G1 F1200 X93.983 Y102.072 E55.9231
G0 F6000 X93.983 Y101.45
G1 F1200 X98.548 Y106.015 E56.15929
G0 F6000 X99.17 Y106.015
G1 F1200 X93.983 Y100.828 E56.42767
G0 F6000 X93.983 Y100.206
G1 F1200 X99.792 Y106.015 E56.72823
G0 F6000 X100.414 Y106.015
G1 F1200 X93.983 Y99.583 E57.061
G0 F6000 X93.983 Y98.961
G1 F1200 X101.037 Y106.015 E57.42598
G0 F6000 X101.659 Y106.015
G1 F1200 X93.983 Y98.339 E57.82314
G0 F6000 X93.983 Y97.717
G1 F1200 X102.281 Y106.015 E58.25249
G0 F6000 X102.903 Y106.015
G1 F1200 X93.983 Y97.094 E58.71404
G0 F6000 X93.983 Y96.472
G1 F1200 X103.526 Y106.015 E59.2078
G0 F6000 X104.148 Y106.015
G1 F1200 X93.983 Y95.85 E59.73374
G0 F6000 X93.983 Y95.228
G1 F1200 X104.77 Y106.015 E60.29187
G0 F6000 X105.392 Y106.015
G1 F1200 X93.983 Y94.605 E60.8822
G0 F6000 X93.983 Y93.983
G1 F1200 X106.015 Y106.015 E61.50475
G0 F6000 X106.015 Y105.393
G1 F1200 X94.606 Y93.984 E62.09506
G0 F6000 X95.228 Y93.984
G1 F1200 X106.015 Y104.771 E62.65318
G0 F6000 X106.015 Y104.149
G1 F1200 X95.851 Y93.984 E63.1791
G0 F6000 X96.473 Y93.984
G1 F1200 X106.015 Y103.526 E63.67281
G0 F6000 X106.015 Y102.904
G1 F1200 X97.095 Y93.984 E64.13433
G0 F6000 X97.717 Y93.984
G1 F1200 X106.015 Y102.282 E64.56368
G0 F6000 X106.015 Y101.66
G1 F1200 X98.34 Y93.984 E64.96081
G0 F6000 X98.962 Y93.984
G1 F1200 X106.015 Y101.037 E65.32574
G0 F6000 X106.015 Y100.415
G1 F1200 X99.584 Y93.984 E65.65848
G0 F6000 X100.206 Y93.984
G1 F1200 X106.015 Y99.793 E65.95905
G0 F6000 X106.015 Y99.171
G1 F1200 X100.829 Y93.984 E66.2274
G0 F6000 X101.451 Y93.984
G1 F1200 X106.015 Y98.548 E66.46354
G0 F6000 X106.015 Y97.926
G1 F1200 X102.073 Y93.984 E66.6675
G0 F6000 X102.695 Y93.984
G1 F1200 X106.015 Y97.304 E66.83928
G0 F6000 X106.015 Y96.682
G1 F1200 X103.318 Y93.984 E66.97885
G0 F6000 X103.94 Y93.984
G1 F1200 X106.015 Y96.059 E67.08621
G0 F6000 X106.015 Y95.437
G1 F1200 X104.562 Y93.984 E67.16139
G0 F6000 X105.184 Y93.984
G1 F1200 X106.015 Y94.815 E67.20439
G0 F6000 X106.015 Y94.192
G1 F1200 X105.807 Y93.984 E67.21515
G1 F2400 E63.21515
G1 F240 Z0.6
G0 F6000 X93.368 Y86.632 Z0.6
;TYPE:WALL-INNER
G1 F240 Z0.2
G1 F2400 E67.21515
G1 F1200 X106.632 Y86.632 E67.70043
G1 X106.632 Y73.368 E68.18571
G1 X93.368 Y73.368 E68.67099
G1 X93.368 Y86.632 E69.15627
G0 F6000 X92.928 Y87.072
G1 F1200 X107.072 Y87.072 E69.67374
G1 X107.072 Y72.928 E70.19122
G1 X92.928 Y72.928 E70.70869
G1 X92.928 Y87.072 E71.22617
G0 F6000 X92.488 Y87.512
G1 F1200 X107.512 Y87.512 E71.77584
G1 X107.512 Y72.488 E72.32551
G1 X92.488 Y72.488 E72.87518
G1 X92.488 Y87.512 E73.42485
G0 F6000 X92.048 Y87.952
;TYPE:WALL-OUTER
G1 F1200 X107.952 Y87.952 E74.00671
G1 X107.952 Y72.048 E74.58858
G1 X92.048 Y72.048 E75.17044
G1 X92.048 Y87.952 E75.75231
G1 F2400 E71.75231
G1 F240 Z0.6
G0 F6000 X93.764 Y86.236 Z0.6
;TYPE:SKIN
G1 F240 Z0.2
G1 F2400 E75.75231
G1 F1200 X93.764 Y73.764 E76.20861
G1 X106.236 Y73.764 E76.66492
G1 X106.236 Y86.236 E77.12122
G1 X93.764 Y86.236 E77.57752
G0 F6000 X94.105 Y86.016
G1 F1200 X93.983 Y85.894 E77.58383
G0 F6000 X93.983 Y85.272
G1 F1200 X94.727 Y86.016 E77.62233
G0 F6000 X95.349 Y86.016
G1 F1200 X93.983 Y84.649 E77.69303
G0 F6000 X93.983 Y84.027
G1 F1200 X95.972 Y86.016 E77.79594
G0 F6000 X96.594 Y86.016
G1 F1200 X93.983 Y83.405 E77.93104
G0 F6000 X93.983 Y82.783
G1 F1200 X97.216 Y86.016 E78.09832
G0 F6000 X97.838 Y86.016
G1 F1200 X93.983 Y82.16 E78.2978
G0 F6000 X93.983 Y81.538
G1 F1200 X98.461 Y86.016 E78.5295
G0 F6000 X99.083 Y86.016
G1 F1200 X93.983 Y80.916 E78.79337
G0 F6000 X93.983 Y80.294
G1 F1200 X99.705 Y86.016 E79.08943
G0 F6000 X100.327 Y86.016
G1 F1200 X93.983 Y79.671 E79.4177
G0 F6000 X93.983 Y79.049
G1 F1200 X100.95 Y86.016 E79.77818
G0 F6000 X101.572 Y86.016
G1 F1200 X93.983 Y78.427 E80.17084
G0 F6000 X93.983 Y77.805
G1 F1200 X102.194 Y86.016 E80.59568
G0 F6000 X102.816 Y86.016
G1 F1200 X93.983 Y77.182 E81.05273
G0 F6000 X93.983 Y76.56
G1 F1200 X103.439 Y86.016 E81.54199
G0 F6000 X104.061 Y86.016
G1 F1200 X93.983 Y75.938 E82.06343
G0 F6000 X93.983 Y75.316
G1 F1200 X104.683 Y86.016 E82.61706
G0 F6000 X105.305 Y86.016
G1 F1200 X93.983 Y74.693 E83.20289
G0 F6000 X93.983 Y74.071
G1 F1200 X105.928 Y86.016 E83.82093
G0 F6000 X106.015 Y85.481
G1 F1200 X94.518 Y73.983 E84.41582
G0 F6000 X95.14 Y73.983
G1 F1200 X106.015 Y84.859 E84.97853
G0 F6000 X106.015 Y84.236
G1 F1200 X95.762 Y73.983 E85.50902
G0 F6000 X96.385 Y73.983
G1 F1200 X106.015 Y83.614 E86.00731
G0 F6000 X106.015 Y82.992
G1 F1200 X97.007 Y73.983 E86.47342
G0 F6000 X97.629 Y73.983
G1 F1200 X106.015 Y82.37 E86.90734
G0 F6000 X106.015 Y81.747
G1 F1200 X98.251 Y73.983 E87.30905
G0 F6000 X98.874 Y73.983
G1 F1200 X106.015 Y81.125 E87.67856
G0 F6000 X106.015 Y80.503
G1 F1200 X99.496 Y73.983 E88.01588
G0 F6000 X100.118 Y73.983
G1 F1200 X106.015 Y79.881 E88.32102
G0 F6000 X106.015 Y79.258
G1 F1200 X100.74 Y73.983 E88.59395
G0 F6000 X101.363 Y73.983
G1 F1200 X106.015 Y78.636 E88.83468
G0 F6000 X106.015 Y78.014
G1 F1200 X101.985 Y73.983 E89.04322
G0 F6000 X102.607 Y73.983
G1 F1200 X106.015 Y77.392 E89.21958
G0 F6000 X106.015 Y76.769
G1 F1200 X103.229 Y73.983 E89.36373
G0 F6000 X103.852 Y73.983
G1 F1200 X106.015 Y76.147 E89.47567
G0 F6000 X106.015 Y75.525
G1 F1200 X104.474 Y73.983 E89.55542
G0 F6000 X105.096 Y73.983
G1 F1200 X106.015 Y74.903 E89.603
G0 F6000 X106.015 Y74.28
G1 F1200 X105.718 Y73.983 E89.61837
G1 F2400 E85.61837
G1 F240 Z0.6
;MESH:NONMESH
G0 F6000 X86.716 Y86.716 Z0.6
;TIME_ELAPSED:145.562379
;LAYER:1
M106 S85
;MESH:Tetromino_O.3mf
G0 F7500 X86.716 Y86.716 Z0.8
;TYPE:WALL-INNER
G1 F240 Z0.4
G1 F2400 E89.61837
G1 F1350 X86.716 Y73.284 E90.10979
G1 X73.284 Y73.284 E90.60122
G1 X73.284 Y86.716 E91.09264
G1 X86.716 Y86.716 E91.58407
G0 F7500 X87.156 Y87.156
G1 F1350 X87.156 Y72.844 E92.10769
G1 X72.844 Y72.844 E92.63131
G1 X72.844 Y87.156 E93.15493
G1 X87.156 Y87.156 E93.67855
G0 F7500 X87.596 Y87.596
G1 F1350 X87.596 Y72.404 E94.23437
G1 X72.404 Y72.404 E94.79018
G1 X72.404 Y87.596 E95.346
G1 X87.596 Y87.596 E95.90182
G0 F7500 X88.036 Y88.036
;TYPE:WALL-OUTER
G1 F1350 X88.036 Y71.964 E96.48983
G1 X71.964 Y71.964 E97.07784
G1 X71.964 Y88.036 E97.66586
G1 X88.036 Y88.036 E98.25387
G1 F2400 E94.25387
G1 F240 Z0.8
G0 F7500 X86.32 Y86.32 Z0.8
;TYPE:SKIN
G1 F240 Z0.4
G1 F2400 E98.25387
G1 F1350 X73.68 Y86.32 E98.71632
G1 X73.68 Y73.68 E99.17877
G1 X86.32 Y73.68 E99.64122
G1 X86.32 Y86.32 E100.10366
G0 F7500 X85.642 Y86.099
G1 F1350 X86.099 Y85.642 E100.12731
G0 F7500 X86.099 Y85.02
G1 F1350 X85.02 Y86.099 E100.18314
G0 F7500 X84.398 Y86.099
G1 F1350 X86.099 Y84.398 E100.27115
G0 F7500 X86.099 Y83.775
G1 F1350 X83.775 Y86.099 E100.39139
G0 F7500 X83.153 Y86.099
G1 F1350 X86.099 Y83.153 E100.54382
G0 F7500 X86.099 Y82.531
G1 F1350 X82.531 Y86.099 E100.72843
